P3
256 145
255
255 255 255  255 255 255  255 255 255  255 255 255  255 255 255  255 255 255
255 255 255  255 255 255  255 255 255  255 255 255  255 255 255  255 255 255
255 255 255  255 255 255  255 255 255  255 255 255  255 255 255  255 255 255
255 255 255  255 255 255  255 255 255  255 255 255  255 255 255  255 255 255
255 255 255  255 255 255  255 255 255  255 255 255  255 255 255  255 255 255
255 255 255  255 255 255  255 255 255  255 255 255  255 255 255  255 255 255
255 255 255  225 241 255  195 226 255  195 226 255  165 211 255  134 197 255
134 197 255  134 197 255  134 197 255  134 197 255  134 197 255  134 197 255
134 197 255  134 197 255  134 197 255  134 197 255  134 197 255  134 197 255
134 197 255  134 197 255  134 197 255  134 197 255  134 197 255  134 197 255
134 197 255  134 197 255  134 197 255  134 197 255  134 197 255  134 197 255
134 197 255  134 197 255  134 197 255  134 197 255  134 197 255  134 197 255
225 241 255  255 255 255  255 255 255  255 255 255  255 255 255  255 255 255
255 255 255  255 255 255  255 255 255  255 255 255  255 255 255  255 255 255
255 255 255  255 255 255  255 255 255  255 255 255  255 255 255  255 255 255
255 255 255  255 255 255  255 255 255  255 255 255  255 255 255  255 255 255
255 255 255  255 255 255  255 255 255  255 255 255  255 255 255  255 255 255
255 255 255  255 255 255  255 255 255  255 255 255  255 255 255  225 241 255
195 226 255  195 226 255  195 226 255  195 226 255  150 204 255  134 197 255
134 197 255  134 197 255  134 197 255  134 197 255  134 197 255  134 197 255
134 197 255  134 197 255  134 197 255  134 197 255  134 197 255  134 197 255
134 197 255  134 197 255  134 197 255  134 197 255  134 197 255  134 197 255
134 197 255  134 197 255  134 197 255  134 197 255  134 197 255  134 197 255
134 197 255  134 197 255  134 197 255  134 197 255  134 197 255  134 197 255
134 197 255  134 197 255  134 197 255  134 197 255  134 197 255  134 197 255
134 197 255  134 197 255  134 197 255  134 197 255  134 197 255  134 197 255
134 197 255  165 211 255  240 248 255  255 255 255  255 255 255  255 255 255
255 255 255  255 255 255  255 255 255  255 255 255  255 255 255  255 255 255
255 255 255  255 255 255  255 255 255  255 255 255  255 255 255  255 255 255
255 255 255  255 255 255  255 255 255  255 255 255  255 255 255  255 255 255
240 248 255  165 211 255  134 197 255  134 197 255  134 197 255  134 197 255
134 197 255  134 197 255  134 197 255  134 197 255  134 197 255  134 197 255
134 197 255  134 197 255  134 197 255  134 197 255  134 197 255  134 197 255
134 197 255  134 197 255  134 197 255  134 197 255  134 197 255  134 197 255
134 197 255  134 197 255  134 197 255  134 197 255  134 197 255  134 197 255
134 197 255  134 197 255  134 197 255  134 197 255  134 197 255  134 197 255
134 197 255  134 197 255  134 197 255  134 197 255  134 197 255  134 197 255
134 197 255  134 197 255  134 197 255  134 197 255  134 197 255  134 197 255
195 226 255  195 226 255  195 226 255  255 255 255  255 255 255  255 255 255
255 255 255  255 255 255  255 255 255  255 255 255  255 255 255  255 255 255
255 255 255  255 255 255  255 255 255  255 255 255  255 255 255  255 255 255
255 255 255  255 255 255  255 255 255  255 255 255  255 255 255  255 255 255
255 255 255  255 255 255  255 255 255  255 255 255
255 255 255  255 255 255  255 255 255  255 255 255  255 255 255  255 255 255
255 255 255  255 255 255  255 255 255  255 255 255  255 255 255  255 255 255
255 255 255  255 255 255  255 255 255  255 255 255  255 255 255  255 255 255
255 255 255  255 255 255  255 255 255  255 255 255  255 255 255  255 255 255
255 255 255  255 255 255  255 255 255  255 255 255  255 255 255  255 255 255
255 255 255  195 226 255  150 204 255  134 197 255  89 175 255  44 153 255
28 145 255  28 145 255  28 145 255  28 145 255  28 145 255  28 145 255
28 145 255  28 145 255  28 145 255  28 145 255  28 145 255  28 145 255
28 145 255  28 145 255  28 145 255  28 145 255  28 145 255  28 145 255
28 145 255  28 145 255  28 145 255  28 145 255  28 145 255  28 145 255
28 145 255  28 145 255  28 145 255  28 145 255  28 145 255  28 145 255
28 145 255  28 145 255  28 145 255  28 145 255  28 145 255  28 145 255
28 145 255  165 211 255  255 255 255  255 255 255  255 255 255  255 255 255
255 255 255  255 255 255  255 255 255  255 255 255  255 255 255  255 255 255
255 255 255  255 255 255  255 255 255  255 255 255  255 255 255  255 255 255
255 255 255  255 255 255  255 255 255  255 255 255  255 255 255  255 255 255
255 255 255  255 255 255  255 255 255  255 255 255  255 255 255  240 248 255
195 226 255  150 204 255  134 197 255  89 175 255  28 145 255  28 145 255
28 145 255  28 145 255  28 145 255  28 145 255  28 145 255  28 145 255
28 145 255  28 145 255  28 145 255  28 145 255  28 145 255  28 145 255
28 145 255  28 145 255  28 145 255  28 145 255  28 145 255  28 145 255
28 145 255  28 145 255  28 145 255  28 145 255  28 145 255  28 145 255
28 145 255  28 145 255  28 145 255  28 145 255  28 145 255  28 145 255
28 145 255  28 145 255  28 145 255  28 145 255  28 145 255  28 145 255
28 145 255  28 145 255  28 145 255  28 145 255  28 145 255  28 145 255
28 145 255  28 145 255  28 145 255  28 145 255  28 145 255  28 145 255
28 145 255  28 145 255  59 160 255  240 248 255  255 255 255  255 255 255
255 255 255  255 255 255  255 255 255  255 255 255  255 255 255  255 255 255
255 255 255  255 255 255  255 255 255  255 255 255  255 255 255  255 255 255
255 255 255  255 255 255  255 255 255  255 255 255  255 255 255  210 233 255
59 160 255  28 145 255  28 145 255  28 145 255  28 145 255  28 145 255
28 145 255  28 145 255  28 145 255  28 145 255  28 145 255  28 145 255
28 145 255  28 145 255  28 145 255  28 145 255  28 145 255  28 145 255
28 145 255  28 145 255  28 145 255  28 145 255  28 145 255  28 145 255
28 145 255  28 145 255  28 145 255  28 145 255  28 145 255  28 145 255
28 145 255  28 145 255  28 145 255  28 145 255  28 145 255  28 145 255
28 145 255  28 145 255  28 145 255  28 145 255  28 145 255  28 145 255
28 145 255  28 145 255  28 145 255  28 145 255  28 145 255  28 145 255
28 145 255  28 145 255  28 145 255  28 145 255  44 153 255  89 175 255
134 197 255  165 211 255  225 241 255  255 255 255  255 255 255  255 255 255
255 255 255  255 255 255  255 255 255  255 255 255  255 255 255  255 255 255
255 255 255  255 255 255  255 255 255  255 255 255  255 255 255  255 255 255
255 255 255  255 255 255  255 255 255  255 255 255
255 255 255  255 255 255  255 255 255  255 255 255  255 255 255  255 255 255
255 255 255  255 255 255  255 255 255  255 255 255  255 255 255  255 255 255
255 255 255  255 255 255  255 255 255  255 255 255  255 255 255  255 255 255
255 255 255  255 255 255  255 255 255  255 255 255  255 255 255  255 255 255
255 255 255  255 255 255  255 255 255  210 233 255  150 204 255  89 175 255
28 145 255  28 145 255  28 145 255  28 145 255  28 145 255  28 145 255
28 145 255  28 145 255  28 145 255  28 145 255  28 145 255  28 145 255
28 145 255  28 145 255  28 145 255  28 145 255  28 145 255  28 145 255
28 145 255  28 145 255  28 145 255  28 145 255  28 145 255  28 145 255
28 145 255  28 145 255  28 145 255  28 145 255  28 145 255  28 145 255
28 145 255  28 145 255  28 145 255  28 145 255  28 145 255  28 145 255
28 145 255  28 145 255  28 145 255  28 145 255  28 145 255  28 145 255
28 145 255  44 153 255  255 255 255  255 255 255  255 255 255  255 255 255
255 255 255  255 255 255  255 255 255  255 255 255  255 255 255  255 255 255
255 255 255  255 255 255  255 255 255  255 255 255  255 255 255  255 255 255
255 255 255  255 255 255  255 255 255  255 255 255  255 255 255  255 255 255
255 255 255  255 255 255  240 248 255  165 211 255  89 175 255  28 145 255
28 145 255  28 145 255  28 145 255  28 145 255  28 145 255  28 145 255
28 145 255  28 145 255  28 145 255  28 145 255  28 145 255  28 145 255
28 145 255  28 145 255  28 145 255  28 145 255  28 145 255  28 145 255
28 145 255  28 145 255  28 145 255  28 145 255  28 145 255  28 145 255
28 145 255  28 145 255  28 145 255  28 145 255  28 145 255  28 145 255
28 145 255  28 145 255  28 145 255  28 145 255  28 145 255  28 145 255
28 145 255  28 145 255  28 145 255  28 145 255  28 145 255  28 145 255
28 145 255  28 145 255  28 145 255  28 145 255  28 145 255  28 145 255
28 145 255  28 145 255  28 145 255  28 145 255  28 145 255  28 145 255
28 145 255  28 145 255  28 145 255  119 189 255  255 255 255  255 255 255
255 255 255  255 255 255  255 255 255  255 255 255  255 255 255  255 255 255
255 255 255  255 255 255  255 255 255  255 255 255  255 255 255  255 255 255
255 255 255  255 255 255  255 255 255  255 255 255  255 255 255  59 160 255
28 145 255  28 145 255  28 145 255  28 145 255  28 145 255  28 145 255
28 145 255  28 145 255  28 145 255  28 145 255  28 145 255  28 145 255
28 145 255  28 145 255  28 145 255  28 145 255  28 145 255  28 145 255
28 145 255  28 145 255  28 145 255  28 145 255  28 145 255  28 145 255
28 145 255  28 145 255  28 145 255  28 145 255  28 145 255  28 145 255
28 145 255  28 145 255  28 145 255  28 145 255  28 145 255  28 145 255
28 145 255  28 145 255  28 145 255  28 145 255  28 145 255  28 145 255
28 145 255  28 145 255  28 145 255  28 145 255  28 145 255  28 145 255
28 145 255  28 145 255  28 145 255  28 145 255  28 145 255  28 145 255
28 145 255  28 145 255  28 145 255  59 160 255  134 197 255  210 233 255
255 255 255  255 255 255  255 255 255  255 255 255  255 255 255  255 255 255
255 255 255  255 255 255  255 255 255  255 255 255  255 255 255  255 255 255
255 255 255  255 255 255  255 255 255  255 255 255
255 255 255  255 255 255  255 255 255  255 255 255  255 255 255  255 255 255
255 255 255  255 255 255  255 255 255  255 255 255  255 255 255  255 255 255
255 255 255  255 255 255  255 255 255  255 255 255  255 255 255  255 255 255
255 255 255  255 255 255  255 255 255  255 255 255  255 255 255  255 255 255
225 241 255  134 197 255  59 160 255  28 145 255  28 145 255  28 145 255
28 145 255  28 145 255  28 145 255  28 145 255  28 145 255  28 145 255
28 145 255  28 145 255  28 145 255  28 145 255  28 145 255  28 145 255
28 145 255  28 145 255  28 145 255  28 145 255  28 145 255  28 145 255
28 145 255  28 145 255  28 145 255  28 145 255  28 145 255  28 145 255
28 145 255  28 145 255  28 145 255  28 145 255  28 145 255  28 145 255
28 145 255  28 145 255  28 145 255  28 145 255  28 145 255  28 145 255
28 145 255  28 145 255  28 145 255  28 145 255  28 145 255  28 145 255
28 145 255  28 145 255  195 226 255  255 255 255  255 255 255  255 255 255
255 255 255  255 255 255  255 255 255  255 255 255  255 255 255  255 255 255
255 255 255  255 255 255  255 255 255  255 255 255  255 255 255  255 255 255
255 255 255  255 255 255  255 255 255  255 255 255  255 255 255  255 255 255
180 219 255  104 182 255  28 145 255  28 145 255  28 145 255  28 145 255
28 145 255  28 145 255  28 145 255  28 145 255  28 145 255  28 145 255
28 145 255  28 145 255  28 145 255  28 145 255  28 145 255  28 145 255
28 145 255  28 145 255  28 145 255  28 145 255  28 145 255  28 145 255
28 145 255  28 145 255  28 145 255  28 145 255  28 145 255  28 145 255
28 145 255  28 145 255  28 145 255  28 145 255  28 145 255  28 145 255
28 145 255  28 145 255  28 145 255  28 145 255  28 145 255  28 145 255
28 145 255  28 145 255  28 145 255  28 145 255  28 145 255  28 145 255
28 145 255  28 145 255  28 145 255  28 145 255  28 145 255  28 145 255
28 145 255  28 145 255  28 145 255  28 145 255  28 145 255  28 145 255
28 145 255  28 145 255  28 145 255  89 175 255  255 255 255  255 255 255
255 255 255  255 255 255  255 255 255  255 255 255  255 255 255  255 255 255
255 255 255  255 255 255  255 255 255  255 255 255  255 255 255  255 255 255
255 255 255  255 255 255  255 255 255  255 255 255  195 226 255  28 145 255
28 145 255  28 145 255  28 145 255  28 145 255  28 145 255  28 145 255
28 145 255  28 145 255  28 145 255  28 145 255  28 145 255  28 145 255
28 145 255  28 145 255  28 145 255  28 145 255  28 145 255  28 145 255
28 145 255  28 145 255  28 145 255  28 145 255  28 145 255  28 145 255
28 145 255  28 145 255  28 145 255  28 145 255  28 145 255  28 145 255
28 145 255  28 145 255  28 145 255  28 145 255  28 145 255  28 145 255
28 145 255  28 145 255  28 145 255  28 145 255  28 145 255  28 145 255
28 145 255  28 145 255  28 145 255  28 145 255  28 145 255  28 145 255
28 145 255  28 145 255  28 145 255  28 145 255  28 145 255  28 145 255
28 145 255  28 145 255  28 145 255  28 145 255  28 145 255  28 145 255
89 175 255  165 211 255  255 255 255  255 255 255  255 255 255  255 255 255
255 255 255  255 255 255  255 255 255  255 255 255  255 255 255  255 255 255
255 255 255  255 255 255  255 255 255  255 255 255
255 255 255  255 255 255  255 255 255  255 255 255  255 255 255  255 255 255
255 255 255  255 255 255  255 255 255  255 255 255  255 255 255  255 255 255
255 255 255  255 255 255  255 255 255  255 255 255  255 255 255  255 255 255
255 255 255  255 255 255  255 255 255  255 255 255  195 226 255  104 182 255
28 145 255  28 145 255  28 145 255  28 145 255  28 145 255  28 145 255
28 145 255  28 145 255  28 145 255  28 145 255  28 145 255  28 145 255
28 145 255  28 145 255  28 145 255  28 145 255  28 145 255  28 145 255
28 145 255  28 145 255  28 145 255  28 145 255  28 145 255  28 145 255
28 145 255  28 145 255  28 145 255  28 145 255  28 145 255  28 145 255
28 145 255  28 145 255  28 145 255  28 145 255  28 145 255  28 145 255
28 145 255  28 145 255  28 145 255  28 145 255  28 145 255  28 145 255
28 145 255  28 145 255  28 145 255  28 145 255  28 145 255  28 145 255
28 145 255  28 145 255  195 226 255  255 255 255  255 255 255  255 255 255
255 255 255  255 255 255  255 255 255  255 255 255  255 255 255  255 255 255
255 255 255  255 255 255  255 255 255  255 255 255  255 255 255  255 255 255
255 255 255  255 255 255  255 255 255  255 255 255  195 226 255  59 160 255
28 145 255  28 145 255  28 145 255  28 145 255  28 145 255  28 145 255
28 145 255  28 145 255  28 145 255  28 145 255  28 145 255  28 145 255
28 145 255  28 145 255  28 145 255  28 145 255  28 145 255  28 145 255
28 145 255  28 145 255  28 145 255  28 145 255  28 145 255  28 145 255
28 145 255  28 145 255  28 145 255  28 145 255  28 145 255  28 145 255
28 145 255  28 145 255  28 145 255  28 145 255  28 145 255  28 145 255
28 145 255  28 145 255  28 145 255  28 145 255  28 145 255  28 145 255
28 145 255  28 145 255  28 145 255  28 145 255  28 145 255  28 145 255
28 145 255  28 145 255  28 145 255  28 145 255  28 145 255  28 145 255
28 145 255  28 145 255  28 145 255  28 145 255  28 145 255  28 145 255
28 145 255  28 145 255  28 145 255  89 175 255  255 255 255  255 255 255
255 255 255  255 255 255  255 255 255  255 255 255  255 255 255  255 255 255
255 255 255  255 255 255  255 255 255  255 255 255  255 255 255  255 255 255
255 255 255  255 255 255  255 255 255  255 255 255  165 211 255  28 145 255
28 145 255  28 145 255  28 145 255  28 145 255  28 145 255  28 145 255
28 145 255  28 145 255  28 145 255  28 145 255  28 145 255  28 145 255
28 145 255  28 145 255  28 145 255  28 145 255  28 145 255  28 145 255
28 145 255  28 145 255  28 145 255  28 145 255  28 145 255  28 145 255
28 145 255  28 145 255  28 145 255  28 145 255  28 145 255  28 145 255
28 145 255  28 145 255  28 145 255  28 145 255  28 145 255  28 145 255
28 145 255  28 145 255  28 145 255  28 145 255  28 145 255  28 145 255
28 145 255  28 145 255  28 145 255  28 145 255  28 145 255  28 145 255
28 145 255  28 145 255  28 145 255  28 145 255  28 145 255  28 145 255
28 145 255  28 145 255  28 145 255  28 145 255  28 145 255  28 145 255
28 145 255  28 145 255  74 167 255  195 226 255  255 255 255  255 255 255
255 255 255  255 255 255  255 255 255  255 255 255  255 255 255  255 255 255
255 255 255  255 255 255  255 255 255  255 255 255
255 255 255  255 255 255  255 255 255  255 255 255  255 255 255  255 255 255
255 255 255  255 255 255  255 255 255  255 255 255  255 255 255  255 255 255
255 255 255  255 255 255  255 255 255  255 255 255  255 255 255  255 255 255
255 255 255  255 255 255  195 226 255  89 175 255  28 145 255  28 145 255
28 145 255  28 145 255  28 145 255  28 145 255  28 145 255  28 145 255
28 145 255  28 145 255  28 145 255  28 145 255  28 145 255  28 145 255
28 145 255  28 145 255  28 145 255  28 145 255  28 145 255  28 145 255
28 145 255  28 145 255  28 145 255  28 145 255  28 145 255  28 145 255
28 145 255  28 145 255  28 145 255  28 145 255  28 145 255  28 145 255
28 145 255  28 145 255  28 145 255  28 145 255  28 145 255  28 145 255
28 145 255  28 145 255  28 145 255  28 145 255  28 145 255  28 145 255
28 145 255  28 145 255  28 145 255  28 145 255  28 145 255  28 145 255
28 145 255  28 145 255  240 248 255  255 255 255  255 255 255  255 255 255
255 255 255  255 255 255  255 255 255  255 255 255  255 255 255  255 255 255
255 255 255  255 255 255  255 255 255  255 255 255  255 255 255  255 255 255
255 255 255  255 255 255  240 248 255  119 189 255  28 145 255  28 145 255
28 145 255  28 145 255  28 145 255  28 145 255  28 145 255  28 145 255
28 145 255  28 145 255  28 145 255  28 145 255  28 145 255  28 145 255
28 145 255  28 145 255  28 145 255  28 145 255  28 145 255  28 145 255
28 145 255  28 145 255  28 145 255  28 145 255  28 145 255  28 145 255
28 145 255  28 145 255  28 145 255  28 145 255  28 145 255  28 145 255
28 145 255  28 145 255  28 145 255  28 145 255  28 145 255  28 145 255
28 145 255  28 145 255  28 145 255  28 145 255  28 145 255  28 145 255
28 145 255  28 145 255  28 145 255  28 145 255  28 145 255  28 145 255
28 145 255  28 145 255  28 145 255  28 145 255  28 145 255  28 145 255
28 145 255  28 145 255  28 145 255  28 145 255  28 145 255  28 145 255
28 145 255  28 145 255  28 145 255  89 175 255  255 255 255  255 255 255
255 255 255  255 255 255  255 255 255  255 255 255  255 255 255  255 255 255
255 255 255  255 255 255  255 255 255  255 255 255  255 255 255  255 255 255
255 255 255  255 255 255  255 255 255  255 255 255  134 197 255  28 145 255
28 145 255  28 145 255  28 145 255  28 145 255  28 145 255  28 145 255
28 145 255  28 145 255  28 145 255  28 145 255  28 145 255  28 145 255
28 145 255  28 145 255  28 145 255  28 145 255  28 145 255  28 145 255
28 145 255  28 145 255  28 145 255  28 145 255  28 145 255  28 145 255
28 145 255  28 145 255  28 145 255  28 145 255  28 145 255  28 145 255
28 145 255  28 145 255  28 145 255  28 145 255  28 145 255  28 145 255
28 145 255  28 145 255  28 145 255  28 145 255  28 145 255  28 145 255
28 145 255  28 145 255  28 145 255  28 145 255  28 145 255  28 145 255
28 145 255  28 145 255  28 145 255  28 145 255  28 145 255  28 145 255
28 145 255  28 145 255  28 145 255  28 145 255  28 145 255  28 145 255
28 145 255  28 145 255  28 145 255  28 145 255  134 197 255  255 255 255
255 255 255  255 255 255  255 255 255  255 255 255  255 255 255  255 255 255
255 255 255  255 255 255  255 255 255  255 255 255
255 255 255  255 255 255  255 255 255  255 255 255  255 255 255  255 255 255
255 255 255  255 255 255  255 255 255  255 255 255  255 255 255  255 255 255
255 255 255  255 255 255  255 255 255  255 255 255  255 255 255  255 255 255
225 241 255  104 182 255  28 145 255  28 145 255  28 145 255  28 145 255
28 145 255  28 145 255  28 145 255  28 145 255  28 145 255  28 145 255
28 145 255  28 145 255  28 145 255  28 145 255  28 145 255  28 145 255
28 145 255  28 145 255  28 145 255  28 145 255  28 145 255  28 145 255
28 145 255  28 145 255  28 145 255  28 145 255  28 145 255  28 145 255
28 145 255  28 145 255  28 145 255  28 145 255  28 145 255  28 145 255
28 145 255  28 145 255  28 145 255  28 145 255  28 145 255  28 145 255
28 145 255  28 145 255  28 145 255  28 145 255  28 145 255  28 145 255
28 145 255  28 145 255  28 145 255  28 145 255  28 145 255  28 145 255
28 145 255  28 145 255  255 255 255  255 255 255  255 255 255  255 255 255
255 255 255  255 255 255  255 255 255  255 255 255  255 255 255  255 255 255
255 255 255  255 255 255  255 255 255  255 255 255  255 255 255  255 255 255
255 255 255  165 211 255  44 153 255  28 145 255  28 145 255  28 145 255
28 145 255  28 145 255  28 145 255  28 145 255  28 145 255  28 145 255
28 145 255  28 145 255  28 145 255  28 145 255  28 145 255  28 145 255
28 145 255  28 145 255  28 145 255  28 145 255  28 145 255  28 145 255
28 145 255  28 145 255  28 145 255  28 145 255  28 145 255  28 145 255
28 145 255  28 145 255  28 145 255  28 145 255  28 145 255  28 145 255
28 145 255  28 145 255  28 145 255  28 145 255  28 145 255  28 145 255
28 145 255  28 145 255  28 145 255  28 145 255  28 145 255  28 145 255
28 145 255  28 145 255  28 145 255  28 145 255  28 145 255  28 145 255
28 145 255  28 145 255  28 145 255  28 145 255  28 145 255  28 145 255
28 145 255  28 145 255  28 145 255  28 145 255  28 145 255  28 145 255
28 145 255  28 145 255  28 145 255  89 175 255  255 255 255  255 255 255
255 255 255  255 255 255  255 255 255  255 255 255  255 255 255  255 255 255
255 255 255  255 255 255  255 255 255  255 255 255  255 255 255  255 255 255
255 255 255  255 255 255  255 255 255  255 255 255  134 197 255  28 145 255
28 145 255  28 145 255  28 145 255  28 145 255  28 145 255  28 145 255
28 145 255  28 145 255  28 145 255  28 145 255  28 145 255  28 145 255
28 145 255  28 145 255  28 145 255  28 145 255  28 145 255  28 145 255
28 145 255  28 145 255  28 145 255  28 145 255  28 145 255  28 145 255
28 145 255  28 145 255  28 145 255  28 145 255  28 145 255  28 145 255
28 145 255  28 145 255  28 145 255  28 145 255  28 145 255  28 145 255
28 145 255  28 145 255  28 145 255  28 145 255  28 145 255  28 145 255
28 145 255  28 145 255  28 145 255  28 145 255  28 145 255  28 145 255
28 145 255  28 145 255  28 145 255  28 145 255  28 145 255  28 145 255
28 145 255  28 145 255  28 145 255  28 145 255  28 145 255  28 145 255
28 145 255  28 145 255  28 145 255  28 145 255  28 145 255  89 175 255
240 248 255  255 255 255  255 255 255  255 255 255  255 255 255  255 255 255
255 255 255  255 255 255  255 255 255  255 255 255
255 255 255  255 255 255  255 255 255  255 255 255  255 255 255  255 255 255
255 255 255  255 255 255  255 255 255  255 255 255  255 255 255  255 255 255
255 255 255  255 255 255  255 255 255  255 255 255  255 255 255  165 211 255
44 153 255  28 145 255  28 145 255  28 145 255  28 145 255  28 145 255
28 145 255  28 145 255  28 145 255  28 145 255  28 145 255  28 145 255
28 145 255  28 145 255  28 145 255  28 145 255  28 145 255  28 145 255
28 145 255  28 145 255  28 145 255  28 145 255  28 145 255  28 145 255
28 145 255  28 145 255  28 145 255  28 145 255  28 145 255  28 145 255
28 145 255  28 145 255  28 145 255  28 145 255  28 145 255  28 145 255
28 145 255  28 145 255  28 145 255  28 145 255  28 145 255  28 145 255
28 145 255  28 145 255  28 145 255  28 145 255  28 145 255  28 145 255
28 145 255  28 145 255  28 145 255  28 145 255  28 145 255  28 145 255
28 145 255  28 145 255  255 255 255  255 255 255  255 255 255  255 255 255
255 255 255  255 255 255  255 255 255  255 255 255  255 255 255  255 255 255
255 255 255  255 255 255  255 255 255  255 255 255  255 255 255  255 255 255
165 211 255  28 145 255  28 145 255  28 145 255  28 145 255  28 145 255
28 145 255  28 145 255  28 145 255  28 145 255  28 145 255  28 145 255
28 145 255  28 145 255  28 145 255  28 145 255  28 145 255  28 145 255
28 145 255  28 145 255  28 145 255  28 145 255  28 145 255  28 145 255
28 145 255  28 145 255  28 145 255  28 145 255  28 145 255  28 145 255
28 145 255  28 145 255  28 145 255  28 145 255  28 145 255  28 145 255
28 145 255  28 145 255  28 145 255  28 145 255  28 145 255  28 145 255
28 145 255  28 145 255  28 145 255  28 145 255  28 145 255  28 145 255
28 145 255  28 145 255  28 145 255  28 145 255  28 145 255  28 145 255
28 145 255  28 145 255  28 145 255  28 145 255  28 145 255  28 145 255
28 145 255  28 145 255  28 145 255  28 145 255  28 145 255  28 145 255
28 145 255  28 145 255  28 145 255  134 197 255  255 255 255  255 255 255
255 255 255  255 255 255  255 255 255  255 255 255  255 255 255  255 255 255
255 255 255  255 255 255  255 255 255  255 255 255  255 255 255  255 255 255
255 255 255  255 255 255  255 255 255  255 255 255  119 189 255  28 145 255
28 145 255  28 145 255  28 145 255  28 145 255  28 145 255  28 145 255
28 145 255  28 145 255  28 145 255  28 145 255  28 145 255  28 145 255
28 145 255  28 145 255  28 145 255  28 145 255  28 145 255  28 145 255
28 145 255  28 145 255  28 145 255  28 145 255  28 145 255  28 145 255
28 145 255  28 145 255  28 145 255  28 145 255  28 145 255  28 145 255
28 145 255  28 145 255  28 145 255  28 145 255  28 145 255  28 145 255
28 145 255  28 145 255  28 145 255  28 145 255  28 145 255  28 145 255
28 145 255  28 145 255  28 145 255  28 145 255  28 145 255  28 145 255
28 145 255  28 145 255  28 145 255  28 145 255  28 145 255  28 145 255
28 145 255  28 145 255  28 145 255  28 145 255  28 145 255  28 145 255
28 145 255  28 145 255  28 145 255  28 145 255  28 145 255  28 145 255
74 167 255  240 248 255  255 255 255  255 255 255  255 255 255  255 255 255
255 255 255  255 255 255  255 255 255  255 255 255
255 255 255  255 255 255  255 255 255  255 255 255  255 255 255  255 255 255
255 255 255  255 255 255  255 255 255  255 255 255  255 255 255  255 255 255
255 255 255  255 255 255  255 255 255  240 248 255  104 182 255  28 145 255
28 145 255  28 145 255  28 145 255  28 145 255  28 145 255  28 145 255
28 145 255  28 145 255  28 145 255  28 145 255  28 145 255  28 145 255
28 145 255  28 145 255  28 145 255  28 145 255  28 145 255  28 145 255
28 145 255  28 145 255  28 145 255  28 145 255  28 145 255  28 145 255
28 145 255  28 145 255  28 145 255  28 145 255  28 145 255  28 145 255
28 145 255  28 145 255  28 145 255  28 145 255  28 145 255  28 145 255
28 145 255  28 145 255  28 145 255  28 145 255  28 145 255  28 145 255
28 145 255  28 145 255  28 145 255  28 145 255  28 145 255  28 145 255
28 145 255  28 145 255  28 145 255  28 145 255  28 145 255  28 145 255
28 145 255  89 175 255  255 255 255  255 255 255  255 255 255  255 255 255
255 255 255  255 255 255  255 255 255  255 255 255  255 255 255  255 255 255
255 255 255  255 255 255  255 255 255  255 255 255  255 255 255  165 211 255
28 145 255  28 145 255  28 145 255  28 145 255  28 145 255  28 145 255
28 145 255  28 145 255  28 145 255  28 145 255  28 145 255  28 145 255
28 145 255  28 145 255  28 145 255  28 145 255  28 145 255  28 145 255
28 145 255  28 145 255  28 145 255  28 145 255  28 145 255  28 145 255
28 145 255  28 145 255  28 145 255  28 145 255  28 145 255  28 145 255
28 145 255  28 145 255  28 145 255  28 145 255  28 145 255  28 145 255
28 145 255  28 145 255  28 145 255  28 145 255  28 145 255  28 145 255
28 145 255  28 145 255  28 145 255  28 145 255  28 145 255  28 145 255
28 145 255  28 145 255  28 145 255  28 145 255  28 145 255  28 145 255
28 145 255  28 145 255  28 145 255  28 145 255  28 145 255  28 145 255
28 145 255  28 145 255  28 145 255  28 145 255  28 145 255  28 145 255
28 145 255  28 145 255  28 145 255  134 197 255  255 255 255  255 255 255
255 255 255  255 255 255  255 255 255  255 255 255  255 255 255  255 255 255
255 255 255  255 255 255  255 255 255  255 255 255  255 255 255  255 255 255
255 255 255  255 255 255  255 255 255  255 255 255  89 175 255  28 145 255
28 145 255  28 145 255  28 145 255  28 145 255  28 145 255  28 145 255
28 145 255  28 145 255  28 145 255  28 145 255  28 145 255  28 145 255
28 145 255  28 145 255  28 145 255  28 145 255  28 145 255  28 145 255
28 145 255  28 145 255  28 145 255  28 145 255  28 145 255  28 145 255
28 145 255  28 145 255  28 145 255  28 145 255  28 145 255  28 145 255
28 145 255  28 145 255  28 145 255  28 145 255  28 145 255  28 145 255
28 145 255  28 145 255  28 145 255  28 145 255  28 145 255  28 145 255
28 145 255  28 145 255  28 145 255  28 145 255  28 145 255  28 145 255
28 145 255  28 145 255  28 145 255  28 145 255  28 145 255  28 145 255
28 145 255  28 145 255  28 145 255  28 145 255  28 145 255  28 145 255
28 145 255  28 145 255  28 145 255  28 145 255  28 145 255  28 145 255
28 145 255  89 175 255  255 255 255  255 255 255  255 255 255  255 255 255
255 255 255  255 255 255  255 255 255  255 255 255
255 255 255  255 255 255  255 255 255  255 255 255  255 255 255  255 255 255
255 255 255  255 255 255  255 255 255  255 255 255  255 255 255  255 255 255
255 255 255  255 255 255  225 241 255  74 167 255  28 145 255  28 145 255
28 145 255  28 145 255  28 145 255  28 145 255  28 145 255  28 145 255
28 145 255  28 145 255  28 145 255  28 145 255  28 145 255  28 145 255
28 145 255  28 145 255  28 145 255  28 145 255  28 145 255  28 145 255
28 145 255  28 145 255  28 145 255  28 145 255  28 145 255  28 145 255
28 145 255  28 145 255  28 145 255  28 145 255  28 145 255  28 145 255
28 145 255  28 145 255  28 145 255  28 145 255  28 145 255  28 145 255
28 145 255  28 145 255  28 145 255  28 145 255  28 145 255  28 145 255
28 145 255  28 145 255  28 145 255  28 145 255  28 145 255  28 145 255
28 145 255  28 145 255  28 145 255  28 145 255  28 145 255  28 145 255
28 145 255  89 175 255  255 255 255  255 255 255  255 255 255  255 255 255
255 255 255  255 255 255  255 255 255  255 255 255  255 255 255  255 255 255
255 255 255  255 255 255  255 255 255  255 255 255  165 211 255  28 145 255
28 145 255  28 145 255  28 145 255  28 145 255  28 145 255  28 145 255
28 145 255  28 145 255  28 145 255  28 145 255  28 145 255  28 145 255
28 145 255  28 145 255  28 145 255  28 145 255  28 145 255  28 145 255
28 145 255  28 145 255  28 145 255  28 145 255  28 145 255  28 145 255
28 145 255  28 145 255  28 145 255  28 145 255  28 145 255  28 145 255
28 145 255  28 145 255  28 145 255  28 145 255  28 145 255  28 145 255
28 145 255  28 145 255  28 145 255  28 145 255  28 145 255  28 145 255
28 145 255  28 145 255  28 145 255  28 145 255  28 145 255  28 145 255
28 145 255  28 145 255  28 145 255  28 145 255  28 145 255  28 145 255
28 145 255  28 145 255  28 145 255  28 145 255  28 145 255  28 145 255
28 145 255  28 145 255  28 145 255  28 145 255  28 145 255  28 145 255
28 145 255  28 145 255  28 145 255  134 197 255  255 255 255  255 255 255
255 255 255  255 255 255  255 255 255  255 255 255  255 255 255  255 255 255
255 255 255  255 255 255  255 255 255  255 255 255  255 255 255  255 255 255
255 255 255  255 255 255  255 255 255  255 255 255  89 175 255  28 145 255
28 145 255  28 145 255  28 145 255  28 145 255  28 145 255  28 145 255
28 145 255  28 145 255  28 145 255  28 145 255  28 145 255  28 145 255
28 145 255  28 145 255  28 145 255  28 145 255  28 145 255  28 145 255
28 145 255  28 145 255  28 145 255  28 145 255  28 145 255  28 145 255
28 145 255  28 145 255  28 145 255  28 145 255  28 145 255  28 145 255
28 145 255  28 145 255  28 145 255  28 145 255  28 145 255  28 145 255
28 145 255  28 145 255  28 145 255  28 145 255  28 145 255  28 145 255
28 145 255  28 145 255  28 145 255  28 145 255  28 145 255  28 145 255
28 145 255  28 145 255  28 145 255  28 145 255  28 145 255  28 145 255
28 145 255  28 145 255  28 145 255  28 145 255  28 145 255  28 145 255
28 145 255  28 145 255  28 145 255  28 145 255  28 145 255  28 145 255
28 145 255  28 145 255  134 197 255  255 255 255  255 255 255  255 255 255
255 255 255  255 255 255  255 255 255  255 255 255
255 255 255  255 255 255  255 255 255  255 255 255  255 255 255  255 255 255
255 255 255  255 255 255  255 255 255  255 255 255  255 255 255  255 255 255
255 255 255  210 233 255  44 153 255  28 145 255  28 145 255  28 145 255
28 145 255  28 145 255  28 145 255  28 145 255  28 145 255  28 145 255
28 145 255  28 145 255  28 145 255  28 145 255  28 145 255  28 145 255
28 145 255  28 145 255  28 145 255  28 145 255  28 145 255  28 145 255
28 145 255  28 145 255  28 145 255  28 145 255  28 145 255  28 145 255
28 145 255  28 145 255  28 145 255  28 145 255  28 145 255  28 145 255
28 145 255  28 145 255  28 145 255  28 145 255  28 145 255  28 145 255
28 145 255  28 145 255  28 145 255  28 145 255  28 145 255  28 145 255
28 145 255  28 145 255  28 145 255  28 145 255  28 145 255  28 145 255
28 145 255  28 145 255  28 145 255  28 145 255  28 145 255  28 145 255
28 145 255  104 182 255  255 255 255  255 255 255  255 255 255  255 255 255
255 255 255  255 255 255  255 255 255  255 255 255  255 255 255  255 255 255
255 255 255  255 255 255  255 255 255  180 219 255  28 145 255  28 145 255
28 145 255  28 145 255  28 145 255  28 145 255  28 145 255  28 145 255
28 145 255  28 145 255  28 145 255  28 145 255  28 145 255  28 145 255
28 145 255  28 145 255  28 145 255  28 145 255  28 145 255  28 145 255
28 145 255  28 145 255  28 145 255  28 145 255  28 145 255  28 145 255
28 145 255  28 145 255  28 145 255  28 145 255  28 145 255  28 145 255
28 145 255  28 145 255  28 145 255  28 145 255  28 145 255  28 145 255
28 145 255  28 145 255  28 145 255  28 145 255  28 145 255  28 145 255
28 145 255  28 145 255  28 145 255  28 145 255  28 145 255  28 145 255
28 145 255  28 145 255  28 145 255  28 145 255  28 145 255  28 145 255
28 145 255  28 145 255  28 145 255  28 145 255  28 145 255  28 145 255
28 145 255  28 145 255  28 145 255  28 145 255  28 145 255  28 145 255
28 145 255  28 145 255  28 145 255  180 219 255  255 255 255  255 255 255
255 255 255  255 255 255  255 255 255  255 255 255  255 255 255  255 255 255
255 255 255  255 255 255  255 255 255  255 255 255  255 255 255  255 255 255
255 255 255  255 255 255  255 255 255  255 255 255  59 160 255  28 145 255
28 145 255  28 145 255  28 145 255  28 145 255  28 145 255  28 145 255
28 145 255  28 145 255  28 145 255  28 145 255  28 145 255  28 145 255
28 145 255  28 145 255  28 145 255  28 145 255  28 145 255  28 145 255
28 145 255  28 145 255  28 145 255  28 145 255  28 145 255  28 145 255
28 145 255  28 145 255  28 145 255  28 145 255  28 145 255  28 145 255
28 145 255  28 145 255  28 145 255  28 145 255  28 145 255  28 145 255
28 145 255  28 145 255  28 145 255  28 145 255  28 145 255  28 145 255
28 145 255  28 145 255  28 145 255  28 145 255  28 145 255  28 145 255
28 145 255  28 145 255  28 145 255  28 145 255  28 145 255  28 145 255
28 145 255  28 145 255  28 145 255  28 145 255  28 145 255  28 145 255
28 145 255  28 145 255  28 145 255  28 145 255  28 145 255  28 145 255
28 145 255  28 145 255  28 145 255  225 241 255  255 255 255  255 255 255
255 255 255  255 255 255  255 255 255  255 255 255
255 255 255  255 255 255  255 255 255  255 255 255  255 255 255  255 255 255
255 255 255  255 255 255  255 255 255  255 255 255  255 255 255  255 255 255
210 233 255  44 153 255  28 145 255  28 145 255  28 145 255  28 145 255
28 145 255  28 145 255  28 145 255  28 145 255  28 145 255  28 145 255
28 145 255  28 145 255  28 145 255  28 145 255  28 145 255  28 145 255
28 145 255  28 145 255  28 145 255  28 145 255  28 145 255  28 145 255
28 145 255  28 145 255  28 145 255  28 145 255  28 145 255  28 145 255
28 145 255  28 145 255  28 145 255  28 145 255  28 145 255  28 145 255
28 145 255  28 145 255  28 145 255  28 145 255  28 145 255  28 145 255
28 145 255  28 145 255  28 145 255  28 145 255  28 145 255  28 145 255
28 145 255  28 145 255  28 145 255  28 145 255  28 145 255  28 145 255
28 145 255  28 145 255  28 145 255  28 145 255  28 145 255  28 145 255
28 145 255  134 197 255  255 255 255  255 255 255  255 255 255  255 255 255
255 255 255  255 255 255  255 255 255  255 255 255  255 255 255  255 255 255
255 255 255  255 255 255  255 255 255  59 160 255  28 145 255  28 145 255
28 145 255  28 145 255  28 145 255  28 145 255  28 145 255  28 145 255
28 145 255  28 145 255  28 145 255  28 145 255  28 145 255  28 145 255
28 145 255  28 145 255  28 145 255  28 145 255  28 145 255  28 145 255
28 145 255  28 145 255  28 145 255  28 145 255  28 145 255  28 145 255
28 145 255  28 145 255  28 145 255  28 145 255  28 145 255  28 145 255
28 145 255  28 145 255  28 145 255  28 145 255  28 145 255  28 145 255
28 145 255  28 145 255  28 145 255  28 145 255  28 145 255  28 145 255
28 145 255  28 145 255  28 145 255  28 145 255  28 145 255  28 145 255
28 145 255  28 145 255  28 145 255  28 145 255  28 145 255  28 145 255
28 145 255  28 145 255  28 145 255  28 145 255  28 145 255  28 145 255
28 145 255  28 145 255  28 145 255  28 145 255  28 145 255  28 145 255
28 145 255  28 145 255  28 145 255  195 226 255  255 255 255  255 255 255
255 255 255  255 255 255  255 255 255  255 255 255  255 255 255  255 255 255
255 255 255  255 255 255  255 255 255  255 255 255  255 255 255  255 255 255
255 255 255  255 255 255  255 255 255  255 255 255  28 145 255  28 145 255
28 145 255  28 145 255  28 145 255  28 145 255  28 145 255  28 145 255
28 145 255  28 145 255  28 145 255  28 145 255  28 145 255  28 145 255
28 145 255  28 145 255  28 145 255  28 145 255  28 145 255  28 145 255
28 145 255  28 145 255  28 145 255  28 145 255  28 145 255  28 145 255
28 145 255  28 145 255  28 145 255  28 145 255  28 145 255  28 145 255
28 145 255  28 145 255  28 145 255  28 145 255  28 145 255  28 145 255
28 145 255  28 145 255  28 145 255  28 145 255  28 145 255  28 145 255
28 145 255  28 145 255  28 145 255  28 145 255  28 145 255  28 145 255
28 145 255  28 145 255  28 145 255  28 145 255  28 145 255  28 145 255
28 145 255  28 145 255  28 145 255  28 145 255  28 145 255  28 145 255
28 145 255  28 145 255  28 145 255  28 145 255  28 145 255  28 145 255
28 145 255  28 145 255  28 145 255  119 189 255  255 255 255  255 255 255
255 255 255  255 255 255  255 255 255  255 255 255
255 255 255  255 255 255  255 255 255  255 255 255  255 255 255  255 255 255
255 255 255  255 255 255  255 255 255  255 255 255  255 255 255  210 233 255
44 153 255  28 145 255  28 145 255  28 145 255  28 145 255  28 145 255
28 145 255  28 145 255  28 145 255  28 145 255  28 145 255  28 145 255
28 145 255  28 145 255  28 145 255  28 145 255  28 145 255  28 145 255
28 145 255  28 145 255  28 145 255  28 145 255  28 145 255  28 145 255
28 145 255  28 145 255  28 145 255  28 145 255  28 145 255  28 145 255
28 145 255  28 145 255  28 145 255  28 145 255  28 145 255  28 145 255
28 145 255  28 145 255  28 145 255  28 145 255  28 145 255  28 145 255
28 145 255  28 145 255  28 145 255  28 145 255  28 145 255  28 145 255
28 145 255  28 145 255  28 145 255  28 145 255  28 145 255  28 145 255
28 145 255  28 145 255  28 145 255  28 145 255  28 145 255  28 145 255
28 145 255  134 197 255  255 255 255  255 255 255  255 255 255  255 255 255
255 255 255  255 255 255  255 255 255  255 255 255  255 255 255  255 255 255
255 255 255  255 255 255  134 197 255  28 145 255  28 145 255  28 145 255
28 145 255  28 145 255  28 145 255  28 145 255  28 145 255  28 145 255
28 145 255  28 145 255  28 145 255  28 145 255  28 145 255  28 145 255
28 145 255  28 145 255  28 145 255  28 145 255  28 145 255  28 145 255
28 145 255  28 145 255  28 145 255  28 145 255  28 145 255  28 145 255
28 145 255  28 145 255  28 145 255  28 145 255  28 145 255  28 145 255
28 145 255  28 145 255  28 145 255  28 145 255  28 145 255  28 145 255
28 145 255  28 145 255  28 145 255  28 145 255  28 145 255  28 145 255
28 145 255  28 145 255  28 145 255  28 145 255  28 145 255  28 145 255
28 145 255  28 145 255  28 145 255  28 145 255  28 145 255  28 145 255
28 145 255  28 145 255  28 145 255  28 145 255  28 145 255  28 145 255
28 145 255  28 145 255  28 145 255  28 145 255  28 145 255  28 145 255
28 145 255  28 145 255  28 145 255  195 226 255  255 255 255  255 255 255
255 255 255  255 255 255  255 255 255  255 255 255  255 255 255  255 255 255
255 255 255  255 255 255  255 255 255  255 255 255  255 255 255  255 255 255
255 255 255  255 255 255  255 255 255  255 255 255  28 145 255  28 145 255
28 145 255  28 145 255  28 145 255  28 145 255  28 145 255  28 145 255
28 145 255  28 145 255  28 145 255  28 145 255  28 145 255  28 145 255
28 145 255  28 145 255  28 145 255  28 145 255  28 145 255  28 145 255
28 145 255  28 145 255  28 145 255  28 145 255  28 145 255  28 145 255
28 145 255  28 145 255  28 145 255  28 145 255  28 145 255  28 145 255
28 145 255  28 145 255  28 145 255  28 145 255  28 145 255  28 145 255
28 145 255  28 145 255  28 145 255  28 145 255  28 145 255  28 145 255
28 145 255  28 145 255  28 145 255  28 145 255  28 145 255  28 145 255
28 145 255  28 145 255  28 145 255  28 145 255  28 145 255  28 145 255
28 145 255  28 145 255  28 145 255  28 145 255  28 145 255  28 145 255
28 145 255  28 145 255  28 145 255  28 145 255  28 145 255  28 145 255
28 145 255  28 145 255  28 145 255  28 145 255  225 241 255  255 255 255
255 255 255  255 255 255  255 255 255  255 255 255
255 255 255  255 255 255  255 255 255  255 255 255  255 255 255  255 255 255
255 255 255  255 255 255  255 255 255  255 255 255  240 248 255  74 167 255
28 145 255  28 145 255  28 145 255  28 145 255  28 145 255  28 145 255
28 145 255  28 145 255  28 145 255  28 145 255  28 145 255  28 145 255
28 145 255  28 145 255  28 145 255  28 145 255  28 145 255  28 145 255
28 145 255  28 145 255  28 145 255  28 145 255  28 145 255  28 145 255
28 145 255  28 145 255  28 145 255  28 145 255  28 145 255  28 145 255
28 145 255  28 145 255  28 145 255  28 145 255  28 145 255  28 145 255
28 145 255  28 145 255  28 145 255  28 145 255  28 145 255  28 145 255
28 145 255  28 145 255  28 145 255  28 145 255  28 145 255  28 145 255
28 145 255  28 145 255  28 145 255  28 145 255  28 145 255  28 145 255
28 145 255  28 145 255  28 145 255  28 145 255  28 145 255  28 145 255
28 145 255  210 233 255  255 255 255  255 255 255  255 255 255  255 255 255
255 255 255  255 255 255  255 255 255  255 255 255  255 255 255  255 255 255
255 255 255  225 241 255  44 153 255  28 145 255  28 145 255  28 145 255
28 145 255  28 145 255  28 145 255  28 145 255  28 145 255  28 145 255
28 145 255  28 145 255  28 145 255  28 145 255  28 145 255  28 145 255
28 145 255  28 145 255  28 145 255  28 145 255  28 145 255  28 145 255
28 145 255  28 145 255  28 145 255  28 145 255  28 145 255  28 145 255
28 145 255  28 145 255  28 145 255  28 145 255  28 145 255  28 145 255
28 145 255  28 145 255  28 145 255  28 145 255  28 145 255  28 145 255
28 145 255  28 145 255  28 145 255  28 145 255  28 145 255  28 145 255
28 145 255  28 145 255  28 145 255  28 145 255  28 145 255  28 145 255
28 145 255  28 145 255  28 145 255  28 145 255  28 145 255  28 145 255
28 145 255  28 145 255  28 145 255  28 145 255  28 145 255  28 145 255
28 145 255  28 145 255  28 145 255  28 145 255  28 145 255  28 145 255
28 145 255  28 145 255  44 153 255  255 255 255  255 255 255  255 255 255
255 255 255  255 255 255  255 255 255  255 255 255  255 255 255  255 255 255
255 255 255  255 255 255  255 255 255  255 255 255  255 255 255  255 255 255
255 255 255  255 255 255  255 255 255  240 248 255  28 145 255  28 145 255
28 145 255  28 145 255  28 145 255  28 145 255  28 145 255  28 145 255
28 145 255  28 145 255  28 145 255  28 145 255  28 145 255  28 145 255
28 145 255  28 145 255  28 145 255  28 145 255  28 145 255  28 145 255
28 145 255  28 145 255  28 145 255  28 145 255  28 145 255  28 145 255
28 145 255  28 145 255  28 145 255  28 145 255  28 145 255  28 145 255
28 145 255  28 145 255  28 145 255  28 145 255  28 145 255  28 145 255
28 145 255  28 145 255  28 145 255  28 145 255  28 145 255  28 145 255
28 145 255  28 145 255  28 145 255  28 145 255  28 145 255  28 145 255
28 145 255  28 145 255  28 145 255  28 145 255  28 145 255  28 145 255
28 145 255  28 145 255  28 145 255  28 145 255  28 145 255  28 145 255
28 145 255  28 145 255  28 145 255  28 145 255  28 145 255  28 145 255
28 145 255  28 145 255  28 145 255  28 145 255  134 197 255  255 255 255
255 255 255  255 255 255  255 255 255  255 255 255
255 255 255  255 255 255  255 255 255  255 255 255  255 255 255  255 255 255
255 255 255  255 255 255  255 255 255  255 255 255  74 167 255  28 145 255
28 145 255  28 145 255  28 145 255  28 145 255  28 145 255  28 145 255
28 145 255  28 145 255  28 145 255  28 145 255  28 145 255  28 145 255
28 145 255  28 145 255  28 145 255  28 145 255  28 145 255  28 145 255
28 145 255  28 145 255  28 145 255  28 145 255  28 145 255  28 145 255
28 145 255  28 145 255  28 145 255  28 145 255  28 145 255  28 145 255
28 145 255  28 145 255  28 145 255  28 145 255  28 145 255  28 145 255
28 145 255  28 145 255  28 145 255  28 145 255  28 145 255  28 145 255
28 145 255  28 145 255  28 145 255  28 145 255  28 145 255  28 145 255
28 145 255  28 145 255  28 145 255  28 145 255  28 145 255  28 145 255
28 145 255  28 145 255  28 145 255  28 145 255  28 145 255  28 145 255
89 175 255  255 255 255  255 255 255  255 255 255  255 255 255  255 255 255
255 255 255  255 255 255  255 255 255  255 255 255  255 255 255  255 255 255
255 255 255  104 182 255  28 145 255  28 145 255  28 145 255  28 145 255
28 145 255  28 145 255  28 145 255  28 145 255  28 145 255  28 145 255
28 145 255  28 145 255  28 145 255  28 145 255  28 145 255  28 145 255
28 145 255  28 145 255  28 145 255  28 145 255  28 145 255  28 145 255
28 145 255  28 145 255  28 145 255  28 145 255  28 145 255  28 145 255
28 145 255  28 145 255  28 145 255  28 145 255  28 145 255  28 145 255
28 145 255  28 145 255  28 145 255  28 145 255  28 145 255  28 145 255
28 145 255  28 145 255  28 145 255  28 145 255  28 145 255  28 145 255
28 145 255  28 145 255  28 145 255  28 145 255  28 145 255  28 145 255
28 145 255  28 145 255  28 145 255  28 145 255  28 145 255  28 145 255
28 145 255  28 145 255  28 145 255  28 145 255  28 145 255  28 145 255
28 145 255  28 145 255  28 145 255  28 145 255  28 145 255  28 145 255
28 145 255  28 145 255  150 204 255  255 255 255  255 255 255  255 255 255
255 255 255  255 255 255  255 255 255  255 255 255  255 255 255  255 255 255
255 255 255  255 255 255  255 255 255  255 255 255  255 255 255  255 255 255
255 255 255  255 255 255  255 255 255  195 226 255  28 145 255  28 145 255
28 145 255  28 145 255  28 145 255  28 145 255  28 145 255  28 145 255
28 145 255  28 145 255  28 145 255  28 145 255  28 145 255  28 145 255
28 145 255  28 145 255  28 145 255  28 145 255  28 145 255  28 145 255
28 145 255  28 145 255  28 145 255  28 145 255  28 145 255  28 145 255
28 145 255  28 145 255  28 145 255  28 145 255  28 145 255  28 145 255
28 145 255  28 145 255  28 145 255  28 145 255  28 145 255  28 145 255
28 145 255  28 145 255  28 145 255  28 145 255  28 145 255  28 145 255
28 145 255  28 145 255  28 145 255  28 145 255  28 145 255  28 145 255
28 145 255  28 145 255  28 145 255  28 145 255  28 145 255  28 145 255
28 145 255  28 145 255  28 145 255  28 145 255  28 145 255  28 145 255
28 145 255  28 145 255  28 145 255  28 145 255  28 145 255  28 145 255
28 145 255  28 145 255  28 145 255  28 145 255  59 160 255  255 255 255
255 255 255  255 255 255  255 255 255  255 255 255
255 255 255  255 255 255  255 255 255  255 255 255  255 255 255  255 255 255
255 255 255  255 255 255  255 255 255  134 197 255  28 145 255  28 145 255
28 145 255  28 145 255  28 145 255  28 145 255  28 145 255  28 145 255
28 145 255  28 145 255  28 145 255  28 145 255  28 145 255  28 145 255
28 145 255  28 145 255  28 145 255  28 145 255  28 145 255  28 145 255
28 145 255  28 145 255  28 145 255  28 145 255  28 145 255  28 145 255
28 145 255  28 145 255  28 145 255  28 145 255  28 145 255  28 145 255
28 145 255  28 145 255  28 145 255  28 145 255  28 145 255  28 145 255
28 145 255  28 145 255  28 145 255  28 145 255  28 145 255  28 145 255
28 145 255  28 145 255  28 145 255  28 145 255  28 145 255  28 145 255
28 145 255  28 145 255  28 145 255  28 145 255  28 145 255  28 145 255
28 145 255  28 145 255  28 145 255  28 145 255  28 145 255  134 197 255
240 248 255  255 255 255  255 255 255  255 255 255  255 255 255  255 255 255
255 255 255  255 255 255  255 255 255  255 255 255  255 255 255  255 255 255
225 241 255  28 145 255  28 145 255  28 145 255  28 145 255  28 145 255
28 145 255  28 145 255  28 145 255  28 145 255  28 145 255  28 145 255
28 145 255  28 145 255  28 145 255  28 145 255  28 145 255  28 145 255
28 145 255  28 145 255  28 145 255  28 145 255  28 145 255  28 145 255
28 145 255  28 145 255  28 145 255  28 145 255  28 145 255  28 145 255
28 145 255  28 145 255  28 145 255  28 145 255  28 145 255  28 145 255
28 145 255  28 145 255  28 145 255  28 145 255  28 145 255  28 145 255
28 145 255  28 145 255  28 145 255  28 145 255  28 145 255  28 145 255
28 145 255  28 145 255  28 145 255  28 145 255  28 145 255  28 145 255
28 145 255  28 145 255  28 145 255  28 145 255  28 145 255  28 145 255
28 145 255  28 145 255  28 145 255  28 145 255  28 145 255  28 145 255
28 145 255  28 145 255  28 145 255  28 145 255  28 145 255  28 145 255
44 153 255  150 204 255  255 255 255  255 255 255  255 255 255  255 255 255
255 255 255  255 255 255  255 255 255  255 255 255  255 255 255  255 255 255
255 255 255  255 255 255  255 255 255  255 255 255  255 255 255  255 255 255
255 255 255  255 255 255  255 255 255  195 226 255  28 145 255  28 145 255
28 145 255  28 145 255  28 145 255  28 145 255  28 145 255  28 145 255
28 145 255  28 145 255  28 145 255  28 145 255  28 145 255  28 145 255
28 145 255  28 145 255  28 145 255  28 145 255  28 145 255  28 145 255
28 145 255  28 145 255  28 145 255  28 145 255  28 145 255  28 145 255
28 145 255  28 145 255  28 145 255  28 145 255  28 145 255  28 145 255
28 145 255  28 145 255  28 145 255  28 145 255  28 145 255  28 145 255
28 145 255  28 145 255  28 145 255  28 145 255  28 145 255  28 145 255
28 145 255  28 145 255  28 145 255  28 145 255  28 145 255  28 145 255
28 145 255  28 145 255  28 145 255  28 145 255  28 145 255  28 145 255
28 145 255  28 145 255  28 145 255  28 145 255  28 145 255  28 145 255
28 145 255  28 145 255  28 145 255  28 145 255  28 145 255  28 145 255
28 145 255  28 145 255  28 145 255  28 145 255  28 145 255  225 241 255
255 255 255  255 255 255  255 255 255  255 255 255
255 255 255  255 255 255  255 255 255  255 255 255  255 255 255  255 255 255
255 255 255  255 255 255  210 233 255  28 145 255  28 145 255  28 145 255
28 145 255  28 145 255  28 145 255  28 145 255  28 145 255  28 145 255
28 145 255  28 145 255  28 145 255  28 145 255  28 145 255  28 145 255
28 145 255  28 145 255  28 145 255  28 145 255  28 145 255  28 145 255
28 145 255  28 145 255  28 145 255  28 145 255  28 145 255  28 145 255
44 153 255  104 182 255  134 197 255  165 211 255  195 226 255  195 226 255
195 226 255  240 248 255  255 255 255  255 255 255  255 255 255  255 255 255
255 255 255  255 255 255  255 255 255  255 255 255  255 255 255  255 255 255
255 255 255  255 255 255  255 255 255  255 255 255  255 255 255  255 255 255
255 255 255  255 255 255  255 255 255  255 255 255  255 255 255  255 255 255
255 255 255  255 255 255  255 255 255  255 255 255  255 255 255  255 255 255
255 255 255  255 255 255  255 255 255  255 255 255  255 255 255  255 255 255
255 255 255  255 255 255  255 255 255  255 255 255  255 255 255  255 255 255
150 204 255  28 145 255  28 145 255  28 145 255  28 145 255  28 145 255
28 145 255  28 145 255  28 145 255  28 145 255  28 145 255  28 145 255
28 145 255  28 145 255  28 145 255  28 145 255  28 145 255  28 145 255
28 145 255  28 145 255  28 145 255  28 145 255  28 145 255  28 145 255
28 145 255  44 153 255  89 175 255  134 197 255  165 211 255  195 226 255
195 226 255  195 226 255  195 226 255  195 226 255  195 226 255  195 226 255
195 226 255  195 226 255  195 226 255  195 226 255  195 226 255  195 226 255
195 226 255  195 226 255  195 226 255  195 226 255  195 226 255  195 226 255
195 226 255  195 226 255  195 226 255  195 226 255  195 226 255  195 226 255
195 226 255  195 226 255  195 226 255  195 226 255  195 226 255  195 226 255
195 226 255  195 226 255  195 226 255  195 226 255  195 226 255  195 226 255
195 226 255  195 226 255  195 226 255  195 226 255  195 226 255  225 241 255
255 255 255  255 255 255  255 255 255  255 255 255  255 255 255  255 255 255
255 255 255  255 255 255  255 255 255  255 255 255  255 255 255  255 255 255
255 255 255  255 255 255  255 255 255  255 255 255  255 255 255  255 255 255
255 255 255  255 255 255  255 255 255  180 219 255  28 145 255  28 145 255
28 145 255  28 145 255  28 145 255  28 145 255  28 145 255  28 145 255
28 145 255  28 145 255  28 145 255  28 145 255  28 145 255  28 145 255
28 145 255  28 145 255  28 145 255  28 145 255  255 255 255  255 255 255
255 255 255  255 255 255  255 255 255  255 255 255  255 255 255  255 255 255
255 255 255  255 255 255  255 255 255  255 255 255  255 255 255  255 255 255
255 255 255  255 255 255  255 255 255  255 255 255  255 255 255  255 255 255
255 255 255  255 255 255  255 255 255  255 255 255  255 255 255  255 255 255
195 226 255  195 226 255  150 204 255  134 197 255  74 167 255  28 145 255
28 145 255  28 145 255  28 145 255  28 145 255  28 145 255  28 145 255
28 145 255  28 145 255  28 145 255  28 145 255  28 145 255  28 145 255
28 145 255  28 145 255  28 145 255  28 145 255  28 145 255  28 145 255
28 145 255  28 145 255  28 145 255  28 145 255  28 145 255  165 211 255
255 255 255  255 255 255  255 255 255  255 255 255
255 255 255  255 255 255  255 255 255  255 255 255  255 255 255  255 255 255
255 255 255  255 255 255  74 167 255  28 145 255  28 145 255  28 145 255
28 145 255  28 145 255  28 145 255  28 145 255  28 145 255  28 145 255
28 145 255  28 145 255  28 145 255  28 145 255  28 145 255  28 145 255
28 145 255  28 145 255  28 145 255  28 145 255  28 145 255  28 145 255
28 145 255  28 145 255  28 145 255  59 160 255  134 197 255  210 233 255
255 255 255  255 255 255  255 255 255  255 255 255  255 255 255  255 255 255
255 255 255  255 255 255  255 255 255  255 255 255  255 255 255  255 255 255
255 255 255  255 255 255  255 255 255  255 255 255  255 255 255  255 255 255
255 255 255  255 255 255  255 255 255  255 255 255  255 255 255  255 255 255
255 255 255  255 255 255  255 255 255  255 255 255  255 255 255  255 255 255
255 255 255  255 255 255  255 255 255  255 255 255  255 255 255  255 255 255
255 255 255  255 255 255  255 255 255  255 255 255  255 255 255  255 255 255
255 255 255  255 255 255  255 255 255  255 255 255  255 255 255  255 255 255
74 167 255  28 145 255  28 145 255  28 145 255  28 145 255  28 145 255
28 145 255  28 145 255  28 145 255  28 145 255  28 145 255  28 145 255
28 145 255  28 145 255  28 145 255  28 145 255  28 145 255  28 145 255
28 145 255  28 145 255  28 145 255  28 145 255  28 145 255  104 182 255
180 219 255  255 255 255  255 255 255  255 255 255  255 255 255  255 255 255
255 255 255  255 255 255  255 255 255  255 255 255  255 255 255  255 255 255
255 255 255  255 255 255  255 255 255  255 255 255  255 255 255  255 255 255
255 255 255  255 255 255  255 255 255  255 255 255  255 255 255  255 255 255
255 255 255  255 255 255  255 255 255  255 255 255  255 255 255  255 255 255
255 255 255  255 255 255  255 255 255  255 255 255  255 255 255  255 255 255
255 255 255  255 255 255  255 255 255  255 255 255  255 255 255  255 255 255
255 255 255  255 255 255  255 255 255  255 255 255  255 255 255  255 255 255
255 255 255  255 255 255  255 255 255  255 255 255  255 255 255  255 255 255
255 255 255  255 255 255  255 255 255  255 255 255  255 255 255  255 255 255
255 255 255  255 255 255  255 255 255  255 255 255  255 255 255  255 255 255
255 255 255  255 255 255  255 255 255  134 197 255  28 145 255  28 145 255
28 145 255  28 145 255  28 145 255  28 145 255  28 145 255  28 145 255
28 145 255  28 145 255  28 145 255  28 145 255  28 145 255  28 145 255
28 145 255  28 145 255  28 145 255  59 160 255  255 255 255  255 255 255
255 255 255  255 255 255  255 255 255  255 255 255  255 255 255  255 255 255
255 255 255  255 255 255  255 255 255  255 255 255  255 255 255  255 255 255
255 255 255  255 255 255  255 255 255  255 255 255  255 255 255  255 255 255
255 255 255  255 255 255  255 255 255  255 255 255  255 255 255  255 255 255
255 255 255  255 255 255  255 255 255  255 255 255  255 255 255  255 255 255
165 211 255  59 160 255  28 145 255  28 145 255  28 145 255  28 145 255
28 145 255  28 145 255  28 145 255  28 145 255  28 145 255  28 145 255
28 145 255  28 145 255  28 145 255  28 145 255  28 145 255  28 145 255
28 145 255  28 145 255  28 145 255  28 145 255  28 145 255  134 197 255
255 255 255  255 255 255  255 255 255  255 255 255
255 255 255  255 255 255  255 255 255  255 255 255  255 255 255  255 255 255
255 255 255  134 197 255  28 145 255  28 145 255  28 145 255  28 145 255
28 145 255  28 145 255  28 145 255  28 145 255  28 145 255  28 145 255
28 145 255  28 145 255  28 145 255  28 145 255  28 145 255  28 145 255
28 145 255  28 145 255  28 145 255  28 145 255  28 145 255  28 145 255
28 145 255  59 160 255  165 211 255  255 255 255  255 255 255  255 255 255
255 255 255  255 255 255  255 255 255  255 255 255  255 255 255  255 255 255
255 255 255  255 255 255  255 255 255  255 255 255  255 255 255  255 255 255
255 255 255  255 255 255  255 255 255  255 255 255  255 255 255  255 255 255
255 255 255  255 255 255  255 255 255  255 255 255  255 255 255  255 255 255
255 255 255  255 255 255  255 255 255  255 255 255  255 255 255  255 255 255
255 255 255  255 255 255  255 255 255  255 255 255  255 255 255  255 255 255
255 255 255  255 255 255  255 255 255  255 255 255  255 255 255  255 255 255
255 255 255  255 255 255  255 255 255  255 255 255  255 255 255  225 241 255
28 145 255  28 145 255  28 145 255  28 145 255  28 145 255  28 145 255
28 145 255  28 145 255  28 145 255  28 145 255  28 145 255  28 145 255
28 145 255  28 145 255  28 145 255  28 145 255  28 145 255  28 145 255
28 145 255  28 145 255  28 145 255  74 167 255  195 226 255  255 255 255
255 255 255  255 255 255  255 255 255  255 255 255  255 255 255  255 255 255
255 255 255  255 255 255  255 255 255  255 255 255  255 255 255  255 255 255
255 255 255  255 255 255  255 255 255  255 255 255  255 255 255  255 255 255
255 255 255  255 255 255  255 255 255  255 255 255  255 255 255  255 255 255
255 255 255  255 255 255  255 255 255  255 255 255  255 255 255  255 255 255
255 255 255  255 255 255  255 255 255  255 255 255  255 255 255  255 255 255
255 255 255  255 255 255  255 255 255  255 255 255  255 255 255  255 255 255
255 255 255  255 255 255  255 255 255  255 255 255  255 255 255  255 255 255
255 255 255  255 255 255  255 255 255  255 255 255  255 255 255  255 255 255
255 255 255  255 255 255  255 255 255  255 255 255  255 255 255  255 255 255
255 255 255  255 255 255  255 255 255  255 255 255  255 255 255  255 255 255
255 255 255  255 255 255  255 255 255  134 197 255  28 145 255  28 145 255
28 145 255  28 145 255  28 145 255  28 145 255  28 145 255  28 145 255
28 145 255  28 145 255  28 145 255  28 145 255  28 145 255  28 145 255
28 145 255  28 145 255  28 145 255  89 175 255  255 255 255  255 255 255
255 255 255  255 255 255  255 255 255  255 255 255  255 255 255  255 255 255
255 255 255  255 255 255  255 255 255  255 255 255  255 255 255  255 255 255
255 255 255  255 255 255  255 255 255  255 255 255  255 255 255  255 255 255
255 255 255  255 255 255  255 255 255  255 255 255  255 255 255  255 255 255
255 255 255  255 255 255  255 255 255  255 255 255  255 255 255  255 255 255
255 255 255  255 255 255  134 197 255  28 145 255  28 145 255  28 145 255
28 145 255  28 145 255  28 145 255  28 145 255  28 145 255  28 145 255
28 145 255  28 145 255  28 145 255  28 145 255  28 145 255  28 145 255
28 145 255  28 145 255  28 145 255  28 145 255  28 145 255  89 175 255
255 255 255  255 255 255  255 255 255  255 255 255
255 255 255  255 255 255  255 255 255  255 255 255  255 255 255  255 255 255
240 248 255  44 153 255  28 145 255  28 145 255  28 145 255  28 145 255
28 145 255  28 145 255  28 145 255  28 145 255  28 145 255  28 145 255
28 145 255  28 145 255  28 145 255  28 145 255  28 145 255  28 145 255
28 145 255  28 145 255  28 145 255  28 145 255  28 145 255  28 145 255
134 197 255  240 248 255  255 255 255  255 255 255  255 255 255  255 255 255
255 255 255  255 255 255  255 255 255  255 255 255  255 255 255  255 255 255
255 255 255  255 255 255  255 255 255  255 255 255  255 255 255  255 255 255
255 255 255  255 255 255  255 255 255  255 255 255  255 255 255  255 255 255
255 255 255  255 255 255  255 255 255  255 255 255  255 255 255  255 255 255
255 255 255  255 255 255  255 255 255  255 255 255  255 255 255  255 255 255
255 255 255  255 255 255  255 255 255  255 255 255  255 255 255  255 255 255
255 255 255  255 255 255  255 255 255  255 255 255  255 255 255  255 255 255
255 255 255  255 255 255  255 255 255  255 255 255  255 255 255  150 204 255
28 145 255  28 145 255  28 145 255  28 145 255  28 145 255  28 145 255
28 145 255  28 145 255  28 145 255  28 145 255  28 145 255  28 145 255
28 145 255  28 145 255  28 145 255  28 145 255  28 145 255  28 145 255
28 145 255  28 145 255  74 167 255  240 248 255  255 255 255  255 255 255
255 255 255  255 255 255  255 255 255  255 255 255  255 255 255  255 255 255
255 255 255  255 255 255  255 255 255  255 255 255  255 255 255  255 255 255
255 255 255  255 255 255  255 255 255  255 255 255  255 255 255  255 255 255
255 255 255  255 255 255  255 255 255  255 255 255  255 255 255  255 255 255
255 255 255  255 255 255  255 255 255  255 255 255  255 255 255  255 255 255
255 255 255  255 255 255  255 255 255  255 255 255  255 255 255  255 255 255
255 255 255  255 255 255  255 255 255  255 255 255  255 255 255  255 255 255
255 255 255  255 255 255  255 255 255  255 255 255  255 255 255  255 255 255
255 255 255  255 255 255  255 255 255  255 255 255  255 255 255  255 255 255
255 255 255  255 255 255  255 255 255  255 255 255  255 255 255  255 255 255
255 255 255  255 255 255  255 255 255  255 255 255  255 255 255  255 255 255
255 255 255  255 255 255  255 255 255  134 197 255  28 145 255  28 145 255
28 145 255  28 145 255  28 145 255  28 145 255  28 145 255  28 145 255
28 145 255  28 145 255  28 145 255  28 145 255  28 145 255  28 145 255
28 145 255  28 145 255  28 145 255  89 175 255  255 255 255  255 255 255
255 255 255  255 255 255  255 255 255  255 255 255  255 255 255  255 255 255
255 255 255  255 255 255  255 255 255  255 255 255  255 255 255  255 255 255
255 255 255  255 255 255  255 255 255  255 255 255  255 255 255  255 255 255
255 255 255  255 255 255  255 255 255  255 255 255  255 255 255  255 255 255
255 255 255  255 255 255  255 255 255  255 255 255  255 255 255  255 255 255
255 255 255  255 255 255  255 255 255  150 204 255  28 145 255  28 145 255
28 145 255  28 145 255  28 145 255  28 145 255  28 145 255  28 145 255
28 145 255  28 145 255  28 145 255  28 145 255  28 145 255  28 145 255
28 145 255  28 145 255  28 145 255  28 145 255  28 145 255  89 175 255
255 255 255  255 255 255  255 255 255  255 255 255
255 255 255  255 255 255  255 255 255  255 255 255  255 255 255  255 255 255
134 197 255  28 145 255  28 145 255  28 145 255  28 145 255  28 145 255
28 145 255  28 145 255  28 145 255  28 145 255  28 145 255  28 145 255
28 145 255  28 145 255  28 145 255  28 145 255  28 145 255  28 145 255
28 145 255  28 145 255  28 145 255  28 145 255  28 145 255  165 211 255
255 255 255  255 255 255  255 255 255  255 255 255  255 255 255  255 255 255
255 255 255  255 255 255  255 255 255  255 255 255  255 255 255  255 255 255
255 255 255  255 255 255  255 255 255  255 255 255  255 255 255  255 255 255
255 255 255  255 255 255  255 255 255  255 255 255  255 255 255  255 255 255
255 255 255  255 255 255  255 255 255  255 255 255  255 255 255  255 255 255
255 255 255  255 255 255  255 255 255  255 255 255  255 255 255  255 255 255
255 255 255  255 255 255  255 255 255  255 255 255  255 255 255  255 255 255
255 255 255  255 255 255  255 255 255  255 255 255  255 255 255  255 255 255
255 255 255  255 255 255  255 255 255  255 255 255  255 255 255  89 175 255
28 145 255  28 145 255  28 145 255  28 145 255  28 145 255  28 145 255
28 145 255  28 145 255  28 145 255  28 145 255  28 145 255  28 145 255
28 145 255  28 145 255  28 145 255  28 145 255  28 145 255  28 145 255
28 145 255  89 175 255  255 255 255  255 255 255  255 255 255  255 255 255
255 255 255  255 255 255  255 255 255  255 255 255  255 255 255  255 255 255
255 255 255  255 255 255  255 255 255  255 255 255  255 255 255  255 255 255
255 255 255  255 255 255  255 255 255  255 255 255  255 255 255  255 255 255
255 255 255  255 255 255  255 255 255  255 255 255  255 255 255  255 255 255
255 255 255  255 255 255  255 255 255  255 255 255  255 255 255  255 255 255
255 255 255  255 255 255  255 255 255  255 255 255  255 255 255  255 255 255
255 255 255  255 255 255  255 255 255  255 255 255  255 255 255  255 255 255
255 255 255  255 255 255  255 255 255  255 255 255  255 255 255  255 255 255
255 255 255  255 255 255  255 255 255  255 255 255  255 255 255  255 255 255
255 255 255  255 255 255  255 255 255  255 255 255  255 255 255  255 255 255
255 255 255  255 255 255  255 255 255  255 255 255  255 255 255  255 255 255
255 255 255  255 255 255  255 255 255  89 175 255  28 145 255  28 145 255
28 145 255  28 145 255  28 145 255  28 145 255  28 145 255  28 145 255
28 145 255  28 145 255  28 145 255  28 145 255  28 145 255  28 145 255
28 145 255  28 145 255  28 145 255  119 189 255  255 255 255  255 255 255
255 255 255  255 255 255  255 255 255  255 255 255  255 255 255  255 255 255
255 255 255  255 255 255  255 255 255  255 255 255  255 255 255  255 255 255
255 255 255  255 255 255  255 255 255  255 255 255  255 255 255  255 255 255
255 255 255  255 255 255  255 255 255  255 255 255  255 255 255  255 255 255
255 255 255  255 255 255  255 255 255  255 255 255  255 255 255  255 255 255
255 255 255  255 255 255  255 255 255  255 255 255  89 175 255  28 145 255
28 145 255  28 145 255  28 145 255  28 145 255  28 145 255  28 145 255
28 145 255  28 145 255  28 145 255  28 145 255  28 145 255  28 145 255
28 145 255  28 145 255  28 145 255  28 145 255  28 145 255  28 145 255
255 255 255  255 255 255  255 255 255  255 255 255
255 255 255  255 255 255  255 255 255  255 255 255  255 255 255  240 248 255
28 145 255  28 145 255  28 145 255  28 145 255  28 145 255  28 145 255
28 145 255  28 145 255  28 145 255  28 145 255  28 145 255  28 145 255
28 145 255  28 145 255  28 145 255  28 145 255  28 145 255  28 145 255
28 145 255  28 145 255  28 145 255  28 145 255  195 226 255  255 255 255
255 255 255  255 255 255  255 255 255  255 255 255  255 255 255  255 255 255
255 255 255  255 255 255  255 255 255  255 255 255  255 255 255  255 255 255
255 255 255  255 255 255  255 255 255  255 255 255  255 255 255  255 255 255
255 255 255  255 255 255  255 255 255  255 255 255  255 255 255  255 255 255
255 255 255  255 255 255  255 255 255  255 255 255  255 255 255  255 255 255
255 255 255  255 255 255  255 255 255  255 255 255  255 255 255  255 255 255
255 255 255  255 255 255  255 255 255  255 255 255  255 255 255  255 255 255
255 255 255  255 255 255  255 255 255  255 255 255  255 255 255  255 255 255
255 255 255  255 255 255  255 255 255  255 255 255  255 255 255  44 153 255
28 145 255  28 145 255  28 145 255  28 145 255  28 145 255  28 145 255
28 145 255  28 145 255  28 145 255  28 145 255  28 145 255  28 145 255
28 145 255  28 145 255  28 145 255  28 145 255  28 145 255  28 145 255
28 145 255  210 233 255  255 255 255  255 255 255  255 255 255  255 255 255
255 255 255  255 255 255  255 255 255  255 255 255  255 255 255  255 255 255
255 255 255  255 255 255  255 255 255  255 255 255  255 255 255  255 255 255
255 255 255  255 255 255  255 255 255  255 255 255  255 255 255  255 255 255
255 255 255  255 255 255  255 255 255  255 255 255  255 255 255  255 255 255
255 255 255  255 255 255  255 255 255  255 255 255  255 255 255  255 255 255
255 255 255  255 255 255  255 255 255  255 255 255  255 255 255  255 255 255
255 255 255  255 255 255  255 255 255  255 255 255  255 255 255  255 255 255
255 255 255  255 255 255  255 255 255  255 255 255  255 255 255  255 255 255
255 255 255  255 255 255  255 255 255  255 255 255  255 255 255  255 255 255
255 255 255  255 255 255  255 255 255  255 255 255  255 255 255  255 255 255
255 255 255  255 255 255  255 255 255  255 255 255  255 255 255  255 255 255
255 255 255  255 255 255  255 255 255  89 175 255  28 145 255  28 145 255
28 145 255  28 145 255  28 145 255  28 145 255  28 145 255  28 145 255
28 145 255  28 145 255  28 145 255  28 145 255  28 145 255  28 145 255
28 145 255  28 145 255  28 145 255  134 197 255  255 255 255  255 255 255
255 255 255  255 255 255  255 255 255  255 255 255  255 255 255  255 255 255
255 255 255  255 255 255  255 255 255  255 255 255  255 255 255  255 255 255
255 255 255  255 255 255  255 255 255  255 255 255  255 255 255  255 255 255
255 255 255  255 255 255  255 255 255  255 255 255  255 255 255  255 255 255
255 255 255  255 255 255  255 255 255  255 255 255  255 255 255  255 255 255
255 255 255  255 255 255  255 255 255  255 255 255  180 219 255  28 145 255
28 145 255  28 145 255  28 145 255  28 145 255  28 145 255  28 145 255
28 145 255  28 145 255  28 145 255  28 145 255  28 145 255  28 145 255
28 145 255  28 145 255  28 145 255  28 145 255  28 145 255  28 145 255
255 255 255  255 255 255  255 255 255  255 255 255
255 255 255  255 255 255  255 255 255  255 255 255  255 255 255  134 197 255
28 145 255  28 145 255  28 145 255  28 145 255  28 145 255  28 145 255
28 145 255  28 145 255  28 145 255  28 145 255  28 145 255  28 145 255
28 145 255  28 145 255  28 145 255  28 145 255  28 145 255  28 145 255
28 145 255  28 145 255  28 145 255  165 211 255  255 255 255  255 255 255
255 255 255  255 255 255  255 255 255  255 255 255  255 255 255  255 255 255
255 255 255  255 255 255  255 255 255  255 255 255  255 255 255  255 255 255
255 255 255  255 255 255  255 255 255  255 255 255  255 255 255  255 255 255
255 255 255  255 255 255  255 255 255  255 255 255  255 255 255  255 255 255
255 255 255  255 255 255  255 255 255  255 255 255  255 255 255  255 255 255
255 255 255  255 255 255  255 255 255  255 255 255  255 255 255  255 255 255
255 255 255  255 255 255  255 255 255  255 255 255  255 255 255  255 255 255
255 255 255  255 255 255  255 255 255  255 255 255  255 255 255  255 255 255
255 255 255  255 255 255  255 255 255  255 255 255  240 248 255  28 145 255
28 145 255  28 145 255  28 145 255  28 145 255  28 145 255  28 145 255
28 145 255  28 145 255  28 145 255  28 145 255  28 145 255  28 145 255
28 145 255  28 145 255  28 145 255  28 145 255  28 145 255  28 145 255
134 197 255  255 255 255  255 255 255  255 255 255  255 255 255  255 255 255
255 255 255  255 255 255  255 255 255  255 255 255  255 255 255  255 255 255
255 255 255  255 255 255  255 255 255  255 255 255  255 255 255  255 255 255
255 255 255  255 255 255  255 255 255  255 255 255  255 255 255  255 255 255
255 255 255  255 255 255  255 255 255  255 255 255  255 255 255  255 255 255
255 255 255  255 255 255  255 255 255  255 255 255  255 255 255  255 255 255
255 255 255  255 255 255  255 255 255  255 255 255  255 255 255  255 255 255
255 255 255  255 255 255  255 255 255  255 255 255  255 255 255  255 255 255
255 255 255  255 255 255  255 255 255  255 255 255  255 255 255  255 255 255
255 255 255  255 255 255  255 255 255  255 255 255  255 255 255  255 255 255
255 255 255  255 255 255  255 255 255  255 255 255  255 255 255  255 255 255
255 255 255  255 255 255  255 255 255  255 255 255  255 255 255  255 255 255
255 255 255  255 255 255  255 255 255  74 167 255  28 145 255  28 145 255
28 145 255  28 145 255  28 145 255  28 145 255  28 145 255  28 145 255
28 145 255  28 145 255  28 145 255  28 145 255  28 145 255  28 145 255
28 145 255  28 145 255  28 145 255  134 197 255  255 255 255  255 255 255
255 255 255  255 255 255  255 255 255  255 255 255  255 255 255  255 255 255
255 255 255  255 255 255  255 255 255  255 255 255  255 255 255  255 255 255
255 255 255  255 255 255  255 255 255  255 255 255  255 255 255  255 255 255
255 255 255  255 255 255  255 255 255  255 255 255  255 255 255  255 255 255
255 255 255  255 255 255  255 255 255  255 255 255  255 255 255  255 255 255
255 255 255  255 255 255  255 255 255  255 255 255  255 255 255  28 145 255
28 145 255  28 145 255  28 145 255  28 145 255  28 145 255  28 145 255
28 145 255  28 145 255  28 145 255  28 145 255  28 145 255  28 145 255
28 145 255  28 145 255  28 145 255  28 145 255  28 145 255  28 145 255
255 255 255  255 255 255  255 255 255  255 255 255
255 255 255  255 255 255  255 255 255  255 255 255  255 255 255  59 160 255
28 145 255  28 145 255  28 145 255  28 145 255  28 145 255  28 145 255
28 145 255  28 145 255  28 145 255  28 145 255  28 145 255  28 145 255
28 145 255  28 145 255  28 145 255  28 145 255  28 145 255  28 145 255
28 145 255  28 145 255  134 197 255  255 255 255  255 255 255  255 255 255
255 255 255  255 255 255  255 255 255  255 255 255  255 255 255  255 255 255
255 255 255  255 255 255  255 255 255  255 255 255  255 255 255  255 255 255
255 255 255  255 255 255  255 255 255  255 255 255  255 255 255  255 255 255
255 255 255  255 255 255  255 255 255  255 255 255  255 255 255  255 255 255
255 255 255  255 255 255  255 255 255  255 255 255  255 255 255  255 255 255
255 255 255  255 255 255  255 255 255  255 255 255  255 255 255  255 255 255
255 255 255  255 255 255  255 255 255  255 255 255  255 255 255  255 255 255
255 255 255  255 255 255  255 255 255  255 255 255  255 255 255  255 255 255
255 255 255  255 255 255  255 255 255  255 255 255  195 226 255  28 145 255
28 145 255  28 145 255  28 145 255  28 145 255  28 145 255  28 145 255
28 145 255  28 145 255  28 145 255  28 145 255  28 145 255  28 145 255
28 145 255  28 145 255  28 145 255  28 145 255  28 145 255  28 145 255
210 233 255  255 255 255  255 255 255  255 255 255  255 255 255  255 255 255
255 255 255  255 255 255  255 255 255  255 255 255  255 255 255  255 255 255
255 255 255  255 255 255  255 255 255  255 255 255  255 255 255  255 255 255
255 255 255  255 255 255  255 255 255  255 255 255  255 255 255  255 255 255
255 255 255  255 255 255  255 255 255  255 255 255  255 255 255  255 255 255
255 255 255  255 255 255  255 255 255  255 255 255  255 255 255  255 255 255
255 255 255  255 255 255  255 255 255  255 255 255  255 255 255  255 255 255
255 255 255  255 255 255  255 255 255  255 255 255  255 255 255  255 255 255
255 255 255  255 255 255  255 255 255  255 255 255  255 255 255  255 255 255
255 255 255  255 255 255  255 255 255  255 255 255  255 255 255  255 255 255
255 255 255  255 255 255  255 255 255  255 255 255  255 255 255  255 255 255
255 255 255  255 255 255  255 255 255  255 255 255  255 255 255  255 255 255
255 255 255  255 255 255  255 255 255  28 145 255  28 145 255  28 145 255
28 145 255  28 145 255  28 145 255  28 145 255  28 145 255  28 145 255
28 145 255  28 145 255  28 145 255  28 145 255  28 145 255  28 145 255
28 145 255  28 145 255  28 145 255  165 211 255  255 255 255  255 255 255
255 255 255  255 255 255  255 255 255  255 255 255  255 255 255  255 255 255
255 255 255  255 255 255  255 255 255  255 255 255  255 255 255  255 255 255
255 255 255  255 255 255  255 255 255  255 255 255  255 255 255  255 255 255
255 255 255  255 255 255  255 255 255  255 255 255  255 255 255  255 255 255
255 255 255  255 255 255  255 255 255  255 255 255  255 255 255  255 255 255
255 255 255  255 255 255  255 255 255  255 255 255  255 255 255  74 167 255
28 145 255  28 145 255  28 145 255  28 145 255  28 145 255  28 145 255
28 145 255  28 145 255  28 145 255  28 145 255  28 145 255  28 145 255
28 145 255  28 145 255  28 145 255  28 145 255  28 145 255  28 145 255
255 255 255  255 255 255  255 255 255  255 255 255
255 255 255  255 255 255  255 255 255  255 255 255  165 211 255  28 145 255
28 145 255  28 145 255  28 145 255  28 145 255  28 145 255  28 145 255
28 145 255  28 145 255  28 145 255  28 145 255  28 145 255  28 145 255
28 145 255  28 145 255  28 145 255  28 145 255  28 145 255  28 145 255
28 145 255  74 167 255  255 255 255  255 255 255  255 255 255  255 255 255
255 255 255  255 255 255  255 255 255  255 255 255  255 255 255  255 255 255
255 255 255  255 255 255  255 255 255  255 255 255  255 255 255  255 255 255
255 255 255  255 255 255  255 255 255  255 255 255  255 255 255  255 255 255
255 255 255  255 255 255  255 255 255  255 255 255  255 255 255  255 255 255
255 255 255  255 255 255  255 255 255  255 255 255  255 255 255  255 255 255
255 255 255  255 255 255  255 255 255  255 255 255  255 255 255  255 255 255
255 255 255  255 255 255  255 255 255  255 255 255  255 255 255  255 255 255
255 255 255  255 255 255  255 255 255  255 255 255  255 255 255  255 255 255
255 255 255  255 255 255  255 255 255  255 255 255  165 211 255  28 145 255
28 145 255  28 145 255  28 145 255  28 145 255  28 145 255  28 145 255
28 145 255  28 145 255  28 145 255  28 145 255  28 145 255  28 145 255
28 145 255  28 145 255  28 145 255  28 145 255  28 145 255  59 160 255
255 255 255  255 255 255  255 255 255  255 255 255  255 255 255  255 255 255
255 255 255  255 255 255  255 255 255  255 255 255  255 255 255  255 255 255
255 255 255  255 255 255  255 255 255  255 255 255  255 255 255  255 255 255
255 255 255  255 255 255  255 255 255  255 255 255  255 255 255  255 255 255
255 255 255  255 255 255  255 255 255  255 255 255  255 255 255  255 255 255
255 255 255  255 255 255  255 255 255  255 255 255  255 255 255  255 255 255
255 255 255  255 255 255  255 255 255  255 255 255  255 255 255  255 255 255
255 255 255  255 255 255  255 255 255  255 255 255  255 255 255  255 255 255
255 255 255  255 255 255  255 255 255  255 255 255  255 255 255  255 255 255
255 255 255  255 255 255  255 255 255  255 255 255  255 255 255  255 255 255
255 255 255  255 255 255  255 255 255  255 255 255  255 255 255  255 255 255
255 255 255  255 255 255  255 255 255  255 255 255  255 255 255  255 255 255
255 255 255  255 255 255  255 255 255  28 145 255  28 145 255  28 145 255
28 145 255  28 145 255  28 145 255  28 145 255  28 145 255  28 145 255
28 145 255  28 145 255  28 145 255  28 145 255  28 145 255  28 145 255
28 145 255  28 145 255  28 145 255  195 226 255  255 255 255  255 255 255
255 255 255  255 255 255  255 255 255  255 255 255  255 255 255  255 255 255
255 255 255  255 255 255  255 255 255  255 255 255  255 255 255  255 255 255
255 255 255  255 255 255  255 255 255  255 255 255  255 255 255  255 255 255
255 255 255  255 255 255  255 255 255  255 255 255  255 255 255  255 255 255
255 255 255  255 255 255  255 255 255  255 255 255  255 255 255  255 255 255
255 255 255  255 255 255  255 255 255  255 255 255  255 255 255  89 175 255
28 145 255  28 145 255  28 145 255  28 145 255  28 145 255  28 145 255
28 145 255  28 145 255  28 145 255  28 145 255  28 145 255  28 145 255
28 145 255  28 145 255  28 145 255  28 145 255  28 145 255  28 145 255
255 255 255  255 255 255  255 255 255  255 255 255
255 255 255  255 255 255  255 255 255  255 255 255  89 175 255  28 145 255
28 145 255  28 145 255  28 145 255  28 145 255  28 145 255  28 145 255
28 145 255  28 145 255  28 145 255  28 145 255  28 145 255  28 145 255
28 145 255  28 145 255  28 145 255  28 145 255  28 145 255  28 145 255
28 145 255  195 226 255  255 255 255  255 255 255  255 255 255  255 255 255
255 255 255  255 255 255  255 255 255  255 255 255  255 255 255  255 255 255
255 255 255  255 255 255  255 255 255  255 255 255  255 255 255  255 255 255
255 255 255  255 255 255  255 255 255  255 255 255  255 255 255  255 255 255
255 255 255  255 255 255  255 255 255  255 255 255  255 255 255  255 255 255
255 255 255  255 255 255  255 255 255  255 255 255  255 255 255  255 255 255
255 255 255  255 255 255  255 255 255  255 255 255  255 255 255  255 255 255
255 255 255  255 255 255  255 255 255  255 255 255  255 255 255  255 255 255
255 255 255  255 255 255  255 255 255  255 255 255  255 255 255  255 255 255
255 255 255  255 255 255  255 255 255  255 255 255  134 197 255  28 145 255
28 145 255  28 145 255  28 145 255  28 145 255  28 145 255  28 145 255
28 145 255  28 145 255  28 145 255  28 145 255  28 145 255  28 145 255
28 145 255  28 145 255  28 145 255  28 145 255  28 145 255  104 182 255
255 255 255  255 255 255  255 255 255  255 255 255  255 255 255  255 255 255
255 255 255  255 255 255  255 255 255  255 255 255  255 255 255  255 255 255
255 255 255  255 255 255  255 255 255  255 255 255  255 255 255  255 255 255
255 255 255  255 255 255  255 255 255  255 255 255  255 255 255  255 255 255
255 255 255  255 255 255  255 255 255  255 255 255  255 255 255  255 255 255
255 255 255  255 255 255  255 255 255  255 255 255  255 255 255  255 255 255
255 255 255  255 255 255  255 255 255  255 255 255  255 255 255  255 255 255
255 255 255  255 255 255  255 255 255  255 255 255  255 255 255  255 255 255
255 255 255  255 255 255  255 255 255  255 255 255  255 255 255  255 255 255
255 255 255  255 255 255  255 255 255  255 255 255  255 255 255  255 255 255
255 255 255  255 255 255  255 255 255  255 255 255  255 255 255  255 255 255
255 255 255  255 255 255  255 255 255  255 255 255  255 255 255  255 255 255
255 255 255  255 255 255  240 248 255  28 145 255  28 145 255  28 145 255
28 145 255  28 145 255  28 145 255  28 145 255  28 145 255  28 145 255
28 145 255  28 145 255  28 145 255  28 145 255  28 145 255  28 145 255
28 145 255  28 145 255  28 145 255  195 226 255  255 255 255  255 255 255
255 255 255  255 255 255  255 255 255  255 255 255  255 255 255  255 255 255
255 255 255  255 255 255  255 255 255  255 255 255  255 255 255  255 255 255
255 255 255  255 255 255  255 255 255  255 255 255  255 255 255  255 255 255
255 255 255  255 255 255  255 255 255  255 255 255  255 255 255  255 255 255
255 255 255  255 255 255  255 255 255  255 255 255  255 255 255  255 255 255
255 255 255  255 255 255  255 255 255  255 255 255  255 255 255  89 175 255
28 145 255  28 145 255  28 145 255  28 145 255  28 145 255  28 145 255
28 145 255  28 145 255  28 145 255  28 145 255  28 145 255  28 145 255
28 145 255  28 145 255  28 145 255  28 145 255  28 145 255  59 160 255
255 255 255  255 255 255  255 255 255  255 255 255
255 255 255  255 255 255  255 255 255  225 241 255  28 145 255  28 145 255
28 145 255  28 145 255  28 145 255  28 145 255  28 145 255  28 145 255
28 145 255  28 145 255  28 145 255  28 145 255  28 145 255  28 145 255
28 145 255  28 145 255  28 145 255  28 145 255  28 145 255  28 145 255
89 175 255  255 255 255  255 255 255  255 255 255  255 255 255  255 255 255
255 255 255  255 255 255  255 255 255  255 255 255  255 255 255  255 255 255
255 255 255  255 255 255  255 255 255  255 255 255  255 255 255  255 255 255
255 255 255  255 255 255  255 255 255  255 255 255  255 255 255  255 255 255
255 255 255  255 255 255  255 255 255  255 255 255  255 255 255  255 255 255
255 255 255  255 255 255  255 255 255  255 255 255  255 255 255  255 255 255
255 255 255  255 255 255  255 255 255  255 255 255  255 255 255  255 255 255
255 255 255  255 255 255  255 255 255  255 255 255  255 255 255  255 255 255
255 255 255  255 255 255  255 255 255  255 255 255  255 255 255  255 255 255
255 255 255  255 255 255  255 255 255  255 255 255  89 175 255  28 145 255
28 145 255  28 145 255  28 145 255  28 145 255  28 145 255  28 145 255
28 145 255  28 145 255  28 145 255  28 145 255  28 145 255  28 145 255
28 145 255  28 145 255  28 145 255  28 145 255  28 145 255  134 197 255
255 255 255  255 255 255  255 255 255  255 255 255  255 255 255  255 255 255
255 255 255  255 255 255  255 255 255  255 255 255  255 255 255  255 255 255
255 255 255  255 255 255  255 255 255  255 255 255  255 255 255  255 255 255
255 255 255  255 255 255  255 255 255  255 255 255  255 255 255  255 255 255
255 255 255  255 255 255  255 255 255  255 255 255  255 255 255  255 255 255
255 255 255  255 255 255  255 255 255  255 255 255  255 255 255  255 255 255
255 255 255  255 255 255  255 255 255  255 255 255  255 255 255  255 255 255
255 255 255  255 255 255  255 255 255  255 255 255  255 255 255  255 255 255
255 255 255  255 255 255  255 255 255  255 255 255  255 255 255  255 255 255
255 255 255  255 255 255  255 255 255  255 255 255  255 255 255  255 255 255
255 255 255  255 255 255  255 255 255  255 255 255  255 255 255  255 255 255
255 255 255  255 255 255  255 255 255  255 255 255  255 255 255  255 255 255
255 255 255  255 255 255  195 226 255  28 145 255  28 145 255  28 145 255
28 145 255  28 145 255  28 145 255  28 145 255  28 145 255  28 145 255
28 145 255  28 145 255  28 145 255  28 145 255  28 145 255  28 145 255
28 145 255  28 145 255  28 145 255  225 241 255  255 255 255  255 255 255
255 255 255  255 255 255  255 255 255  255 255 255  255 255 255  255 255 255
255 255 255  255 255 255  255 255 255  255 255 255  255 255 255  255 255 255
255 255 255  255 255 255  255 255 255  255 255 255  255 255 255  255 255 255
255 255 255  255 255 255  255 255 255  255 255 255  255 255 255  255 255 255
255 255 255  255 255 255  255 255 255  255 255 255  255 255 255  255 255 255
255 255 255  255 255 255  255 255 255  255 255 255  255 255 255  89 175 255
28 145 255  28 145 255  28 145 255  28 145 255  28 145 255  28 145 255
28 145 255  28 145 255  28 145 255  28 145 255  28 145 255  28 145 255
28 145 255  28 145 255  28 145 255  28 145 255  28 145 255  89 175 255
255 255 255  255 255 255  255 255 255  255 255 255
255 255 255  255 255 255  255 255 255  165 211 255  28 145 255  28 145 255
28 145 255  28 145 255  28 145 255  28 145 255  28 145 255  28 145 255
28 145 255  28 145 255  28 145 255  28 145 255  28 145 255  28 145 255
28 145 255  28 145 255  28 145 255  28 145 255  28 145 255  28 145 255
210 233 255  255 255 255  255 255 255  255 255 255  255 255 255  255 255 255
255 255 255  255 255 255  255 255 255  255 255 255  255 255 255  255 255 255
255 255 255  255 255 255  255 255 255  255 255 255  255 255 255  255 255 255
255 255 255  255 255 255  255 255 255  255 255 255  255 255 255  255 255 255
255 255 255  255 255 255  255 255 255  255 255 255  255 255 255  255 255 255
255 255 255  255 255 255  255 255 255  255 255 255  255 255 255  255 255 255
255 255 255  255 255 255  255 255 255  255 255 255  255 255 255  255 255 255
255 255 255  255 255 255  255 255 255  255 255 255  255 255 255  255 255 255
255 255 255  255 255 255  255 255 255  255 255 255  255 255 255  255 255 255
255 255 255  255 255 255  255 255 255  255 255 255  89 175 255  28 145 255
28 145 255  28 145 255  28 145 255  28 145 255  28 145 255  28 145 255
28 145 255  28 145 255  28 145 255  28 145 255  28 145 255  28 145 255
28 145 255  28 145 255  28 145 255  28 145 255  28 145 255  180 219 255
255 255 255  255 255 255  255 255 255  255 255 255  255 255 255  255 255 255
255 255 255  255 255 255  255 255 255  255 255 255  255 255 255  255 255 255
255 255 255  255 255 255  255 255 255  255 255 255  255 255 255  255 255 255
255 255 255  255 255 255  255 255 255  255 255 255  255 255 255  255 255 255
255 255 255  255 255 255  255 255 255  255 255 255  255 255 255  255 255 255
255 255 255  255 255 255  255 255 255  255 255 255  255 255 255  255 255 255
255 255 255  255 255 255  255 255 255  255 255 255  255 255 255  255 255 255
255 255 255  255 255 255  255 255 255  255 255 255  255 255 255  255 255 255
255 255 255  255 255 255  255 255 255  255 255 255  255 255 255  255 255 255
255 255 255  255 255 255  255 255 255  255 255 255  255 255 255  255 255 255
255 255 255  255 255 255  255 255 255  255 255 255  255 255 255  255 255 255
255 255 255  255 255 255  255 255 255  255 255 255  255 255 255  255 255 255
255 255 255  255 255 255  195 226 255  28 145 255  28 145 255  28 145 255
28 145 255  28 145 255  28 145 255  28 145 255  28 145 255  28 145 255
28 145 255  28 145 255  28 145 255  28 145 255  28 145 255  28 145 255
28 145 255  28 145 255  28 145 255  255 255 255  255 255 255  255 255 255
255 255 255  255 255 255  255 255 255  255 255 255  255 255 255  255 255 255
255 255 255  255 255 255  255 255 255  255 255 255  255 255 255  255 255 255
255 255 255  255 255 255  255 255 255  255 255 255  255 255 255  255 255 255
255 255 255  255 255 255  255 255 255  255 255 255  255 255 255  255 255 255
255 255 255  255 255 255  255 255 255  255 255 255  255 255 255  255 255 255
255 255 255  255 255 255  255 255 255  255 255 255  255 255 255  59 160 255
28 145 255  28 145 255  28 145 255  28 145 255  28 145 255  28 145 255
28 145 255  28 145 255  28 145 255  28 145 255  28 145 255  28 145 255
28 145 255  28 145 255  28 145 255  28 145 255  28 145 255  89 175 255
255 255 255  255 255 255  255 255 255  255 255 255
255 255 255  255 255 255  255 255 255  104 182 255  28 145 255  28 145 255
28 145 255  28 145 255  28 145 255  28 145 255  28 145 255  28 145 255
28 145 255  28 145 255  28 145 255  28 145 255  28 145 255  28 145 255
28 145 255  28 145 255  28 145 255  28 145 255  28 145 255  89 175 255
255 255 255  255 255 255  255 255 255  255 255 255  255 255 255  255 255 255
255 255 255  255 255 255  255 255 255  255 255 255  255 255 255  255 255 255
255 255 255  255 255 255  255 255 255  255 255 255  255 255 255  255 255 255
255 255 255  255 255 255  255 255 255  255 255 255  255 255 255  255 255 255
255 255 255  255 255 255  255 255 255  255 255 255  255 255 255  255 255 255
255 255 255  255 255 255  255 255 255  255 255 255  255 255 255  255 255 255
255 255 255  255 255 255  255 255 255  255 255 255  255 255 255  255 255 255
255 255 255  255 255 255  255 255 255  255 255 255  255 255 255  255 255 255
255 255 255  255 255 255  255 255 255  255 255 255  255 255 255  255 255 255
255 255 255  255 255 255  255 255 255  255 255 255  89 175 255  28 145 255
28 145 255  28 145 255  28 145 255  28 145 255  28 145 255  28 145 255
28 145 255  28 145 255  28 145 255  28 145 255  28 145 255  28 145 255
28 145 255  28 145 255  28 145 255  28 145 255  28 145 255  195 226 255
255 255 255  255 255 255  255 255 255  255 255 255  255 255 255  255 255 255
255 255 255  255 255 255  255 255 255  255 255 255  255 255 255  255 255 255
255 255 255  255 255 255  255 255 255  255 255 255  255 255 255  255 255 255
255 255 255  255 255 255  255 255 255  255 255 255  255 255 255  255 255 255
255 255 255  255 255 255  255 255 255  255 255 255  255 255 255  255 255 255
255 255 255  255 255 255  255 255 255  255 255 255  255 255 255  255 255 255
255 255 255  255 255 255  255 255 255  255 255 255  255 255 255  255 255 255
255 255 255  255 255 255  255 255 255  255 255 255  255 255 255  255 255 255
255 255 255  255 255 255  255 255 255  255 255 255  255 255 255  255 255 255
255 255 255  255 255 255  255 255 255  255 255 255  255 255 255  255 255 255
255 255 255  255 255 255  255 255 255  255 255 255  255 255 255  255 255 255
255 255 255  255 255 255  255 255 255  255 255 255  255 255 255  255 255 255
255 255 255  255 255 255  180 219 255  28 145 255  28 145 255  28 145 255
28 145 255  28 145 255  28 145 255  28 145 255  28 145 255  28 145 255
28 145 255  28 145 255  28 145 255  28 145 255  28 145 255  28 145 255
28 145 255  28 145 255  28 145 255  255 255 255  255 255 255  255 255 255
255 255 255  255 255 255  255 255 255  255 255 255  255 255 255  255 255 255
255 255 255  255 255 255  255 255 255  255 255 255  255 255 255  255 255 255
255 255 255  255 255 255  255 255 255  255 255 255  255 255 255  255 255 255
255 255 255  255 255 255  255 255 255  255 255 255  255 255 255  255 255 255
255 255 255  255 255 255  255 255 255  255 255 255  255 255 255  255 255 255
255 255 255  255 255 255  255 255 255  255 255 255  255 255 255  28 145 255
28 145 255  28 145 255  28 145 255  28 145 255  28 145 255  28 145 255
28 145 255  28 145 255  28 145 255  28 145 255  28 145 255  28 145 255
28 145 255  28 145 255  28 145 255  28 145 255  28 145 255  134 197 255
255 255 255  255 255 255  255 255 255  255 255 255
255 255 255  255 255 255  240 248 255  28 145 255  28 145 255  28 145 255
28 145 255  28 145 255  28 145 255  28 145 255  28 145 255  28 145 255
28 145 255  28 145 255  28 145 255  28 145 255  28 145 255  28 145 255
28 145 255  28 145 255  28 145 255  28 145 255  28 145 255  165 211 255
255 255 255  255 255 255  255 255 255  255 255 255  255 255 255  255 255 255
255 255 255  255 255 255  255 255 255  255 255 255  255 255 255  255 255 255
255 255 255  255 255 255  255 255 255  255 255 255  255 255 255  255 255 255
255 255 255  255 255 255  255 255 255  255 255 255  255 255 255  255 255 255
255 255 255  255 255 255  255 255 255  255 255 255  255 255 255  255 255 255
255 255 255  255 255 255  255 255 255  255 255 255  255 255 255  255 255 255
255 255 255  255 255 255  255 255 255  255 255 255  255 255 255  255 255 255
255 255 255  255 255 255  255 255 255  255 255 255  255 255 255  255 255 255
255 255 255  255 255 255  255 255 255  255 255 255  255 255 255  255 255 255
255 255 255  255 255 255  255 255 255  255 255 255  89 175 255  28 145 255
28 145 255  28 145 255  28 145 255  28 145 255  28 145 255  28 145 255
28 145 255  28 145 255  28 145 255  28 145 255  28 145 255  28 145 255
28 145 255  28 145 255  28 145 255  28 145 255  28 145 255  165 211 255
255 255 255  255 255 255  255 255 255  255 255 255  255 255 255  255 255 255
255 255 255  255 255 255  255 255 255  255 255 255  255 255 255  255 255 255
255 255 255  255 255 255  255 255 255  255 255 255  255 255 255  255 255 255
255 255 255  255 255 255  255 255 255  255 255 255  255 255 255  255 255 255
255 255 255  255 255 255  255 255 255  255 255 255  255 255 255  255 255 255
255 255 255  255 255 255  255 255 255  255 255 255  255 255 255  255 255 255
255 255 255  255 255 255  255 255 255  255 255 255  255 255 255  255 255 255
255 255 255  255 255 255  255 255 255  255 255 255  255 255 255  255 255 255
255 255 255  255 255 255  255 255 255  255 255 255  255 255 255  255 255 255
255 255 255  255 255 255  255 255 255  255 255 255  255 255 255  255 255 255
255 255 255  255 255 255  255 255 255  255 255 255  255 255 255  255 255 255
255 255 255  255 255 255  255 255 255  255 255 255  255 255 255  255 255 255
255 255 255  255 255 255  134 197 255  28 145 255  28 145 255  28 145 255
28 145 255  28 145 255  28 145 255  28 145 255  28 145 255  28 145 255
28 145 255  28 145 255  28 145 255  28 145 255  28 145 255  28 145 255
28 145 255  28 145 255  59 160 255  255 255 255  255 255 255  255 255 255
255 255 255  255 255 255  255 255 255  255 255 255  255 255 255  255 255 255
255 255 255  255 255 255  255 255 255  255 255 255  255 255 255  255 255 255
255 255 255  255 255 255  255 255 255  255 255 255  255 255 255  255 255 255
255 255 255  255 255 255  255 255 255  255 255 255  255 255 255  255 255 255
255 255 255  255 255 255  255 255 255  255 255 255  255 255 255  255 255 255
255 255 255  255 255 255  255 255 255  255 255 255  195 226 255  28 145 255
28 145 255  28 145 255  28 145 255  28 145 255  28 145 255  28 145 255
28 145 255  28 145 255  28 145 255  28 145 255  28 145 255  28 145 255
28 145 255  28 145 255  28 145 255  28 145 255  28 145 255  150 204 255
255 255 255  255 255 255  255 255 255  255 255 255
255 255 255  255 255 255  180 219 255  28 145 255  28 145 255  28 145 255
28 145 255  28 145 255  28 145 255  28 145 255  28 145 255  28 145 255
28 145 255  28 145 255  28 145 255  28 145 255  28 145 255  28 145 255
28 145 255  28 145 255  28 145 255  28 145 255  28 145 255  240 248 255
255 255 255  255 255 255  255 255 255  255 255 255  255 255 255  255 255 255
255 255 255  255 255 255  255 255 255  255 255 255  255 255 255  255 255 255
255 255 255  255 255 255  255 255 255  255 255 255  255 255 255  255 255 255
255 255 255  255 255 255  255 255 255  255 255 255  255 255 255  255 255 255
255 255 255  255 255 255  255 255 255  255 255 255  255 255 255  255 255 255
255 255 255  255 255 255  255 255 255  255 255 255  255 255 255  255 255 255
255 255 255  255 255 255  255 255 255  255 255 255  255 255 255  255 255 255
255 255 255  255 255 255  255 255 255  255 255 255  255 255 255  255 255 255
255 255 255  255 255 255  255 255 255  255 255 255  255 255 255  255 255 255
255 255 255  255 255 255  255 255 255  255 255 255  89 175 255  28 145 255
28 145 255  28 145 255  28 145 255  28 145 255  28 145 255  28 145 255
28 145 255  28 145 255  28 145 255  28 145 255  28 145 255  28 145 255
28 145 255  28 145 255  28 145 255  28 145 255  28 145 255  134 197 255
255 255 255  255 255 255  255 255 255  255 255 255  255 255 255  255 255 255
255 255 255  255 255 255  255 255 255  255 255 255  255 255 255  255 255 255
255 255 255  255 255 255  255 255 255  255 255 255  255 255 255  255 255 255
255 255 255  255 255 255  255 255 255  255 255 255  255 255 255  255 255 255
255 255 255  255 255 255  255 255 255  255 255 255  255 255 255  255 255 255
255 255 255  255 255 255  255 255 255  255 255 255  255 255 255  255 255 255
255 255 255  255 255 255  255 255 255  255 255 255  255 255 255  255 255 255
255 255 255  255 255 255  255 255 255  255 255 255  255 255 255  255 255 255
255 255 255  255 255 255  255 255 255  255 255 255  255 255 255  255 255 255
255 255 255  255 255 255  255 255 255  255 255 255  255 255 255  255 255 255
255 255 255  255 255 255  255 255 255  255 255 255  255 255 255  255 255 255
255 255 255  255 255 255  255 255 255  255 255 255  255 255 255  255 255 255
255 255 255  255 255 255  134 197 255  28 145 255  28 145 255  28 145 255
28 145 255  28 145 255  28 145 255  28 145 255  28 145 255  28 145 255
28 145 255  28 145 255  28 145 255  28 145 255  28 145 255  28 145 255
28 145 255  28 145 255  89 175 255  255 255 255  255 255 255  255 255 255
255 255 255  255 255 255  255 255 255  255 255 255  255 255 255  255 255 255
255 255 255  255 255 255  255 255 255  255 255 255  255 255 255  255 255 255
255 255 255  255 255 255  255 255 255  255 255 255  255 255 255  255 255 255
255 255 255  255 255 255  255 255 255  255 255 255  255 255 255  255 255 255
255 255 255  255 255 255  255 255 255  255 255 255  255 255 255  255 255 255
255 255 255  255 255 255  255 255 255  255 255 255  134 197 255  28 145 255
28 145 255  28 145 255  28 145 255  28 145 255  28 145 255  28 145 255
28 145 255  28 145 255  28 145 255  28 145 255  28 145 255  28 145 255
28 145 255  28 145 255  28 145 255  28 145 255  28 145 255  195 226 255
255 255 255  255 255 255  255 255 255  255 255 255
255 255 255  255 255 255  134 197 255  28 145 255  28 145 255  28 145 255
28 145 255  28 145 255  28 145 255  28 145 255  28 145 255  28 145 255
28 145 255  28 145 255  28 145 255  28 145 255  28 145 255  28 145 255
28 145 255  28 145 255  28 145 255  28 145 255  104 182 255  255 255 255
255 255 255  255 255 255  255 255 255  255 255 255  255 255 255  255 255 255
255 255 255  255 255 255  255 255 255  255 255 255  255 255 255  255 255 255
255 255 255  255 255 255  255 255 255  255 255 255  255 255 255  255 255 255
255 255 255  255 255 255  255 255 255  255 255 255  255 255 255  255 255 255
255 255 255  255 255 255  255 255 255  255 255 255  255 255 255  255 255 255
255 255 255  255 255 255  255 255 255  255 255 255  255 255 255  255 255 255
255 255 255  255 255 255  255 255 255  255 255 255  255 255 255  255 255 255
255 255 255  255 255 255  255 255 255  255 255 255  255 255 255  255 255 255
255 255 255  255 255 255  255 255 255  255 255 255  255 255 255  255 255 255
255 255 255  255 255 255  255 255 255  255 255 255  89 175 255  28 145 255
28 145 255  28 145 255  28 145 255  28 145 255  28 145 255  28 145 255
28 145 255  28 145 255  28 145 255  28 145 255  28 145 255  28 145 255
28 145 255  28 145 255  28 145 255  28 145 255  28 145 255  59 160 255
255 255 255  255 255 255  255 255 255  255 255 255  255 255 255  255 255 255
255 255 255  255 255 255  255 255 255  255 255 255  255 255 255  255 255 255
255 255 255  255 255 255  255 255 255  255 255 255  255 255 255  255 255 255
255 255 255  255 255 255  255 255 255  255 255 255  255 255 255  255 255 255
255 255 255  255 255 255  255 255 255  255 255 255  255 255 255  255 255 255
255 255 255  255 255 255  255 255 255  255 255 255  255 255 255  255 255 255
255 255 255  255 255 255  255 255 255  255 255 255  255 255 255  255 255 255
255 255 255  255 255 255  255 255 255  255 255 255  255 255 255  255 255 255
255 255 255  255 255 255  255 255 255  255 255 255  255 255 255  255 255 255
255 255 255  255 255 255  255 255 255  255 255 255  255 255 255  255 255 255
255 255 255  255 255 255  255 255 255  255 255 255  255 255 255  255 255 255
255 255 255  255 255 255  255 255 255  255 255 255  255 255 255  255 255 255
255 255 255  255 255 255  134 197 255  28 145 255  28 145 255  28 145 255
28 145 255  28 145 255  28 145 255  28 145 255  28 145 255  28 145 255
28 145 255  28 145 255  28 145 255  28 145 255  28 145 255  28 145 255
28 145 255  28 145 255  89 175 255  255 255 255  255 255 255  255 255 255
255 255 255  255 255 255  255 255 255  255 255 255  255 255 255  255 255 255
255 255 255  255 255 255  255 255 255  255 255 255  255 255 255  255 255 255
255 255 255  255 255 255  255 255 255  255 255 255  255 255 255  255 255 255
255 255 255  255 255 255  255 255 255  255 255 255  255 255 255  255 255 255
255 255 255  255 255 255  255 255 255  255 255 255  255 255 255  255 255 255
255 255 255  255 255 255  255 255 255  255 255 255  44 153 255  28 145 255
28 145 255  28 145 255  28 145 255  28 145 255  28 145 255  28 145 255
28 145 255  28 145 255  28 145 255  28 145 255  28 145 255  28 145 255
28 145 255  28 145 255  28 145 255  28 145 255  28 145 255  225 241 255
255 255 255  255 255 255  255 255 255  255 255 255
255 255 255  255 255 255  74 167 255  28 145 255  28 145 255  28 145 255
28 145 255  28 145 255  28 145 255  28 145 255  28 145 255  28 145 255
28 145 255  28 145 255  28 145 255  28 145 255  28 145 255  28 145 255
28 145 255  28 145 255  28 145 255  28 145 255  165 211 255  255 255 255
255 255 255  255 255 255  255 255 255  255 255 255  255 255 255  255 255 255
255 255 255  255 255 255  255 255 255  255 255 255  255 255 255  255 255 255
255 255 255  255 255 255  255 255 255  255 255 255  255 255 255  255 255 255
255 255 255  255 255 255  255 255 255  255 255 255  255 255 255  255 255 255
255 255 255  255 255 255  255 255 255  255 255 255  255 255 255  255 255 255
255 255 255  255 255 255  255 255 255  255 255 255  255 255 255  255 255 255
255 255 255  255 255 255  255 255 255  255 255 255  255 255 255  255 255 255
255 255 255  255 255 255  255 255 255  255 255 255  255 255 255  255 255 255
255 255 255  255 255 255  255 255 255  255 255 255  255 255 255  255 255 255
255 255 255  255 255 255  255 255 255  255 255 255  89 175 255  28 145 255
28 145 255  28 145 255  28 145 255  28 145 255  28 145 255  28 145 255
28 145 255  28 145 255  28 145 255  28 145 255  28 145 255  28 145 255
28 145 255  28 145 255  28 145 255  28 145 255  28 145 255  28 145 255
165 211 255  255 255 255  255 255 255  255 255 255  255 255 255  255 255 255
255 255 255  255 255 255  255 255 255  255 255 255  255 255 255  255 255 255
255 255 255  255 255 255  255 255 255  255 255 255  255 255 255  255 255 255
255 255 255  255 255 255  255 255 255  255 255 255  255 255 255  255 255 255
255 255 255  255 255 255  255 255 255  255 255 255  255 255 255  255 255 255
255 255 255  255 255 255  255 255 255  255 255 255  255 255 255  255 255 255
255 255 255  255 255 255  255 255 255  255 255 255  255 255 255  255 255 255
255 255 255  255 255 255  255 255 255  255 255 255  255 255 255  255 255 255
255 255 255  255 255 255  255 255 255  255 255 255  255 255 255  255 255 255
255 255 255  255 255 255  255 255 255  255 255 255  255 255 255  255 255 255
255 255 255  255 255 255  255 255 255  255 255 255  255 255 255  255 255 255
255 255 255  255 255 255  255 255 255  255 255 255  255 255 255  255 255 255
255 255 255  255 255 255  89 175 255  28 145 255  28 145 255  28 145 255
28 145 255  28 145 255  28 145 255  28 145 255  28 145 255  28 145 255
28 145 255  28 145 255  28 145 255  28 145 255  28 145 255  28 145 255
28 145 255  28 145 255  119 189 255  255 255 255  255 255 255  255 255 255
255 255 255  255 255 255  255 255 255  255 255 255  255 255 255  255 255 255
255 255 255  255 255 255  255 255 255  255 255 255  255 255 255  255 255 255
255 255 255  255 255 255  255 255 255  255 255 255  255 255 255  255 255 255
255 255 255  255 255 255  255 255 255  255 255 255  255 255 255  255 255 255
255 255 255  255 255 255  255 255 255  255 255 255  255 255 255  255 255 255
255 255 255  255 255 255  255 255 255  134 197 255  28 145 255  28 145 255
28 145 255  28 145 255  28 145 255  28 145 255  28 145 255  28 145 255
28 145 255  28 145 255  28 145 255  28 145 255  28 145 255  28 145 255
28 145 255  28 145 255  28 145 255  28 145 255  74 167 255  255 255 255
255 255 255  255 255 255  255 255 255  255 255 255
255 255 255  240 248 255  28 145 255  28 145 255  28 145 255  28 145 255
28 145 255  28 145 255  28 145 255  28 145 255  28 145 255  28 145 255
28 145 255  28 145 255  28 145 255  28 145 255  28 145 255  28 145 255
28 145 255  28 145 255  28 145 255  28 145 255  225 241 255  255 255 255
255 255 255  255 255 255  255 255 255  255 255 255  255 255 255  255 255 255
255 255 255  255 255 255  255 255 255  255 255 255  255 255 255  255 255 255
255 255 255  255 255 255  255 255 255  255 255 255  255 255 255  255 255 255
255 255 255  255 255 255  255 255 255  255 255 255  255 255 255  255 255 255
255 255 255  255 255 255  255 255 255  255 255 255  255 255 255  255 255 255
255 255 255  255 255 255  255 255 255  255 255 255  255 255 255  255 255 255
255 255 255  255 255 255  255 255 255  255 255 255  255 255 255  255 255 255
255 255 255  255 255 255  255 255 255  255 255 255  255 255 255  255 255 255
255 255 255  255 255 255  255 255 255  255 255 255  255 255 255  255 255 255
255 255 255  255 255 255  255 255 255  255 255 255  89 175 255  28 145 255
28 145 255  28 145 255  28 145 255  28 145 255  28 145 255  28 145 255
28 145 255  28 145 255  28 145 255  28 145 255  28 145 255  28 145 255
28 145 255  28 145 255  28 145 255  28 145 255  28 145 255  28 145 255
44 153 255  225 241 255  255 255 255  255 255 255  255 255 255  255 255 255
255 255 255  255 255 255  255 255 255  255 255 255  255 255 255  255 255 255
255 255 255  255 255 255  255 255 255  255 255 255  255 255 255  255 255 255
255 255 255  255 255 255  255 255 255  255 255 255  255 255 255  255 255 255
255 255 255  255 255 255  255 255 255  255 255 255  255 255 255  255 255 255
255 255 255  255 255 255  255 255 255  255 255 255  255 255 255  255 255 255
255 255 255  255 255 255  255 255 255  255 255 255  255 255 255  255 255 255
255 255 255  255 255 255  255 255 255  255 255 255  255 255 255  255 255 255
255 255 255  255 255 255  255 255 255  255 255 255  255 255 255  255 255 255
255 255 255  255 255 255  255 255 255  255 255 255  255 255 255  255 255 255
255 255 255  255 255 255  255 255 255  255 255 255  255 255 255  255 255 255
255 255 255  255 255 255  255 255 255  255 255 255  255 255 255  255 255 255
255 255 255  255 255 255  89 175 255  28 145 255  28 145 255  28 145 255
28 145 255  28 145 255  28 145 255  28 145 255  28 145 255  28 145 255
28 145 255  28 145 255  28 145 255  28 145 255  28 145 255  28 145 255
28 145 255  28 145 255  134 197 255  255 255 255  255 255 255  255 255 255
255 255 255  255 255 255  255 255 255  255 255 255  255 255 255  255 255 255
255 255 255  255 255 255  255 255 255  255 255 255  255 255 255  255 255 255
255 255 255  255 255 255  255 255 255  255 255 255  255 255 255  255 255 255
255 255 255  255 255 255  255 255 255  255 255 255  255 255 255  255 255 255
255 255 255  255 255 255  255 255 255  255 255 255  255 255 255  255 255 255
255 255 255  255 255 255  195 226 255  28 145 255  28 145 255  28 145 255
28 145 255  28 145 255  28 145 255  28 145 255  28 145 255  28 145 255
28 145 255  28 145 255  28 145 255  28 145 255  28 145 255  28 145 255
28 145 255  28 145 255  28 145 255  28 145 255  134 197 255  255 255 255
255 255 255  255 255 255  255 255 255  255 255 255
255 255 255  195 226 255  28 145 255  28 145 255  28 145 255  28 145 255
28 145 255  28 145 255  28 145 255  28 145 255  28 145 255  28 145 255
28 145 255  28 145 255  28 145 255  28 145 255  28 145 255  28 145 255
28 145 255  28 145 255  28 145 255  59 160 255  255 255 255  255 255 255
255 255 255  255 255 255  255 255 255  255 255 255  255 255 255  255 255 255
255 255 255  255 255 255  255 255 255  255 255 255  255 255 255  255 255 255
255 255 255  255 255 255  255 255 255  255 255 255  255 255 255  255 255 255
255 255 255  255 255 255  255 255 255  255 255 255  255 255 255  255 255 255
255 255 255  255 255 255  255 255 255  255 255 255  255 255 255  255 255 255
255 255 255  255 255 255  255 255 255  255 255 255  255 255 255  255 255 255
255 255 255  255 255 255  255 255 255  255 255 255  255 255 255  255 255 255
255 255 255  255 255 255  255 255 255  255 255 255  255 255 255  255 255 255
255 255 255  255 255 255  255 255 255  255 255 255  255 255 255  255 255 255
255 255 255  255 255 255  255 255 255  255 255 255  119 189 255  28 145 255
28 145 255  28 145 255  28 145 255  28 145 255  28 145 255  28 145 255
28 145 255  28 145 255  28 145 255  28 145 255  28 145 255  28 145 255
28 145 255  28 145 255  28 145 255  28 145 255  28 145 255  28 145 255
28 145 255  59 160 255  195 226 255  255 255 255  255 255 255  255 255 255
255 255 255  255 255 255  255 255 255  255 255 255  255 255 255  255 255 255
255 255 255  255 255 255  255 255 255  255 255 255  255 255 255  255 255 255
255 255 255  255 255 255  255 255 255  255 255 255  255 255 255  255 255 255
255 255 255  255 255 255  255 255 255  255 255 255  255 255 255  255 255 255
255 255 255  255 255 255  255 255 255  255 255 255  255 255 255  255 255 255
255 255 255  255 255 255  255 255 255  255 255 255  255 255 255  255 255 255
255 255 255  255 255 255  255 255 255  255 255 255  255 255 255  255 255 255
255 255 255  255 255 255  255 255 255  255 255 255  255 255 255  255 255 255
255 255 255  255 255 255  255 255 255  255 255 255  255 255 255  255 255 255
255 255 255  255 255 255  255 255 255  255 255 255  255 255 255  255 255 255
255 255 255  255 255 255  255 255 255  255 255 255  255 255 255  255 255 255
255 255 255  255 255 255  74 167 255  28 145 255  28 145 255  28 145 255
28 145 255  28 145 255  28 145 255  28 145 255  28 145 255  28 145 255
28 145 255  28 145 255  28 145 255  28 145 255  28 145 255  28 145 255
28 145 255  28 145 255  134 197 255  255 255 255  255 255 255  255 255 255
255 255 255  255 255 255  255 255 255  255 255 255  255 255 255  255 255 255
255 255 255  255 255 255  255 255 255  255 255 255  255 255 255  255 255 255
255 255 255  255 255 255  255 255 255  255 255 255  255 255 255  255 255 255
255 255 255  255 255 255  255 255 255  255 255 255  255 255 255  255 255 255
255 255 255  255 255 255  255 255 255  255 255 255  255 255 255  255 255 255
255 255 255  180 219 255  44 153 255  28 145 255  28 145 255  28 145 255
28 145 255  28 145 255  28 145 255  28 145 255  28 145 255  28 145 255
28 145 255  28 145 255  28 145 255  28 145 255  28 145 255  28 145 255
28 145 255  28 145 255  28 145 255  28 145 255  195 226 255  255 255 255
255 255 255  255 255 255  255 255 255  255 255 255
255 255 255  134 197 255  28 145 255  28 145 255  28 145 255  28 145 255
28 145 255  28 145 255  28 145 255  28 145 255  28 145 255  28 145 255
28 145 255  28 145 255  28 145 255  28 145 255  28 145 255  28 145 255
28 145 255  28 145 255  28 145 255  119 189 255  255 255 255  255 255 255
255 255 255  255 255 255  255 255 255  255 255 255  255 255 255  255 255 255
255 255 255  255 255 255  255 255 255  255 255 255  255 255 255  255 255 255
255 255 255  255 255 255  255 255 255  255 255 255  255 255 255  255 255 255
255 255 255  255 255 255  255 255 255  255 255 255  255 255 255  255 255 255
255 255 255  255 255 255  255 255 255  255 255 255  255 255 255  255 255 255
255 255 255  255 255 255  255 255 255  255 255 255  255 255 255  255 255 255
255 255 255  255 255 255  255 255 255  255 255 255  255 255 255  255 255 255
255 255 255  255 255 255  255 255 255  255 255 255  255 255 255  255 255 255
255 255 255  255 255 255  255 255 255  255 255 255  255 255 255  255 255 255
255 255 255  255 255 255  255 255 255  255 255 255  134 197 255  28 145 255
28 145 255  28 145 255  28 145 255  28 145 255  28 145 255  28 145 255
28 145 255  28 145 255  28 145 255  28 145 255  28 145 255  28 145 255
28 145 255  28 145 255  28 145 255  28 145 255  28 145 255  28 145 255
28 145 255  28 145 255  28 145 255  119 189 255  195 226 255  255 255 255
255 255 255  255 255 255  255 255 255  255 255 255  255 255 255  255 255 255
255 255 255  255 255 255  255 255 255  255 255 255  255 255 255  255 255 255
255 255 255  255 255 255  255 255 255  255 255 255  255 255 255  255 255 255
255 255 255  255 255 255  255 255 255  255 255 255  255 255 255  255 255 255
255 255 255  255 255 255  255 255 255  255 255 255  255 255 255  255 255 255
255 255 255  255 255 255  255 255 255  255 255 255  255 255 255  255 255 255
255 255 255  255 255 255  255 255 255  255 255 255  255 255 255  255 255 255
255 255 255  255 255 255  255 255 255  255 255 255  255 255 255  255 255 255
255 255 255  255 255 255  255 255 255  255 255 255  255 255 255  255 255 255
255 255 255  255 255 255  255 255 255  255 255 255  255 255 255  255 255 255
255 255 255  255 255 255  255 255 255  255 255 255  255 255 255  255 255 255
255 255 255  255 255 255  28 145 255  28 145 255  28 145 255  28 145 255
28 145 255  28 145 255  28 145 255  28 145 255  28 145 255  28 145 255
28 145 255  28 145 255  28 145 255  28 145 255  28 145 255  28 145 255
28 145 255  28 145 255  165 211 255  255 255 255  255 255 255  255 255 255
255 255 255  255 255 255  255 255 255  255 255 255  255 255 255  255 255 255
255 255 255  255 255 255  255 255 255  255 255 255  255 255 255  255 255 255
255 255 255  255 255 255  255 255 255  255 255 255  255 255 255  255 255 255
255 255 255  255 255 255  255 255 255  255 255 255  255 255 255  255 255 255
255 255 255  255 255 255  255 255 255  255 255 255  255 255 255  225 241 255
119 189 255  28 145 255  28 145 255  28 145 255  28 145 255  28 145 255
28 145 255  28 145 255  28 145 255  28 145 255  28 145 255  28 145 255
28 145 255  28 145 255  28 145 255  28 145 255  28 145 255  28 145 255
28 145 255  28 145 255  28 145 255  44 153 255  255 255 255  255 255 255
255 255 255  255 255 255  255 255 255  255 255 255
255 255 255  104 182 255  28 145 255  28 145 255  28 145 255  28 145 255
28 145 255  28 145 255  28 145 255  28 145 255  28 145 255  28 145 255
28 145 255  28 145 255  28 145 255  28 145 255  28 145 255  28 145 255
28 145 255  28 145 255  28 145 255  150 204 255  255 255 255  255 255 255
255 255 255  255 255 255  255 255 255  255 255 255  255 255 255  255 255 255
255 255 255  255 255 255  255 255 255  255 255 255  255 255 255  255 255 255
255 255 255  255 255 255  255 255 255  255 255 255  255 255 255  255 255 255
255 255 255  255 255 255  255 255 255  255 255 255  255 255 255  255 255 255
255 255 255  255 255 255  255 255 255  255 255 255  255 255 255  255 255 255
255 255 255  255 255 255  255 255 255  255 255 255  255 255 255  255 255 255
255 255 255  255 255 255  255 255 255  255 255 255  255 255 255  255 255 255
255 255 255  255 255 255  255 255 255  255 255 255  255 255 255  255 255 255
255 255 255  255 255 255  255 255 255  255 255 255  255 255 255  255 255 255
255 255 255  255 255 255  255 255 255  255 255 255  195 226 255  28 145 255
28 145 255  28 145 255  28 145 255  28 145 255  28 145 255  28 145 255
28 145 255  28 145 255  28 145 255  28 145 255  28 145 255  28 145 255
28 145 255  28 145 255  28 145 255  28 145 255  28 145 255  28 145 255
28 145 255  28 145 255  28 145 255  28 145 255  28 145 255  28 145 255
89 175 255  134 197 255  134 197 255  134 197 255  134 197 255  134 197 255
134 197 255  134 197 255  134 197 255  134 197 255  134 197 255  134 197 255
134 197 255  134 197 255  134 197 255  134 197 255  134 197 255  134 197 255
134 197 255  134 197 255  134 197 255  134 197 255  134 197 255  134 197 255
134 197 255  134 197 255  134 197 255  134 197 255  134 197 255  134 197 255
134 197 255  150 204 255  195 226 255  195 226 255  195 226 255  255 255 255
255 255 255  255 255 255  255 255 255  255 255 255  255 255 255  255 255 255
255 255 255  255 255 255  255 255 255  255 255 255  255 255 255  255 255 255
255 255 255  255 255 255  255 255 255  255 255 255  255 255 255  255 255 255
255 255 255  255 255 255  255 255 255  255 255 255  255 255 255  255 255 255
255 255 255  255 255 255  255 255 255  255 255 255  255 255 255  255 255 255
255 255 255  255 255 255  28 145 255  28 145 255  28 145 255  28 145 255
28 145 255  28 145 255  28 145 255  28 145 255  28 145 255  28 145 255
28 145 255  28 145 255  28 145 255  28 145 255  28 145 255  28 145 255
28 145 255  28 145 255  195 226 255  255 255 255  255 255 255  255 255 255
255 255 255  255 255 255  255 255 255  255 255 255  255 255 255  255 255 255
255 255 255  255 255 255  255 255 255  255 255 255  255 255 255  255 255 255
255 255 255  255 255 255  255 255 255  255 255 255  255 255 255  255 255 255
255 255 255  255 255 255  255 255 255  255 255 255  255 255 255  255 255 255
255 255 255  255 255 255  225 241 255  165 211 255  119 189 255  28 145 255
28 145 255  28 145 255  28 145 255  28 145 255  28 145 255  28 145 255
28 145 255  28 145 255  28 145 255  28 145 255  28 145 255  28 145 255
28 145 255  28 145 255  28 145 255  28 145 255  28 145 255  28 145 255
28 145 255  28 145 255  28 145 255  134 197 255  255 255 255  255 255 255
255 255 255  255 255 255  255 255 255  255 255 255
255 255 255  74 167 255  28 145 255  28 145 255  28 145 255  28 145 255
28 145 255  28 145 255  28 145 255  28 145 255  28 145 255  28 145 255
28 145 255  28 145 255  28 145 255  28 145 255  28 145 255  28 145 255
28 145 255  28 145 255  28 145 255  195 226 255  255 255 255  255 255 255
255 255 255  255 255 255  255 255 255  255 255 255  255 255 255  255 255 255
255 255 255  255 255 255  255 255 255  255 255 255  255 255 255  255 255 255
255 255 255  255 255 255  255 255 255  255 255 255  255 255 255  255 255 255
255 255 255  255 255 255  255 255 255  255 255 255  255 255 255  255 255 255
255 255 255  255 255 255  255 255 255  255 255 255  255 255 255  255 255 255
255 255 255  255 255 255  255 255 255  255 255 255  255 255 255  255 255 255
255 255 255  255 255 255  255 255 255  255 255 255  255 255 255  255 255 255
255 255 255  255 255 255  255 255 255  255 255 255  255 255 255  255 255 255
255 255 255  255 255 255  255 255 255  255 255 255  255 255 255  255 255 255
255 255 255  255 255 255  255 255 255  255 255 255  225 241 255  28 145 255
28 145 255  28 145 255  28 145 255  28 145 255  28 145 255  28 145 255
28 145 255  28 145 255  28 145 255  28 145 255  28 145 255  28 145 255
28 145 255  28 145 255  28 145 255  28 145 255  28 145 255  28 145 255
28 145 255  28 145 255  28 145 255  28 145 255  28 145 255  28 145 255
28 145 255  28 145 255  28 145 255  28 145 255  28 145 255  28 145 255
28 145 255  28 145 255  28 145 255  28 145 255  28 145 255  28 145 255
28 145 255  28 145 255  28 145 255  28 145 255  28 145 255  28 145 255
28 145 255  28 145 255  28 145 255  28 145 255  28 145 255  28 145 255
28 145 255  28 145 255  28 145 255  28 145 255  28 145 255  28 145 255
28 145 255  28 145 255  28 145 255  28 145 255  28 145 255  28 145 255
44 153 255  89 175 255  134 197 255  165 211 255  225 241 255  255 255 255
255 255 255  255 255 255  255 255 255  255 255 255  255 255 255  255 255 255
255 255 255  255 255 255  255 255 255  255 255 255  255 255 255  255 255 255
255 255 255  255 255 255  255 255 255  255 255 255  255 255 255  255 255 255
255 255 255  255 255 255  255 255 255  255 255 255  255 255 255  255 255 255
255 255 255  240 248 255  28 145 255  28 145 255  28 145 255  28 145 255
28 145 255  28 145 255  28 145 255  28 145 255  28 145 255  28 145 255
28 145 255  28 145 255  28 145 255  28 145 255  28 145 255  28 145 255
28 145 255  28 145 255  119 189 255  134 197 255  134 197 255  134 197 255
134 197 255  134 197 255  134 197 255  134 197 255  134 197 255  134 197 255
134 197 255  134 197 255  134 197 255  134 197 255  134 197 255  134 197 255
134 197 255  134 197 255  134 197 255  134 197 255  134 197 255  134 197 255
134 197 255  134 197 255  134 197 255  134 197 255  134 197 255  104 182 255
89 175 255  59 160 255  28 145 255  28 145 255  28 145 255  28 145 255
28 145 255  28 145 255  28 145 255  28 145 255  28 145 255  28 145 255
28 145 255  28 145 255  28 145 255  28 145 255  28 145 255  28 145 255
28 145 255  28 145 255  28 145 255  28 145 255  28 145 255  28 145 255
28 145 255  28 145 255  28 145 255  225 241 255  255 255 255  255 255 255
255 255 255  255 255 255  255 255 255  255 255 255
255 255 255  28 145 255  28 145 255  28 145 255  28 145 255  28 145 255
28 145 255  28 145 255  28 145 255  28 145 255  28 145 255  28 145 255
28 145 255  28 145 255  28 145 255  28 145 255  28 145 255  28 145 255
28 145 255  28 145 255  28 145 255  255 255 255  255 255 255  255 255 255
255 255 255  255 255 255  255 255 255  255 255 255  255 255 255  255 255 255
255 255 255  255 255 255  255 255 255  255 255 255  255 255 255  255 255 255
255 255 255  255 255 255  255 255 255  255 255 255  255 255 255  255 255 255
255 255 255  255 255 255  255 255 255  255 255 255  255 255 255  255 255 255
255 255 255  255 255 255  255 255 255  255 255 255  255 255 255  255 255 255
255 255 255  255 255 255  255 255 255  255 255 255  255 255 255  255 255 255
255 255 255  255 255 255  255 255 255  255 255 255  255 255 255  255 255 255
255 255 255  255 255 255  255 255 255  255 255 255  255 255 255  255 255 255
255 255 255  255 255 255  255 255 255  255 255 255  255 255 255  255 255 255
255 255 255  255 255 255  255 255 255  255 255 255  255 255 255  59 160 255
28 145 255  28 145 255  28 145 255  28 145 255  28 145 255  28 145 255
28 145 255  28 145 255  28 145 255  28 145 255  28 145 255  28 145 255
28 145 255  28 145 255  28 145 255  28 145 255  28 145 255  28 145 255
28 145 255  28 145 255  28 145 255  28 145 255  28 145 255  28 145 255
28 145 255  28 145 255  28 145 255  28 145 255  28 145 255  28 145 255
28 145 255  28 145 255  28 145 255  28 145 255  28 145 255  28 145 255
28 145 255  28 145 255  28 145 255  28 145 255  28 145 255  28 145 255
28 145 255  28 145 255  28 145 255  28 145 255  28 145 255  28 145 255
28 145 255  28 145 255  28 145 255  28 145 255  28 145 255  28 145 255
28 145 255  28 145 255  28 145 255  28 145 255  28 145 255  28 145 255
28 145 255  28 145 255  28 145 255  28 145 255  28 145 255  74 167 255
134 197 255  225 241 255  255 255 255  255 255 255  255 255 255  255 255 255
255 255 255  255 255 255  255 255 255  255 255 255  255 255 255  255 255 255
255 255 255  255 255 255  255 255 255  255 255 255  255 255 255  255 255 255
255 255 255  255 255 255  255 255 255  255 255 255  255 255 255  255 255 255
255 255 255  195 226 255  28 145 255  28 145 255  28 145 255  28 145 255
28 145 255  28 145 255  28 145 255  28 145 255  28 145 255  28 145 255
28 145 255  28 145 255  28 145 255  28 145 255  28 145 255  28 145 255
28 145 255  28 145 255  28 145 255  28 145 255  28 145 255  28 145 255
28 145 255  28 145 255  28 145 255  28 145 255  28 145 255  28 145 255
28 145 255  28 145 255  28 145 255  28 145 255  28 145 255  28 145 255
28 145 255  28 145 255  28 145 255  28 145 255  28 145 255  28 145 255
28 145 255  28 145 255  28 145 255  28 145 255  28 145 255  28 145 255
28 145 255  28 145 255  28 145 255  28 145 255  28 145 255  28 145 255
28 145 255  28 145 255  28 145 255  28 145 255  28 145 255  28 145 255
28 145 255  28 145 255  28 145 255  28 145 255  28 145 255  28 145 255
28 145 255  28 145 255  28 145 255  28 145 255  28 145 255  28 145 255
28 145 255  28 145 255  119 189 255  255 255 255  255 255 255  255 255 255
255 255 255  255 255 255  255 255 255  255 255 255
210 233 255  28 145 255  28 145 255  28 145 255  28 145 255  28 145 255
28 145 255  28 145 255  28 145 255  28 145 255  28 145 255  28 145 255
28 145 255  28 145 255  28 145 255  28 145 255  28 145 255  28 145 255
28 145 255  28 145 255  59 160 255  255 255 255  255 255 255  255 255 255
255 255 255  255 255 255  255 255 255  255 255 255  255 255 255  255 255 255
255 255 255  255 255 255  255 255 255  255 255 255  255 255 255  255 255 255
255 255 255  255 255 255  255 255 255  255 255 255  255 255 255  255 255 255
255 255 255  255 255 255  255 255 255  255 255 255  255 255 255  255 255 255
255 255 255  255 255 255  255 255 255  255 255 255  255 255 255  255 255 255
255 255 255  255 255 255  255 255 255  255 255 255  255 255 255  255 255 255
255 255 255  255 255 255  255 255 255  255 255 255  255 255 255  255 255 255
255 255 255  255 255 255  255 255 255  255 255 255  255 255 255  255 255 255
255 255 255  255 255 255  255 255 255  255 255 255  255 255 255  255 255 255
255 255 255  255 255 255  255 255 255  255 255 255  255 255 255  134 197 255
28 145 255  28 145 255  28 145 255  28 145 255  28 145 255  28 145 255
28 145 255  28 145 255  28 145 255  28 145 255  28 145 255  28 145 255
28 145 255  28 145 255  28 145 255  28 145 255  28 145 255  28 145 255
28 145 255  28 145 255  28 145 255  28 145 255  28 145 255  28 145 255
28 145 255  28 145 255  28 145 255  28 145 255  28 145 255  28 145 255
28 145 255  28 145 255  28 145 255  28 145 255  28 145 255  28 145 255
28 145 255  28 145 255  28 145 255  28 145 255  28 145 255  28 145 255
28 145 255  28 145 255  28 145 255  28 145 255  28 145 255  28 145 255
28 145 255  28 145 255  28 145 255  28 145 255  28 145 255  28 145 255
28 145 255  28 145 255  28 145 255  28 145 255  28 145 255  28 145 255
28 145 255  28 145 255  28 145 255  28 145 255  28 145 255  28 145 255
28 145 255  28 145 255  119 189 255  225 241 255  255 255 255  255 255 255
255 255 255  255 255 255  255 255 255  255 255 255  255 255 255  255 255 255
255 255 255  255 255 255  255 255 255  255 255 255  255 255 255  255 255 255
255 255 255  255 255 255  255 255 255  255 255 255  255 255 255  255 255 255
255 255 255  195 226 255  28 145 255  28 145 255  28 145 255  28 145 255
28 145 255  28 145 255  28 145 255  28 145 255  28 145 255  28 145 255
28 145 255  28 145 255  28 145 255  28 145 255  28 145 255  28 145 255
28 145 255  28 145 255  28 145 255  28 145 255  28 145 255  28 145 255
28 145 255  28 145 255  28 145 255  28 145 255  28 145 255  28 145 255
28 145 255  28 145 255  28 145 255  28 145 255  28 145 255  28 145 255
28 145 255  28 145 255  28 145 255  28 145 255  28 145 255  28 145 255
28 145 255  28 145 255  28 145 255  28 145 255  28 145 255  28 145 255
28 145 255  28 145 255  28 145 255  28 145 255  28 145 255  28 145 255
28 145 255  28 145 255  28 145 255  28 145 255  28 145 255  28 145 255
28 145 255  28 145 255  28 145 255  28 145 255  28 145 255  28 145 255
28 145 255  28 145 255  28 145 255  28 145 255  28 145 255  28 145 255
28 145 255  28 145 255  225 241 255  255 255 255  255 255 255  255 255 255
255 255 255  255 255 255  255 255 255  255 255 255
195 226 255  28 145 255  28 145 255  28 145 255  28 145 255  28 145 255
28 145 255  28 145 255  28 145 255  28 145 255  28 145 255  28 145 255
28 145 255  28 145 255  28 145 255  28 145 255  28 145 255  28 145 255
28 145 255  28 145 255  89 175 255  255 255 255  255 255 255  255 255 255
255 255 255  255 255 255  255 255 255  255 255 255  255 255 255  255 255 255
255 255 255  255 255 255  255 255 255  255 255 255  255 255 255  255 255 255
255 255 255  255 255 255  255 255 255  255 255 255  255 255 255  255 255 255
255 255 255  255 255 255  255 255 255  255 255 255  255 255 255  255 255 255
255 255 255  255 255 255  255 255 255  255 255 255  255 255 255  255 255 255
255 255 255  255 255 255  255 255 255  255 255 255  255 255 255  255 255 255
255 255 255  255 255 255  255 255 255  255 255 255  255 255 255  255 255 255
255 255 255  255 255 255  255 255 255  255 255 255  255 255 255  255 255 255
255 255 255  255 255 255  255 255 255  255 255 255  255 255 255  255 255 255
255 255 255  255 255 255  255 255 255  255 255 255  255 255 255  225 241 255
28 145 255  28 145 255  28 145 255  28 145 255  28 145 255  28 145 255
28 145 255  28 145 255  28 145 255  28 145 255  28 145 255  28 145 255
28 145 255  28 145 255  28 145 255  28 145 255  28 145 255  28 145 255
28 145 255  28 145 255  28 145 255  28 145 255  28 145 255  28 145 255
28 145 255  28 145 255  28 145 255  28 145 255  28 145 255  28 145 255
28 145 255  28 145 255  28 145 255  28 145 255  28 145 255  28 145 255
28 145 255  28 145 255  28 145 255  28 145 255  28 145 255  28 145 255
28 145 255  28 145 255  28 145 255  28 145 255  28 145 255  28 145 255
28 145 255  28 145 255  28 145 255  28 145 255  28 145 255  28 145 255
28 145 255  28 145 255  28 145 255  28 145 255  28 145 255  28 145 255
28 145 255  28 145 255  28 145 255  28 145 255  28 145 255  28 145 255
28 145 255  28 145 255  28 145 255  28 145 255  134 197 255  240 248 255
255 255 255  255 255 255  255 255 255  255 255 255  255 255 255  255 255 255
255 255 255  255 255 255  255 255 255  255 255 255  255 255 255  255 255 255
255 255 255  255 255 255  255 255 255  255 255 255  255 255 255  255 255 255
255 255 255  180 219 255  28 145 255  28 145 255  28 145 255  28 145 255
28 145 255  28 145 255  28 145 255  28 145 255  28 145 255  28 145 255
28 145 255  28 145 255  28 145 255  28 145 255  28 145 255  28 145 255
28 145 255  28 145 255  28 145 255  28 145 255  28 145 255  28 145 255
28 145 255  28 145 255  28 145 255  28 145 255  28 145 255  28 145 255
28 145 255  28 145 255  28 145 255  28 145 255  28 145 255  28 145 255
28 145 255  28 145 255  28 145 255  28 145 255  28 145 255  28 145 255
28 145 255  28 145 255  28 145 255  28 145 255  28 145 255  28 145 255
28 145 255  28 145 255  28 145 255  28 145 255  28 145 255  28 145 255
28 145 255  28 145 255  28 145 255  28 145 255  28 145 255  28 145 255
28 145 255  28 145 255  28 145 255  28 145 255  28 145 255  28 145 255
28 145 255  28 145 255  28 145 255  28 145 255  28 145 255  28 145 255
28 145 255  134 197 255  255 255 255  255 255 255  255 255 255  255 255 255
255 255 255  255 255 255  255 255 255  255 255 255
150 204 255  28 145 255  28 145 255  28 145 255  28 145 255  28 145 255
28 145 255  28 145 255  28 145 255  28 145 255  28 145 255  28 145 255
28 145 255  28 145 255  28 145 255  28 145 255  28 145 255  28 145 255
28 145 255  28 145 255  134 197 255  255 255 255  255 255 255  255 255 255
255 255 255  255 255 255  255 255 255  255 255 255  255 255 255  255 255 255
255 255 255  255 255 255  255 255 255  255 255 255  255 255 255  255 255 255
255 255 255  255 255 255  255 255 255  255 255 255  255 255 255  255 255 255
255 255 255  255 255 255  255 255 255  255 255 255  255 255 255  255 255 255
255 255 255  255 255 255  255 255 255  255 255 255  255 255 255  255 255 255
255 255 255  255 255 255  255 255 255  255 255 255  255 255 255  255 255 255
255 255 255  255 255 255  255 255 255  255 255 255  255 255 255  255 255 255
255 255 255  255 255 255  255 255 255  255 255 255  255 255 255  255 255 255
255 255 255  255 255 255  255 255 255  255 255 255  255 255 255  255 255 255
255 255 255  255 255 255  255 255 255  255 255 255  255 255 255  255 255 255
104 182 255  28 145 255  28 145 255  28 145 255  28 145 255  28 145 255
28 145 255  28 145 255  28 145 255  28 145 255  28 145 255  28 145 255
28 145 255  28 145 255  28 145 255  28 145 255  28 145 255  28 145 255
28 145 255  28 145 255  28 145 255  28 145 255  28 145 255  28 145 255
28 145 255  28 145 255  28 145 255  28 145 255  28 145 255  28 145 255
28 145 255  28 145 255  28 145 255  28 145 255  28 145 255  28 145 255
28 145 255  28 145 255  28 145 255  28 145 255  28 145 255  28 145 255
28 145 255  28 145 255  28 145 255  28 145 255  28 145 255  28 145 255
28 145 255  28 145 255  28 145 255  28 145 255  28 145 255  28 145 255
28 145 255  28 145 255  28 145 255  28 145 255  28 145 255  28 145 255
28 145 255  28 145 255  28 145 255  28 145 255  28 145 255  28 145 255
28 145 255  28 145 255  28 145 255  28 145 255  28 145 255  74 167 255
225 241 255  255 255 255  255 255 255  255 255 255  255 255 255  255 255 255
255 255 255  255 255 255  255 255 255  255 255 255  255 255 255  255 255 255
255 255 255  255 255 255  255 255 255  255 255 255  255 255 255  255 255 255
255 255 255  134 197 255  28 145 255  28 145 255  28 145 255  28 145 255
28 145 255  28 145 255  28 145 255  28 145 255  28 145 255  28 145 255
28 145 255  28 145 255  28 145 255  28 145 255  28 145 255  28 145 255
28 145 255  28 145 255  28 145 255  28 145 255  28 145 255  28 145 255
28 145 255  28 145 255  28 145 255  28 145 255  28 145 255  28 145 255
28 145 255  28 145 255  28 145 255  28 145 255  28 145 255  28 145 255
28 145 255  28 145 255  28 145 255  28 145 255  28 145 255  28 145 255
28 145 255  28 145 255  28 145 255  28 145 255  28 145 255  28 145 255
28 145 255  28 145 255  28 145 255  28 145 255  28 145 255  28 145 255
28 145 255  28 145 255  28 145 255  28 145 255  28 145 255  28 145 255
28 145 255  28 145 255  28 145 255  28 145 255  28 145 255  28 145 255
28 145 255  28 145 255  28 145 255  28 145 255  28 145 255  28 145 255
74 167 255  255 255 255  255 255 255  255 255 255  255 255 255  255 255 255
255 255 255  255 255 255  255 255 255  255 255 255
134 197 255  28 145 255  28 145 255  28 145 255  28 145 255  28 145 255
28 145 255  28 145 255  28 145 255  28 145 255  28 145 255  28 145 255
28 145 255  28 145 255  28 145 255  28 145 255  28 145 255  28 145 255
28 145 255  28 145 255  134 197 255  255 255 255  255 255 255  255 255 255
255 255 255  255 255 255  255 255 255  255 255 255  255 255 255  255 255 255
255 255 255  255 255 255  255 255 255  255 255 255  255 255 255  255 255 255
255 255 255  255 255 255  255 255 255  255 255 255  255 255 255  255 255 255
255 255 255  255 255 255  255 255 255  255 255 255  255 255 255  255 255 255
255 255 255  255 255 255  255 255 255  255 255 255  255 255 255  255 255 255
255 255 255  255 255 255  255 255 255  255 255 255  255 255 255  255 255 255
255 255 255  255 255 255  255 255 255  255 255 255  255 255 255  255 255 255
255 255 255  255 255 255  255 255 255  255 255 255  255 255 255  255 255 255
255 255 255  255 255 255  255 255 255  255 255 255  255 255 255  255 255 255
255 255 255  255 255 255  255 255 255  255 255 255  255 255 255  255 255 255
195 226 255  28 145 255  28 145 255  28 145 255  28 145 255  28 145 255
28 145 255  28 145 255  28 145 255  28 145 255  28 145 255  28 145 255
28 145 255  28 145 255  28 145 255  28 145 255  28 145 255  28 145 255
28 145 255  28 145 255  28 145 255  28 145 255  28 145 255  28 145 255
28 145 255  28 145 255  28 145 255  28 145 255  28 145 255  28 145 255
28 145 255  28 145 255  28 145 255  28 145 255  28 145 255  28 145 255
28 145 255  28 145 255  28 145 255  28 145 255  28 145 255  28 145 255
28 145 255  28 145 255  28 145 255  28 145 255  28 145 255  28 145 255
28 145 255  28 145 255  28 145 255  28 145 255  28 145 255  28 145 255
28 145 255  28 145 255  28 145 255  28 145 255  28 145 255  28 145 255
28 145 255  28 145 255  28 145 255  28 145 255  28 145 255  28 145 255
28 145 255  28 145 255  28 145 255  28 145 255  28 145 255  28 145 255
44 153 255  225 241 255  255 255 255  255 255 255  255 255 255  255 255 255
255 255 255  255 255 255  255 255 255  255 255 255  255 255 255  255 255 255
255 255 255  255 255 255  255 255 255  255 255 255  255 255 255  255 255 255
255 255 255  134 197 255  28 145 255  28 145 255  28 145 255  28 145 255
28 145 255  28 145 255  28 145 255  28 145 255  28 145 255  28 145 255
28 145 255  28 145 255  28 145 255  28 145 255  28 145 255  28 145 255
28 145 255  28 145 255  28 145 255  28 145 255  28 145 255  28 145 255
28 145 255  28 145 255  28 145 255  28 145 255  28 145 255  28 145 255
28 145 255  28 145 255  28 145 255  28 145 255  28 145 255  28 145 255
28 145 255  28 145 255  28 145 255  28 145 255  28 145 255  28 145 255
28 145 255  28 145 255  28 145 255  28 145 255  28 145 255  28 145 255
28 145 255  28 145 255  28 145 255  28 145 255  28 145 255  28 145 255
28 145 255  28 145 255  28 145 255  28 145 255  28 145 255  28 145 255
28 145 255  28 145 255  28 145 255  28 145 255  28 145 255  28 145 255
28 145 255  28 145 255  28 145 255  28 145 255  28 145 255  28 145 255
210 233 255  255 255 255  255 255 255  255 255 255  255 255 255  255 255 255
255 255 255  255 255 255  255 255 255  255 255 255
119 189 255  28 145 255  28 145 255  28 145 255  28 145 255  28 145 255
28 145 255  28 145 255  28 145 255  28 145 255  28 145 255  28 145 255
28 145 255  28 145 255  28 145 255  28 145 255  28 145 255  28 145 255
28 145 255  28 145 255  165 211 255  255 255 255  255 255 255  255 255 255
255 255 255  255 255 255  255 255 255  255 255 255  255 255 255  255 255 255
255 255 255  255 255 255  255 255 255  255 255 255  255 255 255  255 255 255
255 255 255  255 255 255  255 255 255  255 255 255  255 255 255  255 255 255
255 255 255  255 255 255  255 255 255  255 255 255  255 255 255  255 255 255
255 255 255  255 255 255  255 255 255  255 255 255  255 255 255  255 255 255
255 255 255  255 255 255  255 255 255  255 255 255  255 255 255  255 255 255
255 255 255  255 255 255  255 255 255  255 255 255  255 255 255  255 255 255
255 255 255  255 255 255  255 255 255  255 255 255  255 255 255  255 255 255
255 255 255  255 255 255  255 255 255  255 255 255  255 255 255  255 255 255
255 255 255  255 255 255  255 255 255  255 255 255  255 255 255  255 255 255
255 255 255  119 189 255  28 145 255  28 145 255  28 145 255  28 145 255
28 145 255  28 145 255  28 145 255  28 145 255  28 145 255  28 145 255
28 145 255  28 145 255  28 145 255  28 145 255  28 145 255  28 145 255
28 145 255  28 145 255  28 145 255  28 145 255  28 145 255  28 145 255
28 145 255  28 145 255  28 145 255  28 145 255  28 145 255  28 145 255
28 145 255  28 145 255  28 145 255  28 145 255  28 145 255  28 145 255
28 145 255  28 145 255  28 145 255  28 145 255  28 145 255  28 145 255
28 145 255  28 145 255  28 145 255  28 145 255  28 145 255  28 145 255
28 145 255  28 145 255  28 145 255  28 145 255  28 145 255  28 145 255
28 145 255  28 145 255  28 145 255  28 145 255  28 145 255  28 145 255
28 145 255  28 145 255  28 145 255  28 145 255  28 145 255  28 145 255
28 145 255  28 145 255  28 145 255  28 145 255  28 145 255  28 145 255
28 145 255  74 167 255  240 248 255  255 255 255  255 255 255  255 255 255
255 255 255  255 255 255  255 255 255  255 255 255  255 255 255  255 255 255
255 255 255  255 255 255  255 255 255  255 255 255  255 255 255  255 255 255
255 255 255  134 197 255  28 145 255  28 145 255  28 145 255  28 145 255
28 145 255  28 145 255  28 145 255  28 145 255  28 145 255  28 145 255
28 145 255  28 145 255  28 145 255  28 145 255  28 145 255  28 145 255
28 145 255  28 145 255  28 145 255  28 145 255  28 145 255  28 145 255
28 145 255  28 145 255  28 145 255  28 145 255  28 145 255  28 145 255
28 145 255  28 145 255  28 145 255  28 145 255  28 145 255  28 145 255
28 145 255  28 145 255  28 145 255  28 145 255  28 145 255  28 145 255
28 145 255  28 145 255  28 145 255  28 145 255  28 145 255  28 145 255
28 145 255  28 145 255  28 145 255  28 145 255  28 145 255  28 145 255
28 145 255  28 145 255  28 145 255  28 145 255  28 145 255  28 145 255
28 145 255  28 145 255  28 145 255  28 145 255  28 145 255  28 145 255
28 145 255  28 145 255  28 145 255  28 145 255  28 145 255  165 211 255
255 255 255  255 255 255  255 255 255  255 255 255  255 255 255  255 255 255
255 255 255  255 255 255  255 255 255  255 255 255
89 175 255  28 145 255  28 145 255  28 145 255  28 145 255  28 145 255
28 145 255  28 145 255  28 145 255  28 145 255  28 145 255  28 145 255
28 145 255  28 145 255  28 145 255  28 145 255  28 145 255  28 145 255
28 145 255  28 145 255  195 226 255  255 255 255  255 255 255  255 255 255
255 255 255  255 255 255  255 255 255  255 255 255  255 255 255  255 255 255
255 255 255  255 255 255  255 255 255  255 255 255  255 255 255  255 255 255
255 255 255  255 255 255  255 255 255  255 255 255  255 255 255  255 255 255
255 255 255  255 255 255  255 255 255  255 255 255  255 255 255  255 255 255
255 255 255  255 255 255  255 255 255  255 255 255  255 255 255  255 255 255
255 255 255  255 255 255  255 255 255  255 255 255  255 255 255  255 255 255
255 255 255  255 255 255  255 255 255  255 255 255  255 255 255  255 255 255
255 255 255  255 255 255  255 255 255  255 255 255  255 255 255  255 255 255
255 255 255  255 255 255  255 255 255  255 255 255  255 255 255  255 255 255
255 255 255  255 255 255  255 255 255  255 255 255  255 255 255  255 255 255
255 255 255  240 248 255  74 167 255  28 145 255  28 145 255  28 145 255
28 145 255  28 145 255  28 145 255  28 145 255  28 145 255  28 145 255
28 145 255  28 145 255  28 145 255  28 145 255  28 145 255  28 145 255
28 145 255  28 145 255  28 145 255  28 145 255  28 145 255  28 145 255
28 145 255  28 145 255  28 145 255  28 145 255  28 145 255  28 145 255
28 145 255  28 145 255  28 145 255  28 145 255  28 145 255  28 145 255
28 145 255  28 145 255  28 145 255  28 145 255  28 145 255  28 145 255
28 145 255  28 145 255  28 145 255  28 145 255  28 145 255  28 145 255
28 145 255  28 145 255  28 145 255  28 145 255  28 145 255  28 145 255
28 145 255  28 145 255  28 145 255  28 145 255  28 145 255  28 145 255
28 145 255  28 145 255  28 145 255  28 145 255  28 145 255  28 145 255
28 145 255  28 145 255  28 145 255  28 145 255  28 145 255  28 145 255
28 145 255  28 145 255  119 189 255  255 255 255  255 255 255  255 255 255
255 255 255  255 255 255  255 255 255  255 255 255  255 255 255  255 255 255
255 255 255  255 255 255  255 255 255  255 255 255  255 255 255  255 255 255
255 255 255  89 175 255  28 145 255  28 145 255  28 145 255  28 145 255
28 145 255  28 145 255  28 145 255  28 145 255  28 145 255  28 145 255
28 145 255  28 145 255  28 145 255  28 145 255  28 145 255  28 145 255
28 145 255  28 145 255  28 145 255  28 145 255  28 145 255  28 145 255
28 145 255  28 145 255  28 145 255  28 145 255  28 145 255  28 145 255
28 145 255  28 145 255  28 145 255  28 145 255  28 145 255  28 145 255
28 145 255  28 145 255  28 145 255  28 145 255  28 145 255  28 145 255
28 145 255  28 145 255  28 145 255  28 145 255  28 145 255  28 145 255
28 145 255  28 145 255  28 145 255  28 145 255  28 145 255  28 145 255
28 145 255  28 145 255  28 145 255  28 145 255  28 145 255  28 145 255
28 145 255  28 145 255  28 145 255  28 145 255  28 145 255  28 145 255
28 145 255  28 145 255  28 145 255  28 145 255  165 211 255  255 255 255
255 255 255  255 255 255  255 255 255  255 255 255  255 255 255  255 255 255
255 255 255  255 255 255  255 255 255  255 255 255
89 175 255  28 145 255  28 145 255  28 145 255  28 145 255  28 145 255
28 145 255  28 145 255  28 145 255  28 145 255  28 145 255  28 145 255
28 145 255  28 145 255  28 145 255  28 145 255  28 145 255  28 145 255
28 145 255  28 145 255  210 233 255  255 255 255  255 255 255  255 255 255
255 255 255  255 255 255  255 255 255  255 255 255  255 255 255  255 255 255
255 255 255  255 255 255  255 255 255  255 255 255  255 255 255  255 255 255
255 255 255  255 255 255  255 255 255  255 255 255  255 255 255  255 255 255
255 255 255  255 255 255  255 255 255  255 255 255  255 255 255  255 255 255
255 255 255  255 255 255  255 255 255  255 255 255  255 255 255  255 255 255
255 255 255  255 255 255  255 255 255  255 255 255  255 255 255  255 255 255
255 255 255  255 255 255  255 255 255  255 255 255  255 255 255  255 255 255
255 255 255  255 255 255  255 255 255  255 255 255  255 255 255  255 255 255
255 255 255  255 255 255  255 255 255  255 255 255  255 255 255  255 255 255
255 255 255  255 255 255  255 255 255  255 255 255  255 255 255  255 255 255
255 255 255  255 255 255  225 241 255  44 153 255  28 145 255  28 145 255
28 145 255  28 145 255  28 145 255  28 145 255  28 145 255  28 145 255
28 145 255  28 145 255  28 145 255  28 145 255  28 145 255  28 145 255
28 145 255  28 145 255  28 145 255  28 145 255  28 145 255  28 145 255
28 145 255  28 145 255  28 145 255  28 145 255  28 145 255  28 145 255
28 145 255  28 145 255  28 145 255  28 145 255  28 145 255  28 145 255
28 145 255  28 145 255  28 145 255  28 145 255  28 145 255  28 145 255
28 145 255  28 145 255  28 145 255  28 145 255  28 145 255  28 145 255
28 145 255  28 145 255  28 145 255  28 145 255  28 145 255  28 145 255
28 145 255  28 145 255  28 145 255  28 145 255  28 145 255  28 145 255
28 145 255  28 145 255  28 145 255  28 145 255  28 145 255  28 145 255
28 145 255  28 145 255  28 145 255  28 145 255  28 145 255  28 145 255
28 145 255  28 145 255  28 145 255  195 226 255  255 255 255  255 255 255
255 255 255  255 255 255  255 255 255  255 255 255  255 255 255  255 255 255
255 255 255  255 255 255  255 255 255  255 255 255  255 255 255  255 255 255
255 255 255  89 175 255  28 145 255  28 145 255  28 145 255  28 145 255
28 145 255  28 145 255  28 145 255  28 145 255  28 145 255  28 145 255
28 145 255  28 145 255  28 145 255  28 145 255  28 145 255  28 145 255
28 145 255  28 145 255  28 145 255  28 145 255  28 145 255  28 145 255
28 145 255  28 145 255  28 145 255  28 145 255  28 145 255  28 145 255
28 145 255  28 145 255  28 145 255  28 145 255  28 145 255  28 145 255
28 145 255  28 145 255  28 145 255  28 145 255  28 145 255  28 145 255
28 145 255  28 145 255  28 145 255  28 145 255  28 145 255  28 145 255
28 145 255  28 145 255  28 145 255  28 145 255  28 145 255  28 145 255
28 145 255  28 145 255  28 145 255  28 145 255  28 145 255  28 145 255
28 145 255  28 145 255  28 145 255  28 145 255  28 145 255  28 145 255
28 145 255  28 145 255  28 145 255  165 211 255  255 255 255  255 255 255
255 255 255  255 255 255  255 255 255  255 255 255  255 255 255  255 255 255
255 255 255  255 255 255  255 255 255  255 255 255
74 167 255  28 145 255  28 145 255  28 145 255  28 145 255  28 145 255
28 145 255  28 145 255  28 145 255  28 145 255  28 145 255  28 145 255
28 145 255  28 145 255  28 145 255  28 145 255  28 145 255  28 145 255
28 145 255  28 145 255  255 255 255  255 255 255  255 255 255  255 255 255
255 255 255  255 255 255  255 255 255  255 255 255  255 255 255  255 255 255
255 255 255  255 255 255  255 255 255  255 255 255  255 255 255  255 255 255
255 255 255  255 255 255  255 255 255  255 255 255  255 255 255  255 255 255
255 255 255  255 255 255  255 255 255  255 255 255  255 255 255  255 255 255
255 255 255  255 255 255  255 255 255  255 255 255  255 255 255  255 255 255
255 255 255  255 255 255  255 255 255  255 255 255  255 255 255  255 255 255
255 255 255  255 255 255  255 255 255  255 255 255  255 255 255  255 255 255
255 255 255  255 255 255  255 255 255  255 255 255  255 255 255  255 255 255
255 255 255  255 255 255  255 255 255  255 255 255  255 255 255  255 255 255
255 255 255  255 255 255  255 255 255  255 255 255  255 255 255  255 255 255
255 255 255  255 255 255  255 255 255  195 226 255  44 153 255  28 145 255
28 145 255  28 145 255  28 145 255  28 145 255  28 145 255  28 145 255
28 145 255  28 145 255  28 145 255  28 145 255  28 145 255  28 145 255
28 145 255  28 145 255  28 145 255  28 145 255  28 145 255  28 145 255
28 145 255  28 145 255  28 145 255  28 145 255  28 145 255  28 145 255
28 145 255  28 145 255  28 145 255  28 145 255  28 145 255  28 145 255
28 145 255  28 145 255  28 145 255  28 145 255  28 145 255  28 145 255
28 145 255  28 145 255  28 145 255  28 145 255  28 145 255  28 145 255
28 145 255  28 145 255  28 145 255  28 145 255  28 145 255  28 145 255
28 145 255  28 145 255  28 145 255  28 145 255  28 145 255  28 145 255
28 145 255  28 145 255  28 145 255  28 145 255  28 145 255  28 145 255
28 145 255  28 145 255  28 145 255  28 145 255  28 145 255  28 145 255
28 145 255  28 145 255  28 145 255  89 175 255  255 255 255  255 255 255
255 255 255  255 255 255  255 255 255  255 255 255  255 255 255  255 255 255
255 255 255  255 255 255  255 255 255  255 255 255  255 255 255  255 255 255
255 255 255  74 167 255  28 145 255  28 145 255  28 145 255  28 145 255
28 145 255  28 145 255  28 145 255  28 145 255  28 145 255  28 145 255
28 145 255  28 145 255  28 145 255  28 145 255  28 145 255  28 145 255
28 145 255  28 145 255  28 145 255  28 145 255  28 145 255  28 145 255
28 145 255  28 145 255  28 145 255  28 145 255  28 145 255  28 145 255
28 145 255  28 145 255  28 145 255  28 145 255  28 145 255  28 145 255
28 145 255  28 145 255  28 145 255  28 145 255  28 145 255  28 145 255
28 145 255  28 145 255  28 145 255  28 145 255  28 145 255  28 145 255
28 145 255  28 145 255  28 145 255  28 145 255  28 145 255  28 145 255
28 145 255  28 145 255  28 145 255  28 145 255  28 145 255  28 145 255
28 145 255  28 145 255  28 145 255  28 145 255  28 145 255  28 145 255
28 145 255  74 167 255  210 233 255  255 255 255  255 255 255  255 255 255
255 255 255  255 255 255  255 255 255  255 255 255  255 255 255  255 255 255
255 255 255  255 255 255  255 255 255  255 255 255
28 145 255  28 145 255  28 145 255  28 145 255  28 145 255  28 145 255
28 145 255  28 145 255  28 145 255  28 145 255  28 145 255  28 145 255
28 145 255  28 145 255  28 145 255  28 145 255  28 145 255  28 145 255
28 145 255  28 145 255  255 255 255  255 255 255  255 255 255  255 255 255
255 255 255  255 255 255  255 255 255  255 255 255  255 255 255  255 255 255
255 255 255  255 255 255  255 255 255  255 255 255  255 255 255  255 255 255
255 255 255  255 255 255  255 255 255  255 255 255  255 255 255  255 255 255
255 255 255  255 255 255  255 255 255  255 255 255  255 255 255  255 255 255
255 255 255  255 255 255  255 255 255  255 255 255  255 255 255  255 255 255
255 255 255  255 255 255  255 255 255  255 255 255  255 255 255  255 255 255
255 255 255  255 255 255  255 255 255  255 255 255  255 255 255  255 255 255
255 255 255  255 255 255  255 255 255  255 255 255  255 255 255  255 255 255
255 255 255  255 255 255  255 255 255  255 255 255  255 255 255  255 255 255
255 255 255  255 255 255  255 255 255  255 255 255  255 255 255  255 255 255
255 255 255  255 255 255  255 255 255  255 255 255  225 241 255  89 175 255
28 145 255  28 145 255  28 145 255  28 145 255  28 145 255  28 145 255
28 145 255  28 145 255  28 145 255  28 145 255  28 145 255  28 145 255
28 145 255  28 145 255  28 145 255  28 145 255  28 145 255  28 145 255
28 145 255  28 145 255  28 145 255  28 145 255  28 145 255  28 145 255
28 145 255  28 145 255  28 145 255  28 145 255  28 145 255  28 145 255
28 145 255  28 145 255  28 145 255  28 145 255  28 145 255  28 145 255
28 145 255  28 145 255  28 145 255  28 145 255  28 145 255  28 145 255
28 145 255  28 145 255  28 145 255  28 145 255  28 145 255  28 145 255
28 145 255  28 145 255  28 145 255  28 145 255  28 145 255  28 145 255
28 145 255  28 145 255  28 145 255  28 145 255  28 145 255  28 145 255
28 145 255  28 145 255  28 145 255  28 145 255  28 145 255  28 145 255
28 145 255  28 145 255  28 145 255  28 145 255  210 233 255  255 255 255
255 255 255  255 255 255  255 255 255  255 255 255  255 255 255  255 255 255
255 255 255  255 255 255  255 255 255  255 255 255  255 255 255  255 255 255
255 255 255  28 145 255  28 145 255  28 145 255  28 145 255  28 145 255
28 145 255  28 145 255  28 145 255  28 145 255  28 145 255  28 145 255
28 145 255  28 145 255  28 145 255  28 145 255  28 145 255  28 145 255
28 145 255  28 145 255  28 145 255  28 145 255  28 145 255  28 145 255
28 145 255  28 145 255  28 145 255  28 145 255  28 145 255  28 145 255
28 145 255  28 145 255  28 145 255  28 145 255  28 145 255  28 145 255
28 145 255  28 145 255  28 145 255  28 145 255  28 145 255  28 145 255
28 145 255  28 145 255  28 145 255  28 145 255  28 145 255  28 145 255
28 145 255  28 145 255  28 145 255  28 145 255  28 145 255  28 145 255
28 145 255  28 145 255  28 145 255  28 145 255  28 145 255  28 145 255
28 145 255  28 145 255  28 145 255  28 145 255  28 145 255  28 145 255
134 197 255  240 248 255  255 255 255  255 255 255  255 255 255  255 255 255
255 255 255  255 255 255  255 255 255  255 255 255  255 255 255  255 255 255
255 255 255  255 255 255  255 255 255  255 255 255
28 145 255  28 145 255  28 145 255  28 145 255  28 145 255  28 145 255
28 145 255  28 145 255  28 145 255  28 145 255  28 145 255  28 145 255
28 145 255  28 145 255  28 145 255  28 145 255  28 145 255  28 145 255
28 145 255  28 145 255  255 255 255  255 255 255  255 255 255  255 255 255
255 255 255  255 255 255  255 255 255  255 255 255  255 255 255  255 255 255
255 255 255  255 255 255  255 255 255  255 255 255  255 255 255  255 255 255
255 255 255  255 255 255  255 255 255  255 255 255  255 255 255  255 255 255
255 255 255  255 255 255  255 255 255  255 255 255  255 255 255  255 255 255
255 255 255  255 255 255  255 255 255  255 255 255  255 255 255  255 255 255
255 255 255  255 255 255  255 255 255  255 255 255  255 255 255  255 255 255
255 255 255  255 255 255  255 255 255  255 255 255  255 255 255  255 255 255
255 255 255  255 255 255  255 255 255  255 255 255  255 255 255  255 255 255
255 255 255  255 255 255  255 255 255  255 255 255  255 255 255  255 255 255
255 255 255  255 255 255  255 255 255  255 255 255  255 255 255  255 255 255
255 255 255  255 255 255  255 255 255  255 255 255  255 255 255  255 255 255
134 197 255  28 145 255  28 145 255  28 145 255  28 145 255  28 145 255
28 145 255  28 145 255  28 145 255  28 145 255  28 145 255  28 145 255
28 145 255  28 145 255  28 145 255  28 145 255  28 145 255  28 145 255
28 145 255  28 145 255  28 145 255  28 145 255  28 145 255  28 145 255
28 145 255  28 145 255  28 145 255  28 145 255  28 145 255  28 145 255
28 145 255  28 145 255  28 145 255  28 145 255  28 145 255  28 145 255
28 145 255  28 145 255  28 145 255  28 145 255  28 145 255  28 145 255
28 145 255  28 145 255  28 145 255  28 145 255  28 145 255  28 145 255
28 145 255  28 145 255  28 145 255  28 145 255  28 145 255  28 145 255
28 145 255  28 145 255  28 145 255  28 145 255  28 145 255  28 145 255
28 145 255  28 145 255  28 145 255  28 145 255  28 145 255  28 145 255
28 145 255  28 145 255  28 145 255  28 145 255  134 197 255  255 255 255
255 255 255  255 255 255  255 255 255  255 255 255  255 255 255  255 255 255
255 255 255  255 255 255  255 255 255  255 255 255  255 255 255  255 255 255
255 255 255  28 145 255  28 145 255  28 145 255  28 145 255  28 145 255
28 145 255  28 145 255  28 145 255  28 145 255  28 145 255  28 145 255
28 145 255  28 145 255  28 145 255  28 145 255  28 145 255  28 145 255
28 145 255  28 145 255  28 145 255  28 145 255  28 145 255  28 145 255
28 145 255  28 145 255  28 145 255  28 145 255  28 145 255  28 145 255
28 145 255  28 145 255  28 145 255  28 145 255  28 145 255  28 145 255
28 145 255  28 145 255  28 145 255  28 145 255  28 145 255  28 145 255
28 145 255  28 145 255  28 145 255  28 145 255  28 145 255  28 145 255
28 145 255  28 145 255  28 145 255  28 145 255  28 145 255  28 145 255
28 145 255  28 145 255  28 145 255  28 145 255  28 145 255  28 145 255
28 145 255  28 145 255  28 145 255  28 145 255  119 189 255  210 233 255
255 255 255  255 255 255  255 255 255  255 255 255  255 255 255  255 255 255
255 255 255  255 255 255  255 255 255  255 255 255  255 255 255  255 255 255
255 255 255  255 255 255  255 255 255  255 255 255
28 145 255  28 145 255  28 145 255  28 145 255  28 145 255  28 145 255
28 145 255  28 145 255  28 145 255  28 145 255  28 145 255  28 145 255
28 145 255  28 145 255  28 145 255  28 145 255  28 145 255  28 145 255
28 145 255  28 145 255  255 255 255  255 255 255  255 255 255  255 255 255
255 255 255  255 255 255  255 255 255  255 255 255  255 255 255  255 255 255
255 255 255  255 255 255  255 255 255  255 255 255  255 255 255  255 255 255
255 255 255  255 255 255  255 255 255  255 255 255  255 255 255  255 255 255
255 255 255  255 255 255  255 255 255  255 255 255  255 255 255  255 255 255
255 255 255  255 255 255  255 255 255  255 255 255  255 255 255  255 255 255
255 255 255  255 255 255  255 255 255  255 255 255  255 255 255  255 255 255
255 255 255  255 255 255  255 255 255  255 255 255  255 255 255  255 255 255
255 255 255  255 255 255  255 255 255  255 255 255  255 255 255  255 255 255
255 255 255  255 255 255  255 255 255  255 255 255  255 255 255  255 255 255
255 255 255  255 255 255  255 255 255  255 255 255  255 255 255  255 255 255
255 255 255  255 255 255  255 255 255  255 255 255  255 255 255  255 255 255
255 255 255  195 226 255  119 189 255  28 145 255  28 145 255  28 145 255
28 145 255  28 145 255  28 145 255  28 145 255  28 145 255  28 145 255
28 145 255  28 145 255  28 145 255  28 145 255  28 145 255  28 145 255
28 145 255  28 145 255  28 145 255  28 145 255  28 145 255  28 145 255
28 145 255  28 145 255  28 145 255  28 145 255  28 145 255  28 145 255
28 145 255  28 145 255  28 145 255  28 145 255  28 145 255  28 145 255
28 145 255  28 145 255  28 145 255  28 145 255  28 145 255  28 145 255
28 145 255  28 145 255  28 145 255  28 145 255  28 145 255  28 145 255
28 145 255  28 145 255  28 145 255  28 145 255  28 145 255  28 145 255
28 145 255  28 145 255  28 145 255  28 145 255  28 145 255  28 145 255
28 145 255  28 145 255  28 145 255  28 145 255  28 145 255  28 145 255
28 145 255  28 145 255  28 145 255  28 145 255  74 167 255  255 255 255
255 255 255  255 255 255  255 255 255  255 255 255  255 255 255  255 255 255
255 255 255  255 255 255  255 255 255  255 255 255  255 255 255  255 255 255
240 248 255  28 145 255  28 145 255  28 145 255  28 145 255  28 145 255
28 145 255  28 145 255  28 145 255  28 145 255  28 145 255  28 145 255
28 145 255  28 145 255  28 145 255  28 145 255  28 145 255  28 145 255
28 145 255  28 145 255  28 145 255  28 145 255  28 145 255  28 145 255
28 145 255  28 145 255  28 145 255  28 145 255  28 145 255  28 145 255
28 145 255  28 145 255  28 145 255  28 145 255  28 145 255  28 145 255
28 145 255  28 145 255  28 145 255  28 145 255  28 145 255  28 145 255
28 145 255  28 145 255  28 145 255  28 145 255  28 145 255  28 145 255
28 145 255  28 145 255  28 145 255  28 145 255  28 145 255  28 145 255
28 145 255  28 145 255  28 145 255  28 145 255  28 145 255  28 145 255
28 145 255  44 153 255  119 189 255  225 241 255  255 255 255  255 255 255
255 255 255  255 255 255  255 255 255  255 255 255  255 255 255  255 255 255
255 255 255  255 255 255  255 255 255  255 255 255  255 255 255  255 255 255
255 255 255  255 255 255  255 255 255  255 255 255
28 145 255  28 145 255  28 145 255  28 145 255  28 145 255  28 145 255
28 145 255  28 145 255  28 145 255  28 145 255  28 145 255  28 145 255
28 145 255  28 145 255  28 145 255  28 145 255  28 145 255  28 145 255
28 145 255  89 175 255  255 255 255  255 255 255  255 255 255  255 255 255
255 255 255  255 255 255  255 255 255  255 255 255  255 255 255  255 255 255
255 255 255  255 255 255  255 255 255  255 255 255  255 255 255  255 255 255
255 255 255  255 255 255  255 255 255  255 255 255  255 255 255  255 255 255
255 255 255  255 255 255  255 255 255  255 255 255  255 255 255  255 255 255
255 255 255  255 255 255  255 255 255  255 255 255  255 255 255  255 255 255
255 255 255  255 255 255  255 255 255  255 255 255  255 255 255  255 255 255
255 255 255  255 255 255  255 255 255  255 255 255  255 255 255  255 255 255
255 255 255  255 255 255  255 255 255  255 255 255  255 255 255  255 255 255
255 255 255  255 255 255  255 255 255  255 255 255  255 255 255  255 255 255
255 255 255  255 255 255  255 255 255  255 255 255  255 255 255  255 255 255
255 255 255  255 255 255  255 255 255  255 255 255  255 255 255  255 255 255
255 255 255  255 255 255  255 255 255  240 248 255  134 197 255  59 160 255
28 145 255  28 145 255  28 145 255  28 145 255  28 145 255  28 145 255
28 145 255  28 145 255  28 145 255  28 145 255  28 145 255  28 145 255
28 145 255  28 145 255  28 145 255  28 145 255  28 145 255  28 145 255
28 145 255  28 145 255  28 145 255  28 145 255  28 145 255  28 145 255
28 145 255  28 145 255  28 145 255  28 145 255  28 145 255  28 145 255
28 145 255  28 145 255  28 145 255  28 145 255  28 145 255  28 145 255
28 145 255  28 145 255  28 145 255  28 145 255  28 145 255  28 145 255
28 145 255  28 145 255  28 145 255  28 145 255  28 145 255  28 145 255
28 145 255  28 145 255  28 145 255  28 145 255  28 145 255  28 145 255
28 145 255  28 145 255  28 145 255  28 145 255  28 145 255  28 145 255
28 145 255  28 145 255  28 145 255  28 145 255  28 145 255  255 255 255
255 255 255  255 255 255  255 255 255  255 255 255  255 255 255  255 255 255
255 255 255  255 255 255  255 255 255  255 255 255  255 255 255  255 255 255
195 226 255  28 145 255  28 145 255  28 145 255  28 145 255  28 145 255
28 145 255  28 145 255  28 145 255  28 145 255  28 145 255  28 145 255
28 145 255  28 145 255  28 145 255  28 145 255  28 145 255  28 145 255
28 145 255  28 145 255  28 145 255  28 145 255  28 145 255  28 145 255
28 145 255  28 145 255  28 145 255  28 145 255  28 145 255  28 145 255
28 145 255  28 145 255  28 145 255  28 145 255  28 145 255  28 145 255
28 145 255  28 145 255  28 145 255  28 145 255  28 145 255  28 145 255
28 145 255  28 145 255  28 145 255  28 145 255  28 145 255  28 145 255
28 145 255  28 145 255  28 145 255  28 145 255  28 145 255  28 145 255
28 145 255  28 145 255  28 145 255  28 145 255  59 160 255  134 197 255
210 233 255  255 255 255  255 255 255  255 255 255  255 255 255  255 255 255
255 255 255  255 255 255  255 255 255  255 255 255  255 255 255  255 255 255
255 255 255  255 255 255  255 255 255  255 255 255  255 255 255  255 255 255
255 255 255  255 255 255  255 255 255  255 255 255
28 145 255  28 145 255  28 145 255  28 145 255  28 145 255  28 145 255
28 145 255  28 145 255  28 145 255  28 145 255  28 145 255  28 145 255
28 145 255  28 145 255  28 145 255  28 145 255  28 145 255  28 145 255
28 145 255  89 175 255  255 255 255  255 255 255  255 255 255  255 255 255
255 255 255  255 255 255  255 255 255  255 255 255  255 255 255  255 255 255
255 255 255  255 255 255  255 255 255  255 255 255  255 255 255  255 255 255
255 255 255  255 255 255  255 255 255  255 255 255  255 255 255  255 255 255
255 255 255  255 255 255  255 255 255  255 255 255  255 255 255  255 255 255
255 255 255  255 255 255  255 255 255  255 255 255  255 255 255  255 255 255
255 255 255  255 255 255  255 255 255  255 255 255  255 255 255  255 255 255
255 255 255  255 255 255  255 255 255  255 255 255  255 255 255  255 255 255
255 255 255  255 255 255  255 255 255  255 255 255  255 255 255  255 255 255
255 255 255  255 255 255  255 255 255  255 255 255  255 255 255  255 255 255
255 255 255  255 255 255  255 255 255  255 255 255  255 255 255  255 255 255
255 255 255  255 255 255  255 255 255  255 255 255  255 255 255  255 255 255
255 255 255  255 255 255  255 255 255  255 255 255  255 255 255  255 255 255
195 226 255  134 197 255  104 182 255  59 160 255  28 145 255  28 145 255
28 145 255  28 145 255  28 145 255  28 145 255  28 145 255  28 145 255
28 145 255  28 145 255  28 145 255  28 145 255  28 145 255  28 145 255
28 145 255  28 145 255  28 145 255  28 145 255  28 145 255  28 145 255
28 145 255  28 145 255  28 145 255  28 145 255  28 145 255  28 145 255
28 145 255  28 145 255  28 145 255  28 145 255  28 145 255  28 145 255
28 145 255  28 145 255  28 145 255  28 145 255  28 145 255  28 145 255
28 145 255  28 145 255  28 145 255  28 145 255  28 145 255  28 145 255
28 145 255  28 145 255  28 145 255  28 145 255  28 145 255  28 145 255
28 145 255  28 145 255  28 145 255  28 145 255  28 145 255  28 145 255
28 145 255  28 145 255  28 145 255  28 145 255  28 145 255  195 226 255
255 255 255  255 255 255  255 255 255  255 255 255  255 255 255  255 255 255
255 255 255  255 255 255  255 255 255  255 255 255  255 255 255  255 255 255
195 226 255  28 145 255  28 145 255  28 145 255  28 145 255  28 145 255
28 145 255  28 145 255  28 145 255  28 145 255  28 145 255  28 145 255
28 145 255  28 145 255  28 145 255  28 145 255  28 145 255  28 145 255
28 145 255  28 145 255  28 145 255  28 145 255  28 145 255  28 145 255
28 145 255  28 145 255  28 145 255  28 145 255  28 145 255  28 145 255
28 145 255  28 145 255  28 145 255  28 145 255  28 145 255  28 145 255
28 145 255  28 145 255  28 145 255  28 145 255  28 145 255  28 145 255
28 145 255  28 145 255  28 145 255  28 145 255  28 145 255  28 145 255
28 145 255  28 145 255  28 145 255  28 145 255  28 145 255  28 145 255
28 145 255  28 145 255  28 145 255  28 145 255  89 175 255  255 255 255
255 255 255  255 255 255  255 255 255  255 255 255  255 255 255  255 255 255
255 255 255  255 255 255  255 255 255  255 255 255  255 255 255  255 255 255
255 255 255  255 255 255  255 255 255  255 255 255  255 255 255  255 255 255
255 255 255  255 255 255  255 255 255  255 255 255
28 145 255  28 145 255  28 145 255  28 145 255  28 145 255  28 145 255
28 145 255  28 145 255  28 145 255  28 145 255  28 145 255  28 145 255
28 145 255  28 145 255  28 145 255  28 145 255  28 145 255  28 145 255
28 145 255  89 175 255  255 255 255  255 255 255  255 255 255  255 255 255
255 255 255  255 255 255  255 255 255  255 255 255  255 255 255  255 255 255
255 255 255  255 255 255  255 255 255  255 255 255  255 255 255  255 255 255
255 255 255  255 255 255  255 255 255  255 255 255  255 255 255  255 255 255
255 255 255  255 255 255  255 255 255  255 255 255  255 255 255  255 255 255
255 255 255  255 255 255  255 255 255  255 255 255  255 255 255  255 255 255
255 255 255  255 255 255  255 255 255  255 255 255  255 255 255  255 255 255
255 255 255  255 255 255  255 255 255  255 255 255  255 255 255  255 255 255
255 255 255  255 255 255  255 255 255  255 255 255  255 255 255  255 255 255
255 255 255  255 255 255  255 255 255  255 255 255  255 255 255  255 255 255
255 255 255  255 255 255  255 255 255  255 255 255  255 255 255  255 255 255
255 255 255  255 255 255  255 255 255  255 255 255  255 255 255  255 255 255
255 255 255  255 255 255  255 255 255  255 255 255  255 255 255  255 255 255
255 255 255  255 255 255  255 255 255  255 255 255  240 248 255  195 226 255
134 197 255  134 197 255  134 197 255  134 197 255  104 182 255  89 175 255
89 175 255  89 175 255  89 175 255  89 175 255  89 175 255  89 175 255
89 175 255  89 175 255  89 175 255  89 175 255  89 175 255  89 175 255
89 175 255  89 175 255  89 175 255  89 175 255  89 175 255  89 175 255
89 175 255  89 175 255  89 175 255  89 175 255  89 175 255  89 175 255
89 175 255  74 167 255  28 145 255  28 145 255  28 145 255  28 145 255
28 145 255  28 145 255  28 145 255  28 145 255  28 145 255  28 145 255
28 145 255  28 145 255  28 145 255  28 145 255  28 145 255  28 145 255
28 145 255  28 145 255  28 145 255  28 145 255  28 145 255  28 145 255
28 145 255  28 145 255  28 145 255  28 145 255  28 145 255  150 204 255
255 255 255  255 255 255  255 255 255  255 255 255  255 255 255  255 255 255
255 255 255  255 255 255  255 255 255  255 255 255  255 255 255  255 255 255
180 219 255  28 145 255  28 145 255  28 145 255  28 145 255  28 145 255
28 145 255  28 145 255  28 145 255  28 145 255  28 145 255  28 145 255
28 145 255  28 145 255  28 145 255  28 145 255  28 145 255  28 145 255
28 145 255  28 145 255  28 145 255  28 145 255  28 145 255  28 145 255
28 145 255  28 145 255  28 145 255  28 145 255  28 145 255  28 145 255
28 145 255  28 145 255  28 145 255  28 145 255  28 145 255  28 145 255
28 145 255  28 145 255  28 145 255  28 145 255  28 145 255  28 145 255
28 145 255  28 145 255  28 145 255  28 145 255  28 145 255  28 145 255
28 145 255  28 145 255  28 145 255  28 145 255  28 145 255  28 145 255
28 145 255  28 145 255  28 145 255  28 145 255  28 145 255  195 226 255
255 255 255  255 255 255  255 255 255  255 255 255  255 255 255  255 255 255
255 255 255  255 255 255  255 255 255  255 255 255  255 255 255  255 255 255
255 255 255  255 255 255  255 255 255  255 255 255  255 255 255  255 255 255
255 255 255  255 255 255  255 255 255  255 255 255
28 145 255  28 145 255  28 145 255  28 145 255  28 145 255  28 145 255
28 145 255  28 145 255  28 145 255  28 145 255  28 145 255  28 145 255
28 145 255  28 145 255  28 145 255  28 145 255  28 145 255  28 145 255
28 145 255  59 160 255  255 255 255  255 255 255  255 255 255  255 255 255
255 255 255  255 255 255  255 255 255  255 255 255  255 255 255  255 255 255
255 255 255  255 255 255  255 255 255  255 255 255  255 255 255  255 255 255
255 255 255  255 255 255  255 255 255  255 255 255  255 255 255  255 255 255
255 255 255  255 255 255  255 255 255  255 255 255  255 255 255  255 255 255
255 255 255  255 255 255  255 255 255  255 255 255  255 255 255  255 255 255
255 255 255  255 255 255  255 255 255  255 255 255  255 255 255  255 255 255
255 255 255  255 255 255  255 255 255  255 255 255  255 255 255  255 255 255
255 255 255  255 255 255  255 255 255  255 255 255  255 255 255  255 255 255
255 255 255  255 255 255  255 255 255  255 255 255  255 255 255  255 255 255
255 255 255  255 255 255  255 255 255  255 255 255  255 255 255  255 255 255
255 255 255  255 255 255  255 255 255  255 255 255  255 255 255  255 255 255
255 255 255  255 255 255  255 255 255  255 255 255  255 255 255  255 255 255
255 255 255  255 255 255  255 255 255  255 255 255  255 255 255  255 255 255
255 255 255  255 255 255  255 255 255  255 255 255  255 255 255  255 255 255
255 255 255  255 255 255  255 255 255  255 255 255  255 255 255  255 255 255
255 255 255  255 255 255  255 255 255  255 255 255  255 255 255  255 255 255
255 255 255  255 255 255  255 255 255  255 255 255  255 255 255  255 255 255
255 255 255  255 255 255  255 255 255  255 255 255  255 255 255  255 255 255
255 255 255  255 255 255  255 255 255  255 255 255  195 226 255  150 204 255
89 175 255  28 145 255  28 145 255  28 145 255  28 145 255  28 145 255
28 145 255  28 145 255  28 145 255  28 145 255  28 145 255  28 145 255
28 145 255  28 145 255  28 145 255  28 145 255  28 145 255  28 145 255
28 145 255  28 145 255  28 145 255  28 145 255  28 145 255  134 197 255
255 255 255  255 255 255  255 255 255  255 255 255  255 255 255  255 255 255
255 255 255  255 255 255  255 255 255  255 255 255  255 255 255  255 255 255
134 197 255  28 145 255  28 145 255  28 145 255  28 145 255  28 145 255
28 145 255  28 145 255  28 145 255  28 145 255  28 145 255  28 145 255
28 145 255  28 145 255  28 145 255  28 145 255  28 145 255  28 145 255
59 160 255  255 255 255  255 255 255  255 255 255  255 255 255  255 255 255
255 255 255  255 255 255  255 255 255  255 255 255  255 255 255  255 255 255
255 255 255  255 255 255  255 255 255  255 255 255  255 255 255  255 255 255
255 255 255  255 255 255  255 255 255  255 255 255  119 189 255  28 145 255
28 145 255  28 145 255  28 145 255  28 145 255  28 145 255  28 145 255
28 145 255  28 145 255  28 145 255  28 145 255  28 145 255  28 145 255
28 145 255  28 145 255  28 145 255  28 145 255  28 145 255  89 175 255
255 255 255  255 255 255  255 255 255  255 255 255  255 255 255  255 255 255
255 255 255  255 255 255  255 255 255  255 255 255  255 255 255  255 255 255
255 255 255  255 255 255  255 255 255  255 255 255  255 255 255  255 255 255
255 255 255  255 255 255  255 255 255  255 255 255
28 145 255  28 145 255  28 145 255  28 145 255  28 145 255  28 145 255
28 145 255  28 145 255  28 145 255  28 145 255  28 145 255  28 145 255
28 145 255  28 145 255  28 145 255  28 145 255  28 145 255  28 145 255
28 145 255  28 145 255  255 255 255  255 255 255  255 255 255  255 255 255
255 255 255  255 255 255  255 255 255  255 255 255  255 255 255  255 255 255
255 255 255  255 255 255  255 255 255  255 255 255  255 255 255  255 255 255
255 255 255  255 255 255  255 255 255  255 255 255  255 255 255  255 255 255
255 255 255  255 255 255  255 255 255  255 255 255  255 255 255  255 255 255
255 255 255  255 255 255  255 255 255  255 255 255  255 255 255  255 255 255
255 255 255  255 255 255  255 255 255  255 255 255  255 255 255  255 255 255
255 255 255  255 255 255  255 255 255  255 255 255  255 255 255  255 255 255
255 255 255  255 255 255  255 255 255  255 255 255  255 255 255  255 255 255
255 255 255  255 255 255  255 255 255  255 255 255  255 255 255  255 255 255
255 255 255  255 255 255  255 255 255  255 255 255  255 255 255  255 255 255
255 255 255  255 255 255  255 255 255  255 255 255  255 255 255  255 255 255
255 255 255  255 255 255  255 255 255  255 255 255  255 255 255  255 255 255
255 255 255  255 255 255  255 255 255  255 255 255  255 255 255  255 255 255
255 255 255  255 255 255  255 255 255  255 255 255  255 255 255  255 255 255
255 255 255  255 255 255  255 255 255  255 255 255  255 255 255  255 255 255
255 255 255  255 255 255  255 255 255  255 255 255  255 255 255  255 255 255
255 255 255  255 255 255  255 255 255  255 255 255  255 255 255  255 255 255
255 255 255  255 255 255  255 255 255  255 255 255  255 255 255  255 255 255
255 255 255  255 255 255  255 255 255  255 255 255  255 255 255  255 255 255
255 255 255  195 226 255  44 153 255  28 145 255  28 145 255  28 145 255
28 145 255  28 145 255  28 145 255  28 145 255  28 145 255  28 145 255
28 145 255  28 145 255  28 145 255  28 145 255  28 145 255  28 145 255
28 145 255  28 145 255  28 145 255  28 145 255  28 145 255  134 197 255
255 255 255  255 255 255  255 255 255  255 255 255  255 255 255  255 255 255
255 255 255  255 255 255  255 255 255  255 255 255  255 255 255  255 255 255
134 197 255  28 145 255  28 145 255  28 145 255  28 145 255  28 145 255
28 145 255  28 145 255  28 145 255  28 145 255  28 145 255  28 145 255
28 145 255  28 145 255  28 145 255  28 145 255  28 145 255  28 145 255
89 175 255  255 255 255  255 255 255  255 255 255  255 255 255  255 255 255
255 255 255  255 255 255  255 255 255  255 255 255  255 255 255  255 255 255
255 255 255  255 255 255  255 255 255  255 255 255  255 255 255  255 255 255
255 255 255  255 255 255  255 255 255  255 255 255  225 241 255  28 145 255
28 145 255  28 145 255  28 145 255  28 145 255  28 145 255  28 145 255
28 145 255  28 145 255  28 145 255  28 145 255  28 145 255  28 145 255
28 145 255  28 145 255  28 145 255  28 145 255  28 145 255  28 145 255
165 211 255  255 255 255  255 255 255  255 255 255  255 255 255  255 255 255
255 255 255  255 255 255  255 255 255  255 255 255  255 255 255  255 255 255
255 255 255  255 255 255  255 255 255  255 255 255  255 255 255  255 255 255
255 255 255  255 255 255  255 255 255  255 255 255
28 145 255  28 145 255  28 145 255  28 145 255  28 145 255  28 145 255
28 145 255  28 145 255  28 145 255  28 145 255  28 145 255  28 145 255
28 145 255  28 145 255  28 145 255  28 145 255  28 145 255  28 145 255
28 145 255  28 145 255  255 255 255  255 255 255  255 255 255  255 255 255
255 255 255  255 255 255  255 255 255  255 255 255  255 255 255  255 255 255
255 255 255  255 255 255  255 255 255  255 255 255  255 255 255  255 255 255
255 255 255  255 255 255  255 255 255  255 255 255  255 255 255  255 255 255
255 255 255  255 255 255  255 255 255  255 255 255  255 255 255  255 255 255
255 255 255  255 255 255  255 255 255  255 255 255  255 255 255  255 255 255
255 255 255  255 255 255  255 255 255  255 255 255  255 255 255  255 255 255
255 255 255  255 255 255  255 255 255  255 255 255  255 255 255  255 255 255
255 255 255  255 255 255  255 255 255  255 255 255  255 255 255  255 255 255
255 255 255  255 255 255  255 255 255  255 255 255  255 255 255  255 255 255
255 255 255  255 255 255  255 255 255  255 255 255  255 255 255  255 255 255
255 255 255  255 255 255  255 255 255  255 255 255  255 255 255  255 255 255
255 255 255  255 255 255  255 255 255  255 255 255  255 255 255  255 255 255
255 255 255  255 255 255  255 255 255  255 255 255  255 255 255  255 255 255
255 255 255  255 255 255  255 255 255  255 255 255  255 255 255  255 255 255
255 255 255  255 255 255  255 255 255  255 255 255  255 255 255  255 255 255
255 255 255  255 255 255  255 255 255  255 255 255  255 255 255  255 255 255
255 255 255  255 255 255  255 255 255  255 255 255  255 255 255  255 255 255
255 255 255  255 255 255  255 255 255  255 255 255  255 255 255  255 255 255
255 255 255  255 255 255  255 255 255  255 255 255  255 255 255  255 255 255
255 255 255  255 255 255  225 241 255  59 160 255  28 145 255  28 145 255
28 145 255  28 145 255  28 145 255  28 145 255  28 145 255  28 145 255
28 145 255  28 145 255  28 145 255  28 145 255  28 145 255  28 145 255
28 145 255  28 145 255  28 145 255  28 145 255  28 145 255  119 189 255
255 255 255  255 255 255  255 255 255  255 255 255  255 255 255  255 255 255
255 255 255  255 255 255  255 255 255  255 255 255  255 255 255  255 255 255
134 197 255  28 145 255  28 145 255  28 145 255  28 145 255  28 145 255
28 145 255  28 145 255  28 145 255  28 145 255  28 145 255  28 145 255
28 145 255  28 145 255  28 145 255  28 145 255  28 145 255  28 145 255
89 175 255  255 255 255  255 255 255  255 255 255  255 255 255  255 255 255
255 255 255  255 255 255  255 255 255  255 255 255  255 255 255  255 255 255
255 255 255  255 255 255  255 255 255  255 255 255  255 255 255  255 255 255
255 255 255  255 255 255  255 255 255  255 255 255  255 255 255  119 189 255
28 145 255  28 145 255  28 145 255  28 145 255  28 145 255  28 145 255
28 145 255  28 145 255  28 145 255  28 145 255  28 145 255  28 145 255
28 145 255  28 145 255  28 145 255  28 145 255  28 145 255  28 145 255
59 160 255  255 255 255  255 255 255  255 255 255  255 255 255  255 255 255
255 255 255  255 255 255  255 255 255  255 255 255  255 255 255  255 255 255
255 255 255  255 255 255  255 255 255  255 255 255  255 255 255  255 255 255
255 255 255  255 255 255  255 255 255  255 255 255
59 160 255  28 145 255  28 145 255  28 145 255  28 145 255  28 145 255
28 145 255  28 145 255  28 145 255  28 145 255  28 145 255  28 145 255
28 145 255  28 145 255  28 145 255  28 145 255  28 145 255  28 145 255
28 145 255  28 145 255  255 255 255  255 255 255  255 255 255  255 255 255
255 255 255  255 255 255  255 255 255  255 255 255  255 255 255  255 255 255
255 255 255  255 255 255  255 255 255  255 255 255  255 255 255  255 255 255
255 255 255  255 255 255  255 255 255  255 255 255  255 255 255  255 255 255
255 255 255  255 255 255  255 255 255  255 255 255  255 255 255  255 255 255
255 255 255  255 255 255  255 255 255  255 255 255  255 255 255  255 255 255
255 255 255  255 255 255  255 255 255  255 255 255  255 255 255  255 255 255
255 255 255  255 255 255  255 255 255  255 255 255  255 255 255  255 255 255
255 255 255  255 255 255  255 255 255  255 255 255  255 255 255  255 255 255
255 255 255  255 255 255  255 255 255  255 255 255  255 255 255  255 255 255
255 255 255  255 255 255  255 255 255  255 255 255  255 255 255  255 255 255
255 255 255  255 255 255  255 255 255  255 255 255  255 255 255  255 255 255
255 255 255  255 255 255  255 255 255  255 255 255  255 255 255  255 255 255
255 255 255  255 255 255  255 255 255  255 255 255  255 255 255  255 255 255
255 255 255  255 255 255  255 255 255  255 255 255  255 255 255  255 255 255
255 255 255  255 255 255  255 255 255  255 255 255  255 255 255  255 255 255
255 255 255  255 255 255  255 255 255  255 255 255  255 255 255  255 255 255
255 255 255  255 255 255  255 255 255  255 255 255  255 255 255  255 255 255
255 255 255  255 255 255  255 255 255  255 255 255  255 255 255  255 255 255
255 255 255  255 255 255  255 255 255  255 255 255  255 255 255  255 255 255
255 255 255  255 255 255  255 255 255  165 211 255  28 145 255  28 145 255
28 145 255  28 145 255  28 145 255  28 145 255  28 145 255  28 145 255
28 145 255  28 145 255  28 145 255  28 145 255  28 145 255  28 145 255
28 145 255  28 145 255  28 145 255  28 145 255  28 145 255  89 175 255
255 255 255  255 255 255  255 255 255  255 255 255  255 255 255  255 255 255
255 255 255  255 255 255  255 255 255  255 255 255  255 255 255  255 255 255
89 175 255  28 145 255  28 145 255  28 145 255  28 145 255  28 145 255
28 145 255  28 145 255  28 145 255  28 145 255  28 145 255  28 145 255
28 145 255  28 145 255  28 145 255  28 145 255  28 145 255  28 145 255
119 189 255  255 255 255  255 255 255  255 255 255  255 255 255  255 255 255
255 255 255  255 255 255  255 255 255  255 255 255  255 255 255  255 255 255
255 255 255  255 255 255  255 255 255  255 255 255  255 255 255  255 255 255
255 255 255  255 255 255  255 255 255  255 255 255  255 255 255  210 233 255
28 145 255  28 145 255  28 145 255  28 145 255  28 145 255  28 145 255
28 145 255  28 145 255  28 145 255  28 145 255  28 145 255  28 145 255
28 145 255  28 145 255  28 145 255  28 145 255  28 145 255  28 145 255
28 145 255  165 211 255  255 255 255  255 255 255  255 255 255  255 255 255
255 255 255  255 255 255  255 255 255  255 255 255  255 255 255  255 255 255
255 255 255  255 255 255  255 255 255  255 255 255  255 255 255  255 255 255
255 255 255  255 255 255  255 255 255  255 255 255
89 175 255  28 145 255  28 145 255  28 145 255  28 145 255  28 145 255
28 145 255  28 145 255  28 145 255  28 145 255  28 145 255  28 145 255
28 145 255  28 145 255  28 145 255  28 145 255  28 145 255  28 145 255
28 145 255  28 145 255  195 226 255  255 255 255  255 255 255  255 255 255
255 255 255  255 255 255  255 255 255  255 255 255  255 255 255  255 255 255
255 255 255  255 255 255  255 255 255  255 255 255  255 255 255  255 255 255
255 255 255  255 255 255  255 255 255  255 255 255  255 255 255  255 255 255
255 255 255  255 255 255  255 255 255  255 255 255  255 255 255  255 255 255
255 255 255  255 255 255  255 255 255  255 255 255  255 255 255  255 255 255
255 255 255  255 255 255  255 255 255  255 255 255  255 255 255  255 255 255
255 255 255  255 255 255  255 255 255  255 255 255  255 255 255  255 255 255
255 255 255  255 255 255  255 255 255  255 255 255  255 255 255  255 255 255
255 255 255  255 255 255  255 255 255  255 255 255  255 255 255  255 255 255
255 255 255  255 255 255  255 255 255  255 255 255  255 255 255  255 255 255
255 255 255  255 255 255  255 255 255  255 255 255  255 255 255  255 255 255
255 255 255  255 255 255  255 255 255  255 255 255  255 255 255  255 255 255
255 255 255  255 255 255  255 255 255  255 255 255  255 255 255  255 255 255
255 255 255  255 255 255  255 255 255  255 255 255  255 255 255  255 255 255
255 255 255  255 255 255  255 255 255  255 255 255  255 255 255  255 255 255
255 255 255  255 255 255  255 255 255  255 255 255  255 255 255  255 255 255
255 255 255  255 255 255  255 255 255  255 255 255  255 255 255  255 255 255
255 255 255  255 255 255  255 255 255  255 255 255  255 255 255  255 255 255
255 255 255  255 255 255  255 255 255  255 255 255  255 255 255  255 255 255
255 255 255  255 255 255  255 255 255  255 255 255  28 145 255  28 145 255
28 145 255  28 145 255  28 145 255  28 145 255  28 145 255  28 145 255
28 145 255  28 145 255  28 145 255  28 145 255  28 145 255  28 145 255
28 145 255  28 145 255  28 145 255  28 145 255  28 145 255  89 175 255
255 255 255  255 255 255  255 255 255  255 255 255  255 255 255  255 255 255
255 255 255  255 255 255  255 255 255  255 255 255  255 255 255  255 255 255
89 175 255  28 145 255  28 145 255  28 145 255  28 145 255  28 145 255
28 145 255  28 145 255  28 145 255  28 145 255  28 145 255  28 145 255
28 145 255  28 145 255  28 145 255  28 145 255  28 145 255  28 145 255
134 197 255  255 255 255  255 255 255  255 255 255  255 255 255  255 255 255
255 255 255  255 255 255  255 255 255  255 255 255  255 255 255  255 255 255
255 255 255  255 255 255  255 255 255  255 255 255  255 255 255  255 255 255
255 255 255  255 255 255  255 255 255  255 255 255  255 255 255  255 255 255
89 175 255  28 145 255  28 145 255  28 145 255  28 145 255  28 145 255
28 145 255  28 145 255  28 145 255  28 145 255  28 145 255  28 145 255
28 145 255  28 145 255  28 145 255  28 145 255  28 145 255  28 145 255
28 145 255  59 160 255  255 255 255  255 255 255  255 255 255  255 255 255
255 255 255  255 255 255  255 255 255  255 255 255  255 255 255  255 255 255
255 255 255  255 255 255  255 255 255  255 255 255  255 255 255  255 255 255
255 255 255  255 255 255  255 255 255  255 255 255
119 189 255  28 145 255  28 145 255  28 145 255  28 145 255  28 145 255
28 145 255  28 145 255  28 145 255  28 145 255  28 145 255  28 145 255
28 145 255  28 145 255  28 145 255  28 145 255  28 145 255  28 145 255
28 145 255  28 145 255  165 211 255  255 255 255  255 255 255  255 255 255
255 255 255  255 255 255  255 255 255  255 255 255  255 255 255  255 255 255
255 255 255  255 255 255  255 255 255  255 255 255  255 255 255  255 255 255
255 255 255  255 255 255  255 255 255  255 255 255  255 255 255  255 255 255
255 255 255  255 255 255  255 255 255  255 255 255  255 255 255  255 255 255
255 255 255  255 255 255  255 255 255  255 255 255  255 255 255  255 255 255
255 255 255  255 255 255  255 255 255  255 255 255  255 255 255  255 255 255
255 255 255  255 255 255  255 255 255  255 255 255  255 255 255  255 255 255
255 255 255  255 255 255  255 255 255  255 255 255  255 255 255  255 255 255
255 255 255  255 255 255  255 255 255  255 255 255  255 255 255  255 255 255
255 255 255  255 255 255  255 255 255  255 255 255  255 255 255  255 255 255
255 255 255  255 255 255  255 255 255  255 255 255  255 255 255  255 255 255
255 255 255  255 255 255  255 255 255  255 255 255  255 255 255  255 255 255
255 255 255  255 255 255  255 255 255  255 255 255  255 255 255  255 255 255
255 255 255  255 255 255  255 255 255  255 255 255  255 255 255  255 255 255
255 255 255  255 255 255  255 255 255  255 255 255  255 255 255  255 255 255
255 255 255  255 255 255  255 255 255  255 255 255  255 255 255  255 255 255
255 255 255  255 255 255  255 255 255  255 255 255  255 255 255  255 255 255
255 255 255  255 255 255  255 255 255  255 255 255  255 255 255  255 255 255
255 255 255  255 255 255  255 255 255  255 255 255  255 255 255  255 255 255
255 255 255  255 255 255  255 255 255  255 255 255  74 167 255  28 145 255
28 145 255  28 145 255  28 145 255  28 145 255  28 145 255  28 145 255
28 145 255  28 145 255  28 145 255  28 145 255  28 145 255  28 145 255
28 145 255  28 145 255  28 145 255  28 145 255  28 145 255  119 189 255
255 255 255  255 255 255  255 255 255  255 255 255  255 255 255  255 255 255
255 255 255  255 255 255  255 255 255  255 255 255  255 255 255  255 255 255
74 167 255  28 145 255  28 145 255  28 145 255  28 145 255  28 145 255
28 145 255  28 145 255  28 145 255  28 145 255  28 145 255  28 145 255
28 145 255  28 145 255  28 145 255  28 145 255  28 145 255  28 145 255
134 197 255  255 255 255  255 255 255  255 255 255  255 255 255  255 255 255
255 255 255  255 255 255  255 255 255  255 255 255  255 255 255  255 255 255
255 255 255  255 255 255  255 255 255  255 255 255  255 255 255  255 255 255
255 255 255  255 255 255  255 255 255  255 255 255  255 255 255  255 255 255
195 226 255  28 145 255  28 145 255  28 145 255  28 145 255  28 145 255
28 145 255  28 145 255  28 145 255  28 145 255  28 145 255  28 145 255
28 145 255  28 145 255  28 145 255  28 145 255  28 145 255  28 145 255
28 145 255  28 145 255  165 211 255  255 255 255  255 255 255  255 255 255
255 255 255  255 255 255  255 255 255  255 255 255  255 255 255  255 255 255
255 255 255  255 255 255  255 255 255  255 255 255  255 255 255  255 255 255
255 255 255  255 255 255  255 255 255  255 255 255
134 197 255  28 145 255  28 145 255  28 145 255  28 145 255  28 145 255
28 145 255  28 145 255  28 145 255  28 145 255  28 145 255  28 145 255
28 145 255  28 145 255  28 145 255  28 145 255  28 145 255  28 145 255
28 145 255  28 145 255  134 197 255  255 255 255  255 255 255  255 255 255
255 255 255  255 255 255  255 255 255  255 255 255  255 255 255  255 255 255
255 255 255  255 255 255  255 255 255  255 255 255  255 255 255  255 255 255
255 255 255  255 255 255  255 255 255  255 255 255  255 255 255  255 255 255
255 255 255  255 255 255  255 255 255  255 255 255  255 255 255  255 255 255
255 255 255  255 255 255  255 255 255  255 255 255  255 255 255  255 255 255
255 255 255  255 255 255  255 255 255  255 255 255  255 255 255  255 255 255
255 255 255  255 255 255  255 255 255  255 255 255  255 255 255  255 255 255
255 255 255  255 255 255  255 255 255  255 255 255  255 255 255  255 255 255
255 255 255  255 255 255  255 255 255  255 255 255  255 255 255  255 255 255
255 255 255  255 255 255  255 255 255  255 255 255  255 255 255  255 255 255
255 255 255  255 255 255  255 255 255  255 255 255  255 255 255  255 255 255
255 255 255  255 255 255  255 255 255  255 255 255  255 255 255  255 255 255
255 255 255  255 255 255  255 255 255  255 255 255  255 255 255  255 255 255
255 255 255  255 255 255  255 255 255  255 255 255  255 255 255  255 255 255
255 255 255  255 255 255  255 255 255  255 255 255  255 255 255  255 255 255
255 255 255  255 255 255  255 255 255  255 255 255  255 255 255  255 255 255
255 255 255  255 255 255  255 255 255  255 255 255  255 255 255  255 255 255
255 255 255  255 255 255  255 255 255  255 255 255  255 255 255  255 255 255
255 255 255  255 255 255  255 255 255  255 255 255  255 255 255  255 255 255
255 255 255  255 255 255  255 255 255  255 255 255  89 175 255  28 145 255
28 145 255  28 145 255  28 145 255  28 145 255  28 145 255  28 145 255
28 145 255  28 145 255  28 145 255  28 145 255  28 145 255  28 145 255
28 145 255  28 145 255  28 145 255  28 145 255  28 145 255  134 197 255
255 255 255  255 255 255  255 255 255  255 255 255  255 255 255  255 255 255
255 255 255  255 255 255  255 255 255  255 255 255  255 255 255  255 255 255
28 145 255  28 145 255  28 145 255  28 145 255  28 145 255  28 145 255
28 145 255  28 145 255  28 145 255  28 145 255  28 145 255  28 145 255
28 145 255  28 145 255  28 145 255  28 145 255  28 145 255  28 145 255
165 211 255  255 255 255  255 255 255  255 255 255  255 255 255  255 255 255
255 255 255  255 255 255  255 255 255  255 255 255  255 255 255  255 255 255
255 255 255  255 255 255  255 255 255  255 255 255  255 255 255  255 255 255
255 255 255  255 255 255  255 255 255  255 255 255  255 255 255  255 255 255
255 255 255  89 175 255  28 145 255  28 145 255  28 145 255  28 145 255
28 145 255  28 145 255  28 145 255  28 145 255  28 145 255  28 145 255
28 145 255  28 145 255  28 145 255  28 145 255  28 145 255  28 145 255
28 145 255  28 145 255  59 160 255  255 255 255  255 255 255  255 255 255
255 255 255  255 255 255  255 255 255  255 255 255  255 255 255  255 255 255
255 255 255  255 255 255  255 255 255  255 255 255  255 255 255  255 255 255
255 255 255  255 255 255  255 255 255  255 255 255
180 219 255  28 145 255  28 145 255  28 145 255  28 145 255  28 145 255
28 145 255  28 145 255  28 145 255  28 145 255  28 145 255  28 145 255
28 145 255  28 145 255  28 145 255  28 145 255  28 145 255  28 145 255
28 145 255  28 145 255  74 167 255  255 255 255  255 255 255  255 255 255
255 255 255  255 255 255  255 255 255  255 255 255  255 255 255  255 255 255
255 255 255  255 255 255  255 255 255  255 255 255  255 255 255  255 255 255
255 255 255  255 255 255  255 255 255  255 255 255  255 255 255  255 255 255
255 255 255  255 255 255  255 255 255  255 255 255  255 255 255  255 255 255
255 255 255  255 255 255  255 255 255  255 255 255  255 255 255  255 255 255
255 255 255  255 255 255  255 255 255  255 255 255  255 255 255  255 255 255
255 255 255  255 255 255  255 255 255  255 255 255  255 255 255  255 255 255
255 255 255  255 255 255  255 255 255  255 255 255  255 255 255  255 255 255
255 255 255  255 255 255  255 255 255  255 255 255  255 255 255  255 255 255
255 255 255  255 255 255  255 255 255  255 255 255  255 255 255  255 255 255
255 255 255  255 255 255  255 255 255  255 255 255  255 255 255  255 255 255
255 255 255  255 255 255  255 255 255  255 255 255  255 255 255  255 255 255
255 255 255  255 255 255  255 255 255  255 255 255  255 255 255  255 255 255
255 255 255  255 255 255  255 255 255  255 255 255  255 255 255  255 255 255
255 255 255  255 255 255  255 255 255  255 255 255  255 255 255  255 255 255
255 255 255  255 255 255  255 255 255  255 255 255  255 255 255  255 255 255
255 255 255  255 255 255  255 255 255  255 255 255  255 255 255  255 255 255
255 255 255  255 255 255  255 255 255  255 255 255  255 255 255  255 255 255
255 255 255  255 255 255  255 255 255  255 255 255  255 255 255  255 255 255
255 255 255  255 255 255  255 255 255  255 255 255  89 175 255  28 145 255
28 145 255  28 145 255  28 145 255  28 145 255  28 145 255  28 145 255
28 145 255  28 145 255  28 145 255  28 145 255  28 145 255  28 145 255
28 145 255  28 145 255  28 145 255  28 145 255  28 145 255  134 197 255
255 255 255  255 255 255  255 255 255  255 255 255  255 255 255  255 255 255
255 255 255  255 255 255  255 255 255  255 255 255  255 255 255  255 255 255
28 145 255  28 145 255  28 145 255  28 145 255  28 145 255  28 145 255
28 145 255  28 145 255  28 145 255  28 145 255  28 145 255  28 145 255
28 145 255  28 145 255  28 145 255  28 145 255  28 145 255  28 145 255
195 226 255  255 255 255  255 255 255  255 255 255  255 255 255  255 255 255
255 255 255  255 255 255  255 255 255  255 255 255  255 255 255  255 255 255
255 255 255  255 255 255  255 255 255  255 255 255  255 255 255  255 255 255
255 255 255  255 255 255  255 255 255  255 255 255  255 255 255  255 255 255
255 255 255  195 226 255  28 145 255  28 145 255  28 145 255  28 145 255
28 145 255  28 145 255  28 145 255  28 145 255  28 145 255  28 145 255
28 145 255  28 145 255  28 145 255  28 145 255  28 145 255  28 145 255
28 145 255  28 145 255  28 145 255  165 211 255  255 255 255  255 255 255
255 255 255  255 255 255  255 255 255  255 255 255  255 255 255  255 255 255
255 255 255  255 255 255  255 255 255  255 255 255  255 255 255  255 255 255
255 255 255  255 255 255  255 255 255  255 255 255
210 233 255  28 145 255  28 145 255  28 145 255  28 145 255  28 145 255
28 145 255  28 145 255  28 145 255  28 145 255  28 145 255  28 145 255
28 145 255  28 145 255  28 145 255  28 145 255  28 145 255  28 145 255
28 145 255  28 145 255  28 145 255  225 241 255  255 255 255  255 255 255
255 255 255  255 255 255  255 255 255  255 255 255  255 255 255  255 255 255
255 255 255  255 255 255  255 255 255  255 255 255  255 255 255  255 255 255
255 255 255  255 255 255  255 255 255  255 255 255  255 255 255  255 255 255
255 255 255  255 255 255  255 255 255  255 255 255  255 255 255  255 255 255
255 255 255  255 255 255  255 255 255  255 255 255  255 255 255  255 255 255
255 255 255  255 255 255  255 255 255  255 255 255  255 255 255  255 255 255
255 255 255  255 255 255  255 255 255  255 255 255  255 255 255  255 255 255
255 255 255  255 255 255  255 255 255  255 255 255  255 255 255  255 255 255
255 255 255  255 255 255  255 255 255  255 255 255  255 255 255  255 255 255
255 255 255  255 255 255  255 255 255  255 255 255  255 255 255  255 255 255
255 255 255  255 255 255  255 255 255  255 255 255  255 255 255  255 255 255
255 255 255  255 255 255  255 255 255  255 255 255  255 255 255  255 255 255
255 255 255  255 255 255  255 255 255  255 255 255  255 255 255  255 255 255
255 255 255  255 255 255  255 255 255  255 255 255  255 255 255  255 255 255
255 255 255  255 255 255  255 255 255  255 255 255  255 255 255  255 255 255
255 255 255  255 255 255  255 255 255  255 255 255  255 255 255  255 255 255
255 255 255  255 255 255  255 255 255  255 255 255  255 255 255  255 255 255
255 255 255  255 255 255  255 255 255  255 255 255  255 255 255  255 255 255
255 255 255  255 255 255  255 255 255  255 255 255  255 255 255  255 255 255
255 255 255  255 255 255  255 255 255  255 255 255  89 175 255  28 145 255
28 145 255  28 145 255  28 145 255  28 145 255  28 145 255  28 145 255
28 145 255  28 145 255  28 145 255  28 145 255  28 145 255  28 145 255
28 145 255  28 145 255  28 145 255  28 145 255  28 145 255  150 204 255
255 255 255  255 255 255  255 255 255  255 255 255  255 255 255  255 255 255
255 255 255  255 255 255  255 255 255  255 255 255  255 255 255  240 248 255
28 145 255  28 145 255  28 145 255  28 145 255  28 145 255  28 145 255
28 145 255  28 145 255  28 145 255  28 145 255  28 145 255  28 145 255
28 145 255  28 145 255  28 145 255  28 145 255  28 145 255  28 145 255
195 226 255  255 255 255  255 255 255  255 255 255  255 255 255  255 255 255
255 255 255  255 255 255  255 255 255  255 255 255  255 255 255  255 255 255
255 255 255  255 255 255  255 255 255  255 255 255  255 255 255  255 255 255
255 255 255  255 255 255  255 255 255  255 255 255  255 255 255  255 255 255
255 255 255  255 255 255  89 175 255  28 145 255  28 145 255  28 145 255
28 145 255  28 145 255  28 145 255  28 145 255  28 145 255  28 145 255
28 145 255  28 145 255  28 145 255  28 145 255  28 145 255  28 145 255
28 145 255  28 145 255  28 145 255  59 160 255  255 255 255  255 255 255
255 255 255  255 255 255  255 255 255  255 255 255  255 255 255  255 255 255
255 255 255  255 255 255  255 255 255  255 255 255  255 255 255  255 255 255
255 255 255  255 255 255  255 255 255  255 255 255
255 255 255  44 153 255  28 145 255  28 145 255  28 145 255  28 145 255
28 145 255  28 145 255  28 145 255  28 145 255  28 145 255  28 145 255
28 145 255  28 145 255  28 145 255  28 145 255  28 145 255  28 145 255
28 145 255  28 145 255  28 145 255  150 204 255  255 255 255  255 255 255
255 255 255  255 255 255  255 255 255  255 255 255  255 255 255  255 255 255
255 255 255  255 255 255  255 255 255  255 255 255  255 255 255  255 255 255
255 255 255  255 255 255  255 255 255  255 255 255  255 255 255  255 255 255
255 255 255  255 255 255  255 255 255  255 255 255  255 255 255  255 255 255
255 255 255  255 255 255  255 255 255  255 255 255  255 255 255  255 255 255
255 255 255  255 255 255  255 255 255  255 255 255  255 255 255  255 255 255
255 255 255  255 255 255  255 255 255  255 255 255  255 255 255  255 255 255
255 255 255  255 255 255  255 255 255  255 255 255  255 255 255  255 255 255
255 255 255  255 255 255  255 255 255  255 255 255  255 255 255  255 255 255
255 255 255  255 255 255  255 255 255  255 255 255  255 255 255  255 255 255
255 255 255  255 255 255  255 255 255  255 255 255  255 255 255  255 255 255
255 255 255  255 255 255  255 255 255  255 255 255  255 255 255  255 255 255
255 255 255  255 255 255  255 255 255  255 255 255  255 255 255  255 255 255
255 255 255  255 255 255  255 255 255  255 255 255  255 255 255  255 255 255
255 255 255  255 255 255  255 255 255  255 255 255  255 255 255  255 255 255
255 255 255  255 255 255  255 255 255  255 255 255  255 255 255  255 255 255
255 255 255  255 255 255  255 255 255  255 255 255  255 255 255  255 255 255
255 255 255  255 255 255  255 255 255  255 255 255  255 255 255  255 255 255
255 255 255  255 255 255  255 255 255  255 255 255  255 255 255  255 255 255
255 255 255  255 255 255  255 255 255  255 255 255  74 167 255  28 145 255
28 145 255  28 145 255  28 145 255  28 145 255  28 145 255  28 145 255
28 145 255  28 145 255  28 145 255  28 145 255  28 145 255  28 145 255
28 145 255  28 145 255  28 145 255  28 145 255  28 145 255  195 226 255
255 255 255  255 255 255  255 255 255  255 255 255  255 255 255  255 255 255
255 255 255  255 255 255  255 255 255  255 255 255  255 255 255  195 226 255
28 145 255  28 145 255  28 145 255  28 145 255  28 145 255  28 145 255
28 145 255  28 145 255  28 145 255  28 145 255  28 145 255  28 145 255
28 145 255  28 145 255  28 145 255  28 145 255  28 145 255  28 145 255
225 241 255  255 255 255  255 255 255  255 255 255  255 255 255  255 255 255
255 255 255  255 255 255  255 255 255  255 255 255  255 255 255  255 255 255
255 255 255  255 255 255  255 255 255  255 255 255  255 255 255  255 255 255
255 255 255  255 255 255  255 255 255  255 255 255  255 255 255  255 255 255
255 255 255  255 255 255  165 211 255  28 145 255  28 145 255  28 145 255
28 145 255  28 145 255  28 145 255  28 145 255  28 145 255  28 145 255
28 145 255  28 145 255  28 145 255  28 145 255  28 145 255  28 145 255
28 145 255  28 145 255  28 145 255  28 145 255  165 211 255  255 255 255
255 255 255  255 255 255  255 255 255  255 255 255  255 255 255  255 255 255
255 255 255  255 255 255  255 255 255  255 255 255  255 255 255  255 255 255
255 255 255  255 255 255  255 255 255  255 255 255
255 255 255  104 182 255  28 145 255  28 145 255  28 145 255  28 145 255
28 145 255  28 145 255  28 145 255  28 145 255  28 145 255  28 145 255
28 145 255  28 145 255  28 145 255  28 145 255  28 145 255  28 145 255
28 145 255  28 145 255  28 145 255  59 160 255  255 255 255  255 255 255
255 255 255  255 255 255  255 255 255  255 255 255  255 255 255  255 255 255
255 255 255  255 255 255  255 255 255  255 255 255  255 255 255  255 255 255
255 255 255  255 255 255  255 255 255  255 255 255  255 255 255  255 255 255
255 255 255  255 255 255  255 255 255  255 255 255  255 255 255  255 255 255
255 255 255  255 255 255  255 255 255  255 255 255  255 255 255  255 255 255
255 255 255  255 255 255  255 255 255  255 255 255  255 255 255  255 255 255
255 255 255  255 255 255  255 255 255  255 255 255  255 255 255  255 255 255
255 255 255  255 255 255  255 255 255  255 255 255  255 255 255  255 255 255
255 255 255  255 255 255  255 255 255  255 255 255  255 255 255  255 255 255
255 255 255  255 255 255  255 255 255  255 255 255  255 255 255  255 255 255
255 255 255  255 255 255  255 255 255  255 255 255  255 255 255  255 255 255
255 255 255  255 255 255  255 255 255  255 255 255  255 255 255  255 255 255
255 255 255  255 255 255  255 255 255  255 255 255  255 255 255  255 255 255
255 255 255  255 255 255  255 255 255  255 255 255  255 255 255  255 255 255
255 255 255  255 255 255  255 255 255  255 255 255  255 255 255  255 255 255
255 255 255  255 255 255  255 255 255  255 255 255  255 255 255  255 255 255
255 255 255  255 255 255  255 255 255  255 255 255  255 255 255  255 255 255
255 255 255  255 255 255  255 255 255  255 255 255  255 255 255  255 255 255
255 255 255  255 255 255  255 255 255  255 255 255  255 255 255  255 255 255
255 255 255  255 255 255  255 255 255  255 255 255  28 145 255  28 145 255
28 145 255  28 145 255  28 145 255  28 145 255  28 145 255  28 145 255
28 145 255  28 145 255  28 145 255  28 145 255  28 145 255  28 145 255
28 145 255  28 145 255  28 145 255  28 145 255  28 145 255  225 241 255
255 255 255  255 255 255  255 255 255  255 255 255  255 255 255  255 255 255
255 255 255  255 255 255  255 255 255  255 255 255  255 255 255  195 226 255
28 145 255  28 145 255  28 145 255  28 145 255  28 145 255  28 145 255
28 145 255  28 145 255  28 145 255  28 145 255  28 145 255  28 145 255
28 145 255  28 145 255  28 145 255  28 145 255  28 145 255  28 145 255
255 255 255  255 255 255  255 255 255  255 255 255  255 255 255  255 255 255
255 255 255  255 255 255  255 255 255  255 255 255  255 255 255  255 255 255
255 255 255  255 255 255  255 255 255  255 255 255  255 255 255  255 255 255
255 255 255  255 255 255  255 255 255  255 255 255  255 255 255  255 255 255
255 255 255  255 255 255  255 255 255  59 160 255  28 145 255  28 145 255
28 145 255  28 145 255  28 145 255  28 145 255  28 145 255  28 145 255
28 145 255  28 145 255  28 145 255  28 145 255  28 145 255  28 145 255
28 145 255  28 145 255  28 145 255  28 145 255  44 153 255  240 248 255
255 255 255  255 255 255  255 255 255  255 255 255  255 255 255  255 255 255
255 255 255  255 255 255  255 255 255  255 255 255  255 255 255  255 255 255
255 255 255  255 255 255  255 255 255  255 255 255
255 255 255  150 204 255  28 145 255  28 145 255  28 145 255  28 145 255
28 145 255  28 145 255  28 145 255  28 145 255  28 145 255  28 145 255
28 145 255  28 145 255  28 145 255  28 145 255  28 145 255  28 145 255
28 145 255  28 145 255  28 145 255  28 145 255  150 204 255  255 255 255
255 255 255  255 255 255  255 255 255  255 255 255  255 255 255  255 255 255
255 255 255  255 255 255  255 255 255  255 255 255  255 255 255  255 255 255
255 255 255  255 255 255  255 255 255  255 255 255  255 255 255  255 255 255
255 255 255  255 255 255  255 255 255  255 255 255  255 255 255  255 255 255
255 255 255  255 255 255  255 255 255  255 255 255  255 255 255  255 255 255
255 255 255  255 255 255  255 255 255  255 255 255  255 255 255  255 255 255
255 255 255  255 255 255  255 255 255  255 255 255  255 255 255  255 255 255
255 255 255  255 255 255  255 255 255  255 255 255  255 255 255  255 255 255
255 255 255  255 255 255  255 255 255  255 255 255  255 255 255  255 255 255
255 255 255  255 255 255  255 255 255  255 255 255  255 255 255  255 255 255
255 255 255  255 255 255  255 255 255  255 255 255  255 255 255  255 255 255
255 255 255  255 255 255  255 255 255  255 255 255  255 255 255  255 255 255
255 255 255  255 255 255  255 255 255  255 255 255  255 255 255  255 255 255
255 255 255  255 255 255  255 255 255  255 255 255  255 255 255  255 255 255
255 255 255  255 255 255  255 255 255  255 255 255  255 255 255  255 255 255
255 255 255  255 255 255  255 255 255  255 255 255  255 255 255  255 255 255
255 255 255  255 255 255  255 255 255  255 255 255  255 255 255  255 255 255
255 255 255  255 255 255  255 255 255  255 255 255  255 255 255  255 255 255
255 255 255  255 255 255  255 255 255  255 255 255  255 255 255  255 255 255
255 255 255  255 255 255  255 255 255  195 226 255  28 145 255  28 145 255
28 145 255  28 145 255  28 145 255  28 145 255  28 145 255  28 145 255
28 145 255  28 145 255  28 145 255  28 145 255  28 145 255  28 145 255
28 145 255  28 145 255  28 145 255  28 145 255  28 145 255  255 255 255
255 255 255  255 255 255  255 255 255  255 255 255  255 255 255  255 255 255
255 255 255  255 255 255  255 255 255  255 255 255  255 255 255  180 219 255
28 145 255  28 145 255  28 145 255  28 145 255  28 145 255  28 145 255
28 145 255  28 145 255  28 145 255  28 145 255  28 145 255  28 145 255
28 145 255  28 145 255  28 145 255  28 145 255  28 145 255  28 145 255
255 255 255  255 255 255  255 255 255  255 255 255  255 255 255  255 255 255
255 255 255  255 255 255  255 255 255  255 255 255  255 255 255  255 255 255
255 255 255  255 255 255  255 255 255  255 255 255  255 255 255  255 255 255
255 255 255  255 255 255  255 255 255  255 255 255  255 255 255  255 255 255
255 255 255  255 255 255  255 255 255  165 211 255  28 145 255  28 145 255
28 145 255  28 145 255  28 145 255  28 145 255  28 145 255  28 145 255
28 145 255  28 145 255  28 145 255  28 145 255  28 145 255  28 145 255
28 145 255  28 145 255  28 145 255  28 145 255  28 145 255  134 197 255
255 255 255  255 255 255  255 255 255  255 255 255  255 255 255  255 255 255
255 255 255  255 255 255  255 255 255  255 255 255  255 255 255  255 255 255
255 255 255  255 255 255  255 255 255  255 255 255
255 255 255  210 233 255  28 145 255  28 145 255  28 145 255  28 145 255
28 145 255  28 145 255  28 145 255  28 145 255  28 145 255  28 145 255
28 145 255  28 145 255  28 145 255  28 145 255  28 145 255  28 145 255
28 145 255  28 145 255  28 145 255  28 145 255  44 153 255  225 241 255
255 255 255  255 255 255  255 255 255  255 255 255  255 255 255  255 255 255
255 255 255  255 255 255  255 255 255  255 255 255  255 255 255  255 255 255
255 255 255  255 255 255  255 255 255  255 255 255  255 255 255  255 255 255
255 255 255  255 255 255  255 255 255  255 255 255  255 255 255  255 255 255
255 255 255  255 255 255  255 255 255  255 255 255  255 255 255  255 255 255
255 255 255  255 255 255  255 255 255  255 255 255  255 255 255  255 255 255
255 255 255  255 255 255  255 255 255  255 255 255  255 255 255  255 255 255
255 255 255  255 255 255  255 255 255  255 255 255  255 255 255  255 255 255
255 255 255  255 255 255  255 255 255  255 255 255  255 255 255  255 255 255
255 255 255  255 255 255  255 255 255  255 255 255  255 255 255  255 255 255
255 255 255  255 255 255  255 255 255  255 255 255  255 255 255  255 255 255
255 255 255  255 255 255  255 255 255  255 255 255  255 255 255  255 255 255
255 255 255  255 255 255  255 255 255  255 255 255  255 255 255  255 255 255
255 255 255  255 255 255  255 255 255  255 255 255  255 255 255  255 255 255
255 255 255  255 255 255  255 255 255  255 255 255  255 255 255  255 255 255
255 255 255  255 255 255  255 255 255  255 255 255  255 255 255  255 255 255
255 255 255  255 255 255  255 255 255  255 255 255  255 255 255  255 255 255
255 255 255  255 255 255  255 255 255  255 255 255  255 255 255  255 255 255
255 255 255  255 255 255  255 255 255  255 255 255  255 255 255  255 255 255
255 255 255  255 255 255  255 255 255  119 189 255  28 145 255  28 145 255
28 145 255  28 145 255  28 145 255  28 145 255  28 145 255  28 145 255
28 145 255  28 145 255  28 145 255  28 145 255  28 145 255  28 145 255
28 145 255  28 145 255  28 145 255  28 145 255  89 175 255  255 255 255
255 255 255  255 255 255  255 255 255  255 255 255  255 255 255  255 255 255
255 255 255  255 255 255  255 255 255  255 255 255  255 255 255  134 197 255
28 145 255  28 145 255  28 145 255  28 145 255  28 145 255  28 145 255
28 145 255  28 145 255  28 145 255  28 145 255  28 145 255  28 145 255
28 145 255  28 145 255  28 145 255  28 145 255  28 145 255  59 160 255
255 255 255  255 255 255  255 255 255  255 255 255  255 255 255  255 255 255
255 255 255  255 255 255  255 255 255  255 255 255  255 255 255  255 255 255
255 255 255  255 255 255  255 255 255  255 255 255  255 255 255  255 255 255
255 255 255  255 255 255  255 255 255  255 255 255  255 255 255  255 255 255
255 255 255  255 255 255  255 255 255  255 255 255  59 160 255  28 145 255
28 145 255  28 145 255  28 145 255  28 145 255  28 145 255  28 145 255
28 145 255  28 145 255  28 145 255  28 145 255  28 145 255  28 145 255
28 145 255  28 145 255  28 145 255  28 145 255  28 145 255  44 153 255
240 248 255  255 255 255  255 255 255  255 255 255  255 255 255  255 255 255
255 255 255  255 255 255  255 255 255  255 255 255  255 255 255  255 255 255
255 255 255  255 255 255  255 255 255  255 255 255
255 255 255  255 255 255  59 160 255  28 145 255  28 145 255  28 145 255
28 145 255  28 145 255  28 145 255  28 145 255  28 145 255  28 145 255
28 145 255  28 145 255  28 145 255  28 145 255  28 145 255  28 145 255
28 145 255  28 145 255  28 145 255  28 145 255  28 145 255  74 167 255
240 248 255  255 255 255  255 255 255  255 255 255  255 255 255  255 255 255
255 255 255  255 255 255  255 255 255  255 255 255  255 255 255  255 255 255
255 255 255  255 255 255  255 255 255  255 255 255  255 255 255  255 255 255
255 255 255  255 255 255  255 255 255  255 255 255  255 255 255  255 255 255
255 255 255  255 255 255  255 255 255  255 255 255  255 255 255  255 255 255
255 255 255  255 255 255  255 255 255  255 255 255  255 255 255  255 255 255
255 255 255  255 255 255  255 255 255  255 255 255  255 255 255  255 255 255
255 255 255  255 255 255  255 255 255  255 255 255  255 255 255  255 255 255
255 255 255  255 255 255  255 255 255  255 255 255  255 255 255  255 255 255
255 255 255  255 255 255  255 255 255  255 255 255  255 255 255  255 255 255
255 255 255  255 255 255  255 255 255  255 255 255  255 255 255  255 255 255
255 255 255  255 255 255  255 255 255  255 255 255  255 255 255  255 255 255
255 255 255  255 255 255  255 255 255  255 255 255  255 255 255  255 255 255
255 255 255  255 255 255  255 255 255  255 255 255  255 255 255  255 255 255
255 255 255  255 255 255  255 255 255  255 255 255  255 255 255  255 255 255
255 255 255  255 255 255  255 255 255  255 255 255  255 255 255  255 255 255
255 255 255  255 255 255  255 255 255  255 255 255  255 255 255  255 255 255
255 255 255  255 255 255  255 255 255  255 255 255  255 255 255  255 255 255
255 255 255  255 255 255  255 255 255  255 255 255  255 255 255  255 255 255
255 255 255  255 255 255  225 241 255  44 153 255  28 145 255  28 145 255
28 145 255  28 145 255  28 145 255  28 145 255  28 145 255  28 145 255
28 145 255  28 145 255  28 145 255  28 145 255  28 145 255  28 145 255
28 145 255  28 145 255  28 145 255  28 145 255  119 189 255  255 255 255
255 255 255  255 255 255  255 255 255  255 255 255  255 255 255  255 255 255
255 255 255  255 255 255  255 255 255  255 255 255  255 255 255  134 197 255
28 145 255  28 145 255  28 145 255  28 145 255  28 145 255  28 145 255
28 145 255  28 145 255  28 145 255  28 145 255  28 145 255  28 145 255
28 145 255  28 145 255  28 145 255  28 145 255  28 145 255  89 175 255
255 255 255  255 255 255  255 255 255  255 255 255  255 255 255  255 255 255
255 255 255  255 255 255  255 255 255  255 255 255  255 255 255  255 255 255
255 255 255  255 255 255  255 255 255  255 255 255  255 255 255  255 255 255
255 255 255  255 255 255  255 255 255  255 255 255  255 255 255  255 255 255
255 255 255  255 255 255  255 255 255  255 255 255  165 211 255  28 145 255
28 145 255  28 145 255  28 145 255  28 145 255  28 145 255  28 145 255
28 145 255  28 145 255  28 145 255  28 145 255  28 145 255  28 145 255
28 145 255  28 145 255  28 145 255  28 145 255  28 145 255  28 145 255
134 197 255  255 255 255  255 255 255  255 255 255  255 255 255  255 255 255
255 255 255  255 255 255  255 255 255  255 255 255  255 255 255  255 255 255
255 255 255  255 255 255  255 255 255  255 255 255
255 255 255  255 255 255  150 204 255  28 145 255  28 145 255  28 145 255
28 145 255  28 145 255  28 145 255  28 145 255  28 145 255  28 145 255
28 145 255  28 145 255  28 145 255  28 145 255  28 145 255  28 145 255
28 145 255  28 145 255  28 145 255  28 145 255  28 145 255  28 145 255
74 167 255  225 241 255  255 255 255  255 255 255  255 255 255  255 255 255
255 255 255  255 255 255  255 255 255  255 255 255  255 255 255  255 255 255
255 255 255  255 255 255  255 255 255  255 255 255  255 255 255  255 255 255
255 255 255  255 255 255  255 255 255  255 255 255  255 255 255  255 255 255
255 255 255  255 255 255  255 255 255  255 255 255  255 255 255  255 255 255
255 255 255  255 255 255  255 255 255  255 255 255  255 255 255  255 255 255
255 255 255  255 255 255  255 255 255  255 255 255  255 255 255  255 255 255
255 255 255  255 255 255  255 255 255  255 255 255  255 255 255  255 255 255
255 255 255  255 255 255  255 255 255  255 255 255  255 255 255  255 255 255
255 255 255  255 255 255  255 255 255  255 255 255  255 255 255  255 255 255
255 255 255  255 255 255  255 255 255  255 255 255  255 255 255  255 255 255
255 255 255  255 255 255  255 255 255  255 255 255  255 255 255  255 255 255
255 255 255  255 255 255  255 255 255  255 255 255  255 255 255  255 255 255
255 255 255  255 255 255  255 255 255  255 255 255  255 255 255  255 255 255
255 255 255  255 255 255  255 255 255  255 255 255  255 255 255  255 255 255
255 255 255  255 255 255  255 255 255  255 255 255  255 255 255  255 255 255
255 255 255  255 255 255  255 255 255  255 255 255  255 255 255  255 255 255
255 255 255  255 255 255  255 255 255  255 255 255  255 255 255  255 255 255
255 255 255  255 255 255  255 255 255  255 255 255  255 255 255  255 255 255
255 255 255  255 255 255  74 167 255  28 145 255  28 145 255  28 145 255
28 145 255  28 145 255  28 145 255  28 145 255  28 145 255  28 145 255
28 145 255  28 145 255  28 145 255  28 145 255  28 145 255  28 145 255
28 145 255  28 145 255  28 145 255  28 145 255  150 204 255  255 255 255
255 255 255  255 255 255  255 255 255  255 255 255  255 255 255  255 255 255
255 255 255  255 255 255  255 255 255  255 255 255  255 255 255  134 197 255
28 145 255  28 145 255  28 145 255  28 145 255  28 145 255  28 145 255
28 145 255  28 145 255  28 145 255  28 145 255  28 145 255  28 145 255
28 145 255  28 145 255  28 145 255  28 145 255  28 145 255  89 175 255
255 255 255  255 255 255  255 255 255  255 255 255  255 255 255  255 255 255
255 255 255  255 255 255  255 255 255  255 255 255  255 255 255  255 255 255
255 255 255  255 255 255  255 255 255  255 255 255  255 255 255  255 255 255
255 255 255  255 255 255  255 255 255  255 255 255  255 255 255  255 255 255
255 255 255  255 255 255  255 255 255  255 255 255  255 255 255  44 153 255
28 145 255  28 145 255  28 145 255  28 145 255  28 145 255  28 145 255
28 145 255  28 145 255  28 145 255  28 145 255  28 145 255  28 145 255
28 145 255  28 145 255  28 145 255  28 145 255  28 145 255  28 145 255
44 153 255  240 248 255  255 255 255  255 255 255  255 255 255  255 255 255
255 255 255  255 255 255  255 255 255  255 255 255  255 255 255  255 255 255
255 255 255  255 255 255  255 255 255  255 255 255
255 255 255  255 255 255  225 241 255  28 145 255  28 145 255  28 145 255
28 145 255  28 145 255  28 145 255  28 145 255  28 145 255  28 145 255
28 145 255  28 145 255  28 145 255  28 145 255  28 145 255  28 145 255
28 145 255  28 145 255  28 145 255  28 145 255  28 145 255  28 145 255
28 145 255  44 153 255  165 211 255  255 255 255  255 255 255  255 255 255
255 255 255  255 255 255  255 255 255  255 255 255  255 255 255  255 255 255
255 255 255  255 255 255  255 255 255  255 255 255  255 255 255  255 255 255
255 255 255  255 255 255  255 255 255  255 255 255  255 255 255  255 255 255
255 255 255  255 255 255  255 255 255  255 255 255  255 255 255  255 255 255
255 255 255  255 255 255  255 255 255  255 255 255  255 255 255  255 255 255
255 255 255  255 255 255  255 255 255  255 255 255  255 255 255  255 255 255
255 255 255  255 255 255  255 255 255  255 255 255  255 255 255  255 255 255
255 255 255  255 255 255  255 255 255  255 255 255  255 255 255  255 255 255
255 255 255  255 255 255  255 255 255  255 255 255  255 255 255  255 255 255
255 255 255  255 255 255  255 255 255  255 255 255  255 255 255  255 255 255
255 255 255  255 255 255  255 255 255  255 255 255  255 255 255  255 255 255
255 255 255  255 255 255  255 255 255  255 255 255  255 255 255  255 255 255
255 255 255  255 255 255  255 255 255  255 255 255  255 255 255  255 255 255
255 255 255  255 255 255  255 255 255  255 255 255  255 255 255  255 255 255
255 255 255  255 255 255  255 255 255  255 255 255  255 255 255  255 255 255
255 255 255  255 255 255  255 255 255  255 255 255  255 255 255  255 255 255
255 255 255  255 255 255  255 255 255  255 255 255  255 255 255  255 255 255
255 255 255  255 255 255  255 255 255  255 255 255  255 255 255  255 255 255
240 248 255  89 175 255  28 145 255  28 145 255  28 145 255  28 145 255
28 145 255  28 145 255  28 145 255  28 145 255  28 145 255  28 145 255
28 145 255  28 145 255  28 145 255  28 145 255  28 145 255  28 145 255
28 145 255  28 145 255  28 145 255  28 145 255  225 241 255  255 255 255
255 255 255  255 255 255  255 255 255  255 255 255  255 255 255  255 255 255
255 255 255  255 255 255  255 255 255  255 255 255  255 255 255  89 175 255
28 145 255  28 145 255  28 145 255  28 145 255  28 145 255  28 145 255
28 145 255  28 145 255  28 145 255  28 145 255  28 145 255  28 145 255
28 145 255  28 145 255  28 145 255  28 145 255  28 145 255  119 189 255
255 255 255  255 255 255  255 255 255  255 255 255  255 255 255  255 255 255
255 255 255  255 255 255  255 255 255  255 255 255  255 255 255  255 255 255
255 255 255  255 255 255  255 255 255  255 255 255  255 255 255  255 255 255
255 255 255  255 255 255  255 255 255  255 255 255  255 255 255  255 255 255
255 255 255  255 255 255  255 255 255  255 255 255  255 255 255  134 197 255
28 145 255  28 145 255  28 145 255  28 145 255  28 145 255  28 145 255
28 145 255  28 145 255  28 145 255  28 145 255  28 145 255  28 145 255
28 145 255  28 145 255  28 145 255  28 145 255  28 145 255  28 145 255
28 145 255  134 197 255  255 255 255  255 255 255  255 255 255  255 255 255
255 255 255  255 255 255  255 255 255  255 255 255  255 255 255  255 255 255
255 255 255  255 255 255  255 255 255  255 255 255
255 255 255  255 255 255  255 255 255  104 182 255  28 145 255  28 145 255
28 145 255  28 145 255  28 145 255  28 145 255  28 145 255  28 145 255
28 145 255  28 145 255  28 145 255  28 145 255  28 145 255  28 145 255
28 145 255  28 145 255  28 145 255  28 145 255  28 145 255  28 145 255
28 145 255  28 145 255  28 145 255  89 175 255  165 211 255  255 255 255
255 255 255  255 255 255  255 255 255  255 255 255  255 255 255  255 255 255
255 255 255  255 255 255  255 255 255  255 255 255  255 255 255  255 255 255
255 255 255  255 255 255  255 255 255  255 255 255  255 255 255  255 255 255
255 255 255  255 255 255  255 255 255  255 255 255  255 255 255  255 255 255
255 255 255  255 255 255  255 255 255  255 255 255  255 255 255  255 255 255
255 255 255  255 255 255  255 255 255  255 255 255  255 255 255  255 255 255
255 255 255  255 255 255  255 255 255  255 255 255  255 255 255  255 255 255
255 255 255  255 255 255  255 255 255  255 255 255  255 255 255  255 255 255
255 255 255  255 255 255  255 255 255  255 255 255  255 255 255  255 255 255
255 255 255  255 255 255  255 255 255  255 255 255  255 255 255  255 255 255
255 255 255  255 255 255  255 255 255  255 255 255  255 255 255  255 255 255
255 255 255  255 255 255  255 255 255  255 255 255  255 255 255  255 255 255
255 255 255  255 255 255  255 255 255  255 255 255  255 255 255  255 255 255
255 255 255  255 255 255  255 255 255  255 255 255  255 255 255  255 255 255
255 255 255  255 255 255  255 255 255  255 255 255  255 255 255  255 255 255
255 255 255  255 255 255  255 255 255  255 255 255  255 255 255  255 255 255
255 255 255  255 255 255  255 255 255  255 255 255  255 255 255  255 255 255
255 255 255  255 255 255  255 255 255  255 255 255  255 255 255  165 211 255
59 160 255  28 145 255  28 145 255  28 145 255  28 145 255  28 145 255
28 145 255  28 145 255  28 145 255  28 145 255  28 145 255  28 145 255
28 145 255  28 145 255  28 145 255  28 145 255  28 145 255  28 145 255
28 145 255  28 145 255  28 145 255  74 167 255  255 255 255  255 255 255
255 255 255  255 255 255  255 255 255  255 255 255  255 255 255  255 255 255
255 255 255  255 255 255  255 255 255  255 255 255  255 255 255  89 175 255
28 145 255  28 145 255  28 145 255  28 145 255  28 145 255  28 145 255
28 145 255  28 145 255  28 145 255  28 145 255  28 145 255  28 145 255
28 145 255  28 145 255  28 145 255  28 145 255  28 145 255  134 197 255
255 255 255  255 255 255  255 255 255  255 255 255  255 255 255  255 255 255
255 255 255  255 255 255  255 255 255  255 255 255  255 255 255  255 255 255
255 255 255  255 255 255  255 255 255  255 255 255  255 255 255  255 255 255
255 255 255  255 255 255  255 255 255  255 255 255  255 255 255  255 255 255
255 255 255  255 255 255  255 255 255  255 255 255  255 255 255  240 248 255
44 153 255  28 145 255  28 145 255  28 145 255  28 145 255  28 145 255
28 145 255  28 145 255  28 145 255  28 145 255  28 145 255  28 145 255
28 145 255  28 145 255  28 145 255  28 145 255  28 145 255  28 145 255
28 145 255  44 153 255  240 248 255  255 255 255  255 255 255  255 255 255
255 255 255  255 255 255  255 255 255  255 255 255  255 255 255  255 255 255
255 255 255  255 255 255  255 255 255  255 255 255
255 255 255  255 255 255  255 255 255  195 226 255  28 145 255  28 145 255
28 145 255  28 145 255  28 145 255  28 145 255  28 145 255  28 145 255
28 145 255  28 145 255  28 145 255  28 145 255  28 145 255  28 145 255
28 145 255  28 145 255  28 145 255  28 145 255  28 145 255  28 145 255
28 145 255  28 145 255  28 145 255  28 145 255  28 145 255  44 153 255
104 182 255  150 204 255  195 226 255  240 248 255  255 255 255  255 255 255
255 255 255  255 255 255  255 255 255  255 255 255  255 255 255  255 255 255
255 255 255  255 255 255  255 255 255  255 255 255  255 255 255  255 255 255
255 255 255  255 255 255  255 255 255  255 255 255  255 255 255  255 255 255
255 255 255  255 255 255  255 255 255  255 255 255  255 255 255  255 255 255
255 255 255  255 255 255  255 255 255  255 255 255  255 255 255  255 255 255
255 255 255  255 255 255  255 255 255  255 255 255  255 255 255  255 255 255
255 255 255  255 255 255  255 255 255  255 255 255  255 255 255  255 255 255
255 255 255  255 255 255  255 255 255  255 255 255  255 255 255  255 255 255
255 255 255  255 255 255  255 255 255  255 255 255  255 255 255  255 255 255
255 255 255  255 255 255  255 255 255  255 255 255  255 255 255  255 255 255
255 255 255  255 255 255  255 255 255  255 255 255  255 255 255  255 255 255
255 255 255  255 255 255  255 255 255  255 255 255  255 255 255  255 255 255
255 255 255  255 255 255  255 255 255  255 255 255  255 255 255  255 255 255
255 255 255  255 255 255  255 255 255  255 255 255  255 255 255  255 255 255
255 255 255  255 255 255  255 255 255  255 255 255  255 255 255  255 255 255
255 255 255  255 255 255  255 255 255  255 255 255  255 255 255  255 255 255
255 255 255  240 248 255  180 219 255  134 197 255  59 160 255  28 145 255
28 145 255  28 145 255  28 145 255  28 145 255  28 145 255  28 145 255
28 145 255  28 145 255  28 145 255  28 145 255  28 145 255  28 145 255
28 145 255  28 145 255  28 145 255  28 145 255  28 145 255  28 145 255
28 145 255  28 145 255  28 145 255  150 204 255  255 255 255  255 255 255
255 255 255  255 255 255  255 255 255  255 255 255  255 255 255  255 255 255
255 255 255  255 255 255  255 255 255  255 255 255  255 255 255  74 167 255
28 145 255  28 145 255  28 145 255  28 145 255  28 145 255  28 145 255
28 145 255  28 145 255  28 145 255  28 145 255  28 145 255  28 145 255
28 145 255  28 145 255  28 145 255  28 145 255  28 145 255  134 197 255
255 255 255  255 255 255  255 255 255  255 255 255  255 255 255  255 255 255
255 255 255  255 255 255  255 255 255  255 255 255  255 255 255  255 255 255
255 255 255  255 255 255  255 255 255  255 255 255  255 255 255  255 255 255
255 255 255  255 255 255  255 255 255  255 255 255  255 255 255  255 255 255
255 255 255  255 255 255  255 255 255  255 255 255  255 255 255  255 255 255
134 197 255  28 145 255  28 145 255  28 145 255  28 145 255  28 145 255
28 145 255  28 145 255  28 145 255  28 145 255  28 145 255  28 145 255
28 145 255  28 145 255  28 145 255  28 145 255  28 145 255  28 145 255
28 145 255  28 145 255  134 197 255  255 255 255  255 255 255  255 255 255
255 255 255  255 255 255  255 255 255  255 255 255  255 255 255  255 255 255
255 255 255  255 255 255  255 255 255  255 255 255
255 255 255  255 255 255  255 255 255  255 255 255  119 189 255  28 145 255
28 145 255  28 145 255  28 145 255  28 145 255  28 145 255  28 145 255
28 145 255  28 145 255  28 145 255  28 145 255  28 145 255  28 145 255
28 145 255  28 145 255  28 145 255  28 145 255  28 145 255  28 145 255
28 145 255  28 145 255  28 145 255  28 145 255  28 145 255  28 145 255
28 145 255  28 145 255  28 145 255  28 145 255  28 145 255  59 160 255
89 175 255  89 175 255  89 175 255  89 175 255  89 175 255  89 175 255
89 175 255  89 175 255  89 175 255  89 175 255  89 175 255  89 175 255
89 175 255  89 175 255  89 175 255  89 175 255  89 175 255  89 175 255
89 175 255  89 175 255  89 175 255  89 175 255  89 175 255  89 175 255
89 175 255  89 175 255  89 175 255  89 175 255  89 175 255  119 189 255
195 226 255  255 255 255  255 255 255  255 255 255  255 255 255  255 255 255
255 255 255  255 255 255  255 255 255  255 255 255  255 255 255  255 255 255
255 255 255  255 255 255  255 255 255  255 255 255  255 255 255  255 255 255
165 211 255  134 197 255  89 175 255  89 175 255  89 175 255  89 175 255
89 175 255  89 175 255  89 175 255  89 175 255  89 175 255  89 175 255
89 175 255  89 175 255  89 175 255  89 175 255  89 175 255  89 175 255
89 175 255  89 175 255  89 175 255  89 175 255  89 175 255  89 175 255
89 175 255  89 175 255  89 175 255  89 175 255  89 175 255  89 175 255
89 175 255  89 175 255  89 175 255  89 175 255  89 175 255  89 175 255
89 175 255  89 175 255  89 175 255  89 175 255  89 175 255  89 175 255
89 175 255  89 175 255  89 175 255  89 175 255  89 175 255  74 167 255
28 145 255  28 145 255  28 145 255  28 145 255  28 145 255  28 145 255
28 145 255  28 145 255  28 145 255  28 145 255  28 145 255  28 145 255
28 145 255  28 145 255  28 145 255  28 145 255  28 145 255  28 145 255
28 145 255  28 145 255  28 145 255  28 145 255  28 145 255  28 145 255
28 145 255  28 145 255  28 145 255  225 241 255  255 255 255  255 255 255
255 255 255  255 255 255  255 255 255  255 255 255  255 255 255  255 255 255
255 255 255  255 255 255  255 255 255  255 255 255  255 255 255  28 145 255
28 145 255  28 145 255  28 145 255  28 145 255  28 145 255  28 145 255
28 145 255  28 145 255  28 145 255  28 145 255  28 145 255  28 145 255
28 145 255  28 145 255  28 145 255  28 145 255  28 145 255  165 211 255
255 255 255  255 255 255  255 255 255  255 255 255  255 255 255  255 255 255
255 255 255  255 255 255  255 255 255  255 255 255  255 255 255  255 255 255
255 255 255  255 255 255  255 255 255  255 255 255  255 255 255  255 255 255
255 255 255  255 255 255  255 255 255  255 255 255  255 255 255  255 255 255
255 255 255  255 255 255  255 255 255  255 255 255  255 255 255  255 255 255
240 248 255  44 153 255  28 145 255  28 145 255  28 145 255  28 145 255
28 145 255  28 145 255  28 145 255  28 145 255  28 145 255  28 145 255
28 145 255  28 145 255  28 145 255  28 145 255  28 145 255  28 145 255
28 145 255  28 145 255  44 153 255  240 248 255  255 255 255  255 255 255
255 255 255  255 255 255  255 255 255  255 255 255  255 255 255  255 255 255
255 255 255  255 255 255  255 255 255  255 255 255
255 255 255  255 255 255  255 255 255  255 255 255  225 241 255  28 145 255
28 145 255  28 145 255  28 145 255  28 145 255  28 145 255  28 145 255
28 145 255  28 145 255  28 145 255  28 145 255  28 145 255  28 145 255
28 145 255  28 145 255  28 145 255  28 145 255  28 145 255  28 145 255
28 145 255  28 145 255  28 145 255  28 145 255  28 145 255  28 145 255
28 145 255  28 145 255  28 145 255  28 145 255  28 145 255  28 145 255
28 145 255  28 145 255  28 145 255  28 145 255  28 145 255  28 145 255
28 145 255  28 145 255  28 145 255  28 145 255  28 145 255  28 145 255
28 145 255  28 145 255  28 145 255  28 145 255  28 145 255  28 145 255
28 145 255  28 145 255  28 145 255  28 145 255  28 145 255  28 145 255
28 145 255  28 145 255  28 145 255  28 145 255  28 145 255  28 145 255
28 145 255  165 211 255  255 255 255  255 255 255  255 255 255  255 255 255
255 255 255  255 255 255  255 255 255  255 255 255  255 255 255  255 255 255
255 255 255  255 255 255  255 255 255  255 255 255  240 248 255  74 167 255
28 145 255  28 145 255  28 145 255  28 145 255  28 145 255  28 145 255
28 145 255  28 145 255  28 145 255  28 145 255  28 145 255  28 145 255
28 145 255  28 145 255  28 145 255  28 145 255  28 145 255  28 145 255
28 145 255  28 145 255  28 145 255  28 145 255  28 145 255  28 145 255
28 145 255  28 145 255  28 145 255  28 145 255  28 145 255  28 145 255
28 145 255  28 145 255  28 145 255  28 145 255  28 145 255  28 145 255
28 145 255  28 145 255  28 145 255  28 145 255  28 145 255  28 145 255
28 145 255  28 145 255  28 145 255  28 145 255  28 145 255  28 145 255
28 145 255  28 145 255  28 145 255  28 145 255  28 145 255  28 145 255
28 145 255  28 145 255  28 145 255  28 145 255  28 145 255  28 145 255
28 145 255  28 145 255  28 145 255  28 145 255  28 145 255  28 145 255
28 145 255  28 145 255  28 145 255  28 145 255  28 145 255  28 145 255
28 145 255  28 145 255  89 175 255  255 255 255  255 255 255  255 255 255
255 255 255  255 255 255  255 255 255  255 255 255  255 255 255  255 255 255
255 255 255  255 255 255  255 255 255  255 255 255  255 255 255  28 145 255
28 145 255  28 145 255  28 145 255  28 145 255  28 145 255  28 145 255
28 145 255  28 145 255  28 145 255  28 145 255  28 145 255  28 145 255
28 145 255  28 145 255  28 145 255  28 145 255  28 145 255  195 226 255
255 255 255  255 255 255  255 255 255  255 255 255  255 255 255  255 255 255
255 255 255  255 255 255  255 255 255  255 255 255  255 255 255  255 255 255
255 255 255  255 255 255  255 255 255  255 255 255  255 255 255  255 255 255
255 255 255  255 255 255  255 255 255  255 255 255  255 255 255  255 255 255
255 255 255  255 255 255  255 255 255  255 255 255  255 255 255  255 255 255
255 255 255  134 197 255  28 145 255  28 145 255  28 145 255  28 145 255
28 145 255  28 145 255  28 145 255  28 145 255  28 145 255  28 145 255
28 145 255  28 145 255  28 145 255  28 145 255  28 145 255  28 145 255
28 145 255  28 145 255  28 145 255  134 197 255  255 255 255  255 255 255
255 255 255  255 255 255  255 255 255  255 255 255  255 255 255  255 255 255
255 255 255  255 255 255  255 255 255  255 255 255
255 255 255  255 255 255  255 255 255  255 255 255  255 255 255  134 197 255
28 145 255  28 145 255  28 145 255  28 145 255  28 145 255  28 145 255
28 145 255  28 145 255  28 145 255  28 145 255  28 145 255  28 145 255
28 145 255  28 145 255  28 145 255  28 145 255  28 145 255  28 145 255
28 145 255  28 145 255  28 145 255  28 145 255  28 145 255  28 145 255
28 145 255  28 145 255  28 145 255  28 145 255  28 145 255  28 145 255
28 145 255  28 145 255  28 145 255  28 145 255  28 145 255  28 145 255
28 145 255  28 145 255  28 145 255  28 145 255  28 145 255  28 145 255
28 145 255  28 145 255  28 145 255  28 145 255  28 145 255  28 145 255
28 145 255  28 145 255  28 145 255  28 145 255  28 145 255  28 145 255
28 145 255  28 145 255  28 145 255  28 145 255  28 145 255  28 145 255
28 145 255  44 153 255  255 255 255  255 255 255  255 255 255  255 255 255
255 255 255  255 255 255  255 255 255  255 255 255  255 255 255  255 255 255
255 255 255  255 255 255  255 255 255  255 255 255  134 197 255  28 145 255
28 145 255  28 145 255  28 145 255  28 145 255  28 145 255  28 145 255
28 145 255  28 145 255  28 145 255  28 145 255  28 145 255  28 145 255
28 145 255  28 145 255  28 145 255  28 145 255  28 145 255  28 145 255
28 145 255  28 145 255  28 145 255  28 145 255  28 145 255  28 145 255
28 145 255  28 145 255  28 145 255  28 145 255  28 145 255  28 145 255
28 145 255  28 145 255  28 145 255  28 145 255  28 145 255  28 145 255
28 145 255  28 145 255  28 145 255  28 145 255  28 145 255  28 145 255
28 145 255  28 145 255  28 145 255  28 145 255  28 145 255  28 145 255
28 145 255  28 145 255  28 145 255  28 145 255  28 145 255  28 145 255
28 145 255  28 145 255  28 145 255  28 145 255  28 145 255  28 145 255
28 145 255  28 145 255  28 145 255  28 145 255  28 145 255  28 145 255
28 145 255  28 145 255  28 145 255  28 145 255  28 145 255  28 145 255
28 145 255  28 145 255  195 226 255  255 255 255  255 255 255  255 255 255
255 255 255  255 255 255  255 255 255  255 255 255  255 255 255  255 255 255
255 255 255  255 255 255  255 255 255  255 255 255  240 248 255  28 145 255
28 145 255  28 145 255  28 145 255  28 145 255  28 145 255  28 145 255
28 145 255  28 145 255  28 145 255  28 145 255  28 145 255  28 145 255
28 145 255  28 145 255  28 145 255  28 145 255  28 145 255  195 226 255
255 255 255  255 255 255  255 255 255  255 255 255  255 255 255  255 255 255
255 255 255  255 255 255  255 255 255  255 255 255  255 255 255  255 255 255
255 255 255  255 255 255  255 255 255  255 255 255  255 255 255  255 255 255
255 255 255  255 255 255  255 255 255  255 255 255  255 255 255  255 255 255
255 255 255  255 255 255  255 255 255  255 255 255  255 255 255  255 255 255
255 255 255  225 241 255  28 145 255  28 145 255  28 145 255  28 145 255
28 145 255  28 145 255  28 145 255  28 145 255  28 145 255  28 145 255
28 145 255  28 145 255  28 145 255  28 145 255  28 145 255  28 145 255
28 145 255  28 145 255  28 145 255  28 145 255  225 241 255  255 255 255
255 255 255  255 255 255  255 255 255  255 255 255  255 255 255  255 255 255
255 255 255  255 255 255  255 255 255  255 255 255
255 255 255  255 255 255  255 255 255  255 255 255  255 255 255  255 255 255
74 167 255  28 145 255  28 145 255  28 145 255  28 145 255  28 145 255
28 145 255  28 145 255  28 145 255  28 145 255  28 145 255  28 145 255
28 145 255  28 145 255  28 145 255  28 145 255  28 145 255  28 145 255
28 145 255  28 145 255  28 145 255  28 145 255  28 145 255  28 145 255
28 145 255  28 145 255  28 145 255  28 145 255  28 145 255  28 145 255
28 145 255  28 145 255  28 145 255  28 145 255  28 145 255  28 145 255
28 145 255  28 145 255  28 145 255  28 145 255  28 145 255  28 145 255
28 145 255  28 145 255  28 145 255  28 145 255  28 145 255  28 145 255
28 145 255  28 145 255  28 145 255  28 145 255  28 145 255  28 145 255
28 145 255  28 145 255  28 145 255  28 145 255  28 145 255  28 145 255
28 145 255  28 145 255  255 255 255  255 255 255  255 255 255  255 255 255
255 255 255  255 255 255  255 255 255  255 255 255  255 255 255  255 255 255
255 255 255  255 255 255  255 255 255  255 255 255  59 160 255  28 145 255
28 145 255  28 145 255  28 145 255  28 145 255  28 145 255  28 145 255
28 145 255  28 145 255  28 145 255  28 145 255  28 145 255  28 145 255
28 145 255  28 145 255  28 145 255  28 145 255  28 145 255  28 145 255
28 145 255  28 145 255  28 145 255  28 145 255  28 145 255  28 145 255
28 145 255  28 145 255  28 145 255  28 145 255  28 145 255  28 145 255
28 145 255  28 145 255  28 145 255  28 145 255  28 145 255  28 145 255
28 145 255  28 145 255  28 145 255  28 145 255  28 145 255  28 145 255
28 145 255  28 145 255  28 145 255  28 145 255  28 145 255  28 145 255
28 145 255  28 145 255  28 145 255  28 145 255  28 145 255  28 145 255
28 145 255  28 145 255  28 145 255  28 145 255  28 145 255  28 145 255
28 145 255  28 145 255  28 145 255  28 145 255  28 145 255  28 145 255
28 145 255  28 145 255  28 145 255  28 145 255  28 145 255  28 145 255
28 145 255  119 189 255  255 255 255  255 255 255  255 255 255  255 255 255
255 255 255  255 255 255  255 255 255  255 255 255  255 255 255  255 255 255
255 255 255  255 255 255  255 255 255  255 255 255  195 226 255  28 145 255
28 145 255  28 145 255  28 145 255  28 145 255  28 145 255  28 145 255
28 145 255  28 145 255  28 145 255  28 145 255  28 145 255  28 145 255
28 145 255  28 145 255  28 145 255  28 145 255  28 145 255  225 241 255
255 255 255  255 255 255  255 255 255  255 255 255  255 255 255  255 255 255
255 255 255  255 255 255  255 255 255  255 255 255  255 255 255  255 255 255
255 255 255  255 255 255  255 255 255  255 255 255  255 255 255  255 255 255
255 255 255  255 255 255  255 255 255  255 255 255  255 255 255  255 255 255
255 255 255  255 255 255  255 255 255  255 255 255  255 255 255  255 255 255
255 255 255  255 255 255  119 189 255  28 145 255  28 145 255  28 145 255
28 145 255  28 145 255  28 145 255  28 145 255  28 145 255  28 145 255
28 145 255  28 145 255  28 145 255  28 145 255  28 145 255  28 145 255
28 145 255  28 145 255  28 145 255  28 145 255  119 189 255  255 255 255
255 255 255  255 255 255  255 255 255  255 255 255  255 255 255  255 255 255
255 255 255  255 255 255  255 255 255  255 255 255
255 255 255  255 255 255  255 255 255  255 255 255  255 255 255  255 255 255
225 241 255  44 153 255  28 145 255  28 145 255  28 145 255  28 145 255
28 145 255  28 145 255  28 145 255  28 145 255  28 145 255  28 145 255
28 145 255  28 145 255  28 145 255  28 145 255  28 145 255  28 145 255
28 145 255  28 145 255  28 145 255  28 145 255  28 145 255  28 145 255
28 145 255  28 145 255  28 145 255  28 145 255  28 145 255  28 145 255
28 145 255  28 145 255  28 145 255  28 145 255  28 145 255  28 145 255
28 145 255  28 145 255  28 145 255  28 145 255  28 145 255  28 145 255
28 145 255  28 145 255  28 145 255  28 145 255  28 145 255  28 145 255
28 145 255  28 145 255  28 145 255  28 145 255  28 145 255  28 145 255
28 145 255  28 145 255  28 145 255  28 145 255  28 145 255  28 145 255
28 145 255  28 145 255  255 255 255  255 255 255  255 255 255  255 255 255
255 255 255  255 255 255  255 255 255  255 255 255  255 255 255  255 255 255
255 255 255  255 255 255  255 255 255  255 255 255  28 145 255  28 145 255
28 145 255  28 145 255  28 145 255  28 145 255  28 145 255  28 145 255
28 145 255  28 145 255  28 145 255  28 145 255  28 145 255  28 145 255
28 145 255  28 145 255  28 145 255  28 145 255  28 145 255  28 145 255
28 145 255  28 145 255  28 145 255  28 145 255  28 145 255  28 145 255
28 145 255  28 145 255  28 145 255  28 145 255  28 145 255  28 145 255
28 145 255  28 145 255  28 145 255  28 145 255  28 145 255  28 145 255
28 145 255  28 145 255  28 145 255  28 145 255  28 145 255  28 145 255
28 145 255  28 145 255  28 145 255  28 145 255  28 145 255  28 145 255
28 145 255  28 145 255  28 145 255  28 145 255  28 145 255  28 145 255
28 145 255  28 145 255  28 145 255  28 145 255  28 145 255  28 145 255
28 145 255  28 145 255  28 145 255  28 145 255  28 145 255  28 145 255
28 145 255  28 145 255  28 145 255  28 145 255  28 145 255  28 145 255
44 153 255  240 248 255  255 255 255  255 255 255  255 255 255  255 255 255
255 255 255  255 255 255  255 255 255  255 255 255  255 255 255  255 255 255
255 255 255  255 255 255  255 255 255  255 255 255  195 226 255  28 145 255
28 145 255  28 145 255  28 145 255  28 145 255  28 145 255  28 145 255
28 145 255  28 145 255  28 145 255  28 145 255  28 145 255  28 145 255
28 145 255  28 145 255  28 145 255  28 145 255  28 145 255  255 255 255
255 255 255  255 255 255  255 255 255  255 255 255  255 255 255  255 255 255
255 255 255  255 255 255  255 255 255  255 255 255  255 255 255  255 255 255
255 255 255  255 255 255  255 255 255  255 255 255  255 255 255  255 255 255
255 255 255  255 255 255  255 255 255  255 255 255  255 255 255  255 255 255
255 255 255  255 255 255  255 255 255  255 255 255  255 255 255  255 255 255
255 255 255  255 255 255  225 241 255  28 145 255  28 145 255  28 145 255
28 145 255  28 145 255  28 145 255  28 145 255  28 145 255  28 145 255
28 145 255  28 145 255  28 145 255  28 145 255  28 145 255  28 145 255
28 145 255  28 145 255  28 145 255  28 145 255  28 145 255  225 241 255
255 255 255  255 255 255  255 255 255  255 255 255  255 255 255  255 255 255
255 255 255  255 255 255  255 255 255  255 255 255
255 255 255  255 255 255  255 255 255  255 255 255  255 255 255  255 255 255
255 255 255  180 219 255  28 145 255  28 145 255  28 145 255  28 145 255
28 145 255  28 145 255  28 145 255  28 145 255  28 145 255  28 145 255
28 145 255  28 145 255  28 145 255  28 145 255  28 145 255  28 145 255
28 145 255  28 145 255  28 145 255  28 145 255  28 145 255  28 145 255
28 145 255  28 145 255  28 145 255  28 145 255  28 145 255  28 145 255
28 145 255  28 145 255  28 145 255  28 145 255  28 145 255  28 145 255
28 145 255  28 145 255  28 145 255  28 145 255  28 145 255  28 145 255
28 145 255  28 145 255  28 145 255  28 145 255  28 145 255  28 145 255
28 145 255  28 145 255  28 145 255  28 145 255  28 145 255  28 145 255
28 145 255  28 145 255  28 145 255  28 145 255  28 145 255  28 145 255
28 145 255  28 145 255  255 255 255  255 255 255  255 255 255  255 255 255
255 255 255  255 255 255  255 255 255  255 255 255  255 255 255  255 255 255
255 255 255  255 255 255  255 255 255  255 255 255  28 145 255  28 145 255
28 145 255  28 145 255  28 145 255  28 145 255  28 145 255  28 145 255
28 145 255  28 145 255  28 145 255  28 145 255  28 145 255  28 145 255
28 145 255  28 145 255  28 145 255  28 145 255  28 145 255  28 145 255
28 145 255  28 145 255  28 145 255  28 145 255  28 145 255  28 145 255
28 145 255  28 145 255  28 145 255  28 145 255  28 145 255  28 145 255
28 145 255  28 145 255  28 145 255  28 145 255  28 145 255  28 145 255
28 145 255  28 145 255  28 145 255  28 145 255  28 145 255  28 145 255
28 145 255  28 145 255  28 145 255  28 145 255  28 145 255  28 145 255
28 145 255  28 145 255  28 145 255  28 145 255  28 145 255  28 145 255
28 145 255  28 145 255  28 145 255  28 145 255  28 145 255  28 145 255
28 145 255  28 145 255  28 145 255  28 145 255  28 145 255  28 145 255
28 145 255  28 145 255  28 145 255  28 145 255  28 145 255  28 145 255
150 204 255  255 255 255  255 255 255  255 255 255  255 255 255  255 255 255
255 255 255  255 255 255  255 255 255  255 255 255  255 255 255  255 255 255
255 255 255  255 255 255  255 255 255  255 255 255  180 219 255  28 145 255
28 145 255  28 145 255  28 145 255  28 145 255  28 145 255  28 145 255
28 145 255  28 145 255  28 145 255  28 145 255  28 145 255  28 145 255
28 145 255  28 145 255  28 145 255  28 145 255  28 145 255  255 255 255
255 255 255  255 255 255  255 255 255  255 255 255  255 255 255  255 255 255
255 255 255  255 255 255  255 255 255  255 255 255  255 255 255  255 255 255
255 255 255  255 255 255  255 255 255  255 255 255  255 255 255  255 255 255
255 255 255  255 255 255  255 255 255  255 255 255  255 255 255  255 255 255
255 255 255  255 255 255  255 255 255  255 255 255  255 255 255  255 255 255
255 255 255  255 255 255  255 255 255  119 189 255  28 145 255  28 145 255
28 145 255  28 145 255  28 145 255  28 145 255  28 145 255  28 145 255
28 145 255  28 145 255  28 145 255  28 145 255  28 145 255  28 145 255
28 145 255  28 145 255  28 145 255  28 145 255  28 145 255  119 189 255
255 255 255  255 255 255  255 255 255  255 255 255  255 255 255  255 255 255
255 255 255  255 255 255  255 255 255  255 255 255
255 255 255  255 255 255  255 255 255  255 255 255  255 255 255  255 255 255
255 255 255  255 255 255  165 211 255  28 145 255  28 145 255  28 145 255
28 145 255  28 145 255  28 145 255  28 145 255  28 145 255  28 145 255
28 145 255  28 145 255  28 145 255  28 145 255  28 145 255  28 145 255
28 145 255  28 145 255  28 145 255  28 145 255  28 145 255  28 145 255
28 145 255  28 145 255  28 145 255  28 145 255  28 145 255  28 145 255
28 145 255  28 145 255  28 145 255  28 145 255  28 145 255  28 145 255
28 145 255  28 145 255  28 145 255  28 145 255  28 145 255  28 145 255
28 145 255  28 145 255  28 145 255  28 145 255  28 145 255  28 145 255
28 145 255  28 145 255  28 145 255  28 145 255  28 145 255  28 145 255
28 145 255  28 145 255  28 145 255  28 145 255  28 145 255  28 145 255
28 145 255  89 175 255  255 255 255  255 255 255  255 255 255  255 255 255
255 255 255  255 255 255  255 255 255  255 255 255  255 255 255  255 255 255
255 255 255  255 255 255  255 255 255  195 226 255  28 145 255  28 145 255
28 145 255  28 145 255  28 145 255  28 145 255  28 145 255  28 145 255
28 145 255  28 145 255  28 145 255  28 145 255  28 145 255  28 145 255
28 145 255  28 145 255  28 145 255  28 145 255  28 145 255  28 145 255
28 145 255  28 145 255  28 145 255  28 145 255  28 145 255  28 145 255
28 145 255  28 145 255  28 145 255  28 145 255  28 145 255  28 145 255
28 145 255  28 145 255  28 145 255  28 145 255  28 145 255  28 145 255
28 145 255  28 145 255  28 145 255  28 145 255  28 145 255  28 145 255
28 145 255  28 145 255  28 145 255  28 145 255  28 145 255  28 145 255
28 145 255  28 145 255  28 145 255  28 145 255  28 145 255  28 145 255
28 145 255  28 145 255  28 145 255  28 145 255  28 145 255  28 145 255
28 145 255  28 145 255  28 145 255  28 145 255  28 145 255  28 145 255
28 145 255  28 145 255  28 145 255  28 145 255  28 145 255  119 189 255
255 255 255  255 255 255  255 255 255  255 255 255  255 255 255  255 255 255
255 255 255  255 255 255  255 255 255  255 255 255  255 255 255  255 255 255
255 255 255  255 255 255  255 255 255  255 255 255  134 197 255  28 145 255
28 145 255  28 145 255  28 145 255  28 145 255  28 145 255  28 145 255
28 145 255  28 145 255  28 145 255  28 145 255  28 145 255  28 145 255
28 145 255  28 145 255  28 145 255  28 145 255  59 160 255  255 255 255
255 255 255  255 255 255  255 255 255  255 255 255  255 255 255  255 255 255
255 255 255  255 255 255  255 255 255  255 255 255  255 255 255  255 255 255
255 255 255  255 255 255  255 255 255  255 255 255  255 255 255  255 255 255
255 255 255  255 255 255  255 255 255  255 255 255  255 255 255  255 255 255
255 255 255  255 255 255  255 255 255  255 255 255  255 255 255  255 255 255
255 255 255  255 255 255  255 255 255  225 241 255  28 145 255  28 145 255
28 145 255  28 145 255  28 145 255  28 145 255  28 145 255  28 145 255
28 145 255  28 145 255  28 145 255  28 145 255  28 145 255  28 145 255
28 145 255  28 145 255  28 145 255  28 145 255  28 145 255  28 145 255
225 241 255  255 255 255  255 255 255  255 255 255  255 255 255  255 255 255
255 255 255  255 255 255  255 255 255  255 255 255
255 255 255  255 255 255  255 255 255  255 255 255  255 255 255  255 255 255
255 255 255  255 255 255  255 255 255  165 211 255  28 145 255  28 145 255
28 145 255  28 145 255  28 145 255  28 145 255  28 145 255  28 145 255
28 145 255  28 145 255  28 145 255  28 145 255  28 145 255  28 145 255
28 145 255  28 145 255  28 145 255  28 145 255  28 145 255  28 145 255
28 145 255  28 145 255  28 145 255  28 145 255  28 145 255  28 145 255
28 145 255  28 145 255  28 145 255  28 145 255  28 145 255  28 145 255
28 145 255  28 145 255  28 145 255  28 145 255  28 145 255  28 145 255
28 145 255  28 145 255  28 145 255  28 145 255  28 145 255  28 145 255
28 145 255  28 145 255  28 145 255  28 145 255  28 145 255  28 145 255
28 145 255  28 145 255  28 145 255  28 145 255  28 145 255  28 145 255
28 145 255  89 175 255  255 255 255  255 255 255  255 255 255  255 255 255
255 255 255  255 255 255  255 255 255  255 255 255  255 255 255  255 255 255
255 255 255  255 255 255  255 255 255  195 226 255  28 145 255  28 145 255
28 145 255  28 145 255  28 145 255  28 145 255  28 145 255  28 145 255
28 145 255  28 145 255  28 145 255  28 145 255  28 145 255  28 145 255
28 145 255  28 145 255  28 145 255  28 145 255  28 145 255  28 145 255
28 145 255  28 145 255  28 145 255  28 145 255  28 145 255  28 145 255
28 145 255  28 145 255  28 145 255  28 145 255  28 145 255  28 145 255
28 145 255  28 145 255  28 145 255  28 145 255  28 145 255  28 145 255
28 145 255  28 145 255  28 145 255  28 145 255  28 145 255  28 145 255
28 145 255  28 145 255  28 145 255  28 145 255  28 145 255  28 145 255
28 145 255  28 145 255  28 145 255  28 145 255  28 145 255  28 145 255
28 145 255  28 145 255  28 145 255  28 145 255  28 145 255  28 145 255
28 145 255  28 145 255  28 145 255  28 145 255  28 145 255  28 145 255
28 145 255  28 145 255  28 145 255  28 145 255  119 189 255  255 255 255
255 255 255  255 255 255  255 255 255  255 255 255  255 255 255  255 255 255
255 255 255  255 255 255  255 255 255  255 255 255  255 255 255  255 255 255
255 255 255  255 255 255  255 255 255  255 255 255  134 197 255  28 145 255
28 145 255  28 145 255  28 145 255  28 145 255  28 145 255  28 145 255
28 145 255  28 145 255  28 145 255  28 145 255  28 145 255  28 145 255
28 145 255  28 145 255  28 145 255  28 145 255  89 175 255  255 255 255
255 255 255  255 255 255  255 255 255  255 255 255  255 255 255  255 255 255
255 255 255  255 255 255  255 255 255  255 255 255  255 255 255  255 255 255
255 255 255  255 255 255  255 255 255  255 255 255  255 255 255  255 255 255
255 255 255  255 255 255  255 255 255  255 255 255  255 255 255  255 255 255
255 255 255  255 255 255  255 255 255  255 255 255  255 255 255  255 255 255
255 255 255  255 255 255  255 255 255  255 255 255  104 182 255  28 145 255
28 145 255  28 145 255  28 145 255  28 145 255  28 145 255  28 145 255
28 145 255  28 145 255  28 145 255  28 145 255  28 145 255  28 145 255
28 145 255  28 145 255  28 145 255  28 145 255  28 145 255  28 145 255
119 189 255  255 255 255  255 255 255  255 255 255  255 255 255  255 255 255
255 255 255  255 255 255  255 255 255  255 255 255
255 255 255  255 255 255  255 255 255  255 255 255  255 255 255  255 255 255
255 255 255  255 255 255  255 255 255  255 255 255  195 226 255  44 153 255
28 145 255  28 145 255  28 145 255  28 145 255  28 145 255  28 145 255
28 145 255  28 145 255  28 145 255  28 145 255  28 145 255  28 145 255
28 145 255  28 145 255  28 145 255  28 145 255  28 145 255  28 145 255
28 145 255  28 145 255  28 145 255  28 145 255  28 145 255  28 145 255
28 145 255  28 145 255  28 145 255  28 145 255  28 145 255  28 145 255
28 145 255  28 145 255  28 145 255  28 145 255  28 145 255  28 145 255
28 145 255  28 145 255  28 145 255  28 145 255  28 145 255  28 145 255
28 145 255  28 145 255  28 145 255  28 145 255  28 145 255  28 145 255
28 145 255  28 145 255  28 145 255  28 145 255  28 145 255  28 145 255
28 145 255  89 175 255  255 255 255  255 255 255  255 255 255  255 255 255
255 255 255  255 255 255  255 255 255  255 255 255  255 255 255  255 255 255
255 255 255  255 255 255  255 255 255  195 226 255  28 145 255  28 145 255
28 145 255  28 145 255  28 145 255  28 145 255  28 145 255  28 145 255
28 145 255  28 145 255  28 145 255  28 145 255  28 145 255  28 145 255
28 145 255  28 145 255  28 145 255  28 145 255  28 145 255  28 145 255
28 145 255  28 145 255  28 145 255  28 145 255  28 145 255  28 145 255
28 145 255  28 145 255  28 145 255  28 145 255  28 145 255  28 145 255
28 145 255  28 145 255  28 145 255  28 145 255  28 145 255  28 145 255
28 145 255  28 145 255  28 145 255  28 145 255  28 145 255  28 145 255
28 145 255  28 145 255  28 145 255  28 145 255  28 145 255  28 145 255
28 145 255  28 145 255  28 145 255  28 145 255  28 145 255  28 145 255
28 145 255  28 145 255  28 145 255  28 145 255  28 145 255  28 145 255
28 145 255  28 145 255  28 145 255  28 145 255  28 145 255  28 145 255
28 145 255  28 145 255  28 145 255  119 189 255  255 255 255  255 255 255
255 255 255  255 255 255  255 255 255  255 255 255  255 255 255  255 255 255
255 255 255  255 255 255  255 255 255  255 255 255  255 255 255  255 255 255
255 255 255  255 255 255  255 255 255  255 255 255  134 197 255  28 145 255
28 145 255  28 145 255  28 145 255  28 145 255  28 145 255  28 145 255
28 145 255  28 145 255  28 145 255  28 145 255  28 145 255  28 145 255
28 145 255  28 145 255  28 145 255  28 145 255  89 175 255  255 255 255
255 255 255  255 255 255  255 255 255  255 255 255  255 255 255  255 255 255
255 255 255  255 255 255  255 255 255  255 255 255  255 255 255  255 255 255
255 255 255  255 255 255  255 255 255  255 255 255  255 255 255  255 255 255
255 255 255  255 255 255  255 255 255  255 255 255  255 255 255  255 255 255
255 255 255  255 255 255  255 255 255  255 255 255  255 255 255  255 255 255
255 255 255  255 255 255  255 255 255  255 255 255  195 226 255  28 145 255
28 145 255  28 145 255  28 145 255  28 145 255  28 145 255  28 145 255
28 145 255  28 145 255  28 145 255  28 145 255  28 145 255  28 145 255
28 145 255  28 145 255  28 145 255  28 145 255  28 145 255  28 145 255
28 145 255  225 241 255  255 255 255  255 255 255  255 255 255  255 255 255
255 255 255  255 255 255  255 255 255  255 255 255
255 255 255  255 255 255  255 255 255  255 255 255  255 255 255  255 255 255
255 255 255  255 255 255  255 255 255  255 255 255  255 255 255  225 241 255
74 167 255  28 145 255  28 145 255  28 145 255  28 145 255  28 145 255
28 145 255  28 145 255  28 145 255  28 145 255  28 145 255  28 145 255
28 145 255  28 145 255  28 145 255  28 145 255  28 145 255  28 145 255
28 145 255  28 145 255  28 145 255  28 145 255  28 145 255  28 145 255
28 145 255  28 145 255  28 145 255  28 145 255  28 145 255  28 145 255
28 145 255  28 145 255  28 145 255  28 145 255  28 145 255  28 145 255
28 145 255  28 145 255  28 145 255  28 145 255  28 145 255  28 145 255
28 145 255  28 145 255  28 145 255  28 145 255  28 145 255  28 145 255
28 145 255  28 145 255  28 145 255  28 145 255  28 145 255  28 145 255
28 145 255  134 197 255  255 255 255  255 255 255  255 255 255  255 255 255
255 255 255  255 255 255  255 255 255  255 255 255  255 255 255  255 255 255
255 255 255  255 255 255  255 255 255  134 197 255  28 145 255  28 145 255
28 145 255  28 145 255  28 145 255  28 145 255  28 145 255  28 145 255
28 145 255  28 145 255  28 145 255  28 145 255  28 145 255  28 145 255
28 145 255  28 145 255  28 145 255  28 145 255  28 145 255  28 145 255
28 145 255  28 145 255  28 145 255  28 145 255  28 145 255  28 145 255
28 145 255  28 145 255  28 145 255  28 145 255  28 145 255  28 145 255
28 145 255  28 145 255  28 145 255  28 145 255  28 145 255  28 145 255
28 145 255  28 145 255  28 145 255  28 145 255  28 145 255  28 145 255
28 145 255  28 145 255  28 145 255  28 145 255  28 145 255  28 145 255
28 145 255  28 145 255  28 145 255  28 145 255  28 145 255  28 145 255
28 145 255  28 145 255  28 145 255  28 145 255  28 145 255  28 145 255
28 145 255  28 145 255  28 145 255  28 145 255  28 145 255  28 145 255
28 145 255  28 145 255  119 189 255  255 255 255  255 255 255  255 255 255
255 255 255  255 255 255  255 255 255  255 255 255  255 255 255  255 255 255
255 255 255  255 255 255  255 255 255  255 255 255  255 255 255  255 255 255
255 255 255  255 255 255  255 255 255  255 255 255  89 175 255  28 145 255
28 145 255  28 145 255  28 145 255  28 145 255  28 145 255  28 145 255
28 145 255  28 145 255  28 145 255  28 145 255  28 145 255  28 145 255
28 145 255  28 145 255  28 145 255  28 145 255  119 189 255  255 255 255
255 255 255  255 255 255  255 255 255  255 255 255  255 255 255  255 255 255
255 255 255  255 255 255  255 255 255  255 255 255  255 255 255  255 255 255
255 255 255  255 255 255  255 255 255  255 255 255  255 255 255  255 255 255
255 255 255  255 255 255  255 255 255  255 255 255  255 255 255  255 255 255
255 255 255  255 255 255  255 255 255  255 255 255  255 255 255  255 255 255
255 255 255  255 255 255  255 255 255  255 255 255  255 255 255  89 175 255
28 145 255  28 145 255  28 145 255  28 145 255  28 145 255  28 145 255
28 145 255  28 145 255  28 145 255  28 145 255  28 145 255  28 145 255
28 145 255  28 145 255  28 145 255  28 145 255  28 145 255  28 145 255
28 145 255  119 189 255  255 255 255  255 255 255  255 255 255  255 255 255
255 255 255  255 255 255  255 255 255  255 255 255
255 255 255  255 255 255  255 255 255  255 255 255  255 255 255  255 255 255
255 255 255  255 255 255  255 255 255  255 255 255  255 255 255  255 255 255
255 255 255  134 197 255  28 145 255  28 145 255  28 145 255  28 145 255
28 145 255  28 145 255  28 145 255  28 145 255  28 145 255  28 145 255
28 145 255  28 145 255  28 145 255  28 145 255  28 145 255  28 145 255
28 145 255  28 145 255  28 145 255  28 145 255  28 145 255  28 145 255
28 145 255  28 145 255  28 145 255  28 145 255  28 145 255  28 145 255
28 145 255  28 145 255  28 145 255  28 145 255  28 145 255  28 145 255
28 145 255  28 145 255  28 145 255  28 145 255  28 145 255  28 145 255
28 145 255  28 145 255  28 145 255  28 145 255  28 145 255  28 145 255
28 145 255  28 145 255  28 145 255  28 145 255  28 145 255  28 145 255
28 145 255  134 197 255  255 255 255  255 255 255  255 255 255  255 255 255
255 255 255  255 255 255  255 255 255  255 255 255  255 255 255  255 255 255
255 255 255  255 255 255  255 255 255  134 197 255  28 145 255  28 145 255
28 145 255  28 145 255  28 145 255  28 145 255  28 145 255  28 145 255
28 145 255  28 145 255  28 145 255  28 145 255  28 145 255  28 145 255
28 145 255  28 145 255  28 145 255  28 145 255  28 145 255  28 145 255
28 145 255  28 145 255  28 145 255  28 145 255  28 145 255  28 145 255
28 145 255  28 145 255  28 145 255  28 145 255  28 145 255  28 145 255
28 145 255  28 145 255  28 145 255  28 145 255  28 145 255  28 145 255
28 145 255  28 145 255  28 145 255  28 145 255  28 145 255  28 145 255
28 145 255  28 145 255  28 145 255  28 145 255  28 145 255  28 145 255
28 145 255  28 145 255  28 145 255  28 145 255  28 145 255  28 145 255
28 145 255  28 145 255  28 145 255  28 145 255  28 145 255  28 145 255
28 145 255  28 145 255  28 145 255  28 145 255  28 145 255  28 145 255
59 160 255  180 219 255  255 255 255  255 255 255  255 255 255  255 255 255
255 255 255  255 255 255  255 255 255  255 255 255  255 255 255  255 255 255
255 255 255  255 255 255  255 255 255  255 255 255  255 255 255  255 255 255
255 255 255  255 255 255  255 255 255  255 255 255  89 175 255  28 145 255
28 145 255  28 145 255  28 145 255  28 145 255  28 145 255  28 145 255
28 145 255  28 145 255  28 145 255  28 145 255  28 145 255  28 145 255
28 145 255  28 145 255  28 145 255  28 145 255  134 197 255  255 255 255
255 255 255  255 255 255  255 255 255  255 255 255  255 255 255  255 255 255
255 255 255  255 255 255  255 255 255  255 255 255  255 255 255  255 255 255
255 255 255  255 255 255  255 255 255  255 255 255  255 255 255  255 255 255
255 255 255  255 255 255  255 255 255  255 255 255  255 255 255  255 255 255
255 255 255  255 255 255  255 255 255  255 255 255  255 255 255  255 255 255
255 255 255  255 255 255  255 255 255  255 255 255  255 255 255  195 226 255
28 145 255  28 145 255  28 145 255  28 145 255  28 145 255  28 145 255
28 145 255  28 145 255  28 145 255  28 145 255  28 145 255  28 145 255
28 145 255  28 145 255  28 145 255  28 145 255  28 145 255  28 145 255
28 145 255  28 145 255  225 241 255  255 255 255  255 255 255  255 255 255
255 255 255  255 255 255  255 255 255  255 255 255
255 255 255  255 255 255  255 255 255  255 255 255  255 255 255  255 255 255
255 255 255  255 255 255  255 255 255  255 255 255  255 255 255  255 255 255
255 255 255  255 255 255  210 233 255  89 175 255  28 145 255  28 145 255
28 145 255  28 145 255  28 145 255  28 145 255  28 145 255  28 145 255
28 145 255  28 145 255  28 145 255  28 145 255  28 145 255  28 145 255
28 145 255  28 145 255  28 145 255  28 145 255  28 145 255  28 145 255
28 145 255  28 145 255  28 145 255  28 145 255  28 145 255  28 145 255
28 145 255  28 145 255  28 145 255  28 145 255  28 145 255  28 145 255
28 145 255  28 145 255  28 145 255  28 145 255  28 145 255  28 145 255
28 145 255  28 145 255  28 145 255  28 145 255  28 145 255  28 145 255
28 145 255  28 145 255  28 145 255  28 145 255  28 145 255  28 145 255
28 145 255  134 197 255  255 255 255  255 255 255  255 255 255  255 255 255
255 255 255  255 255 255  255 255 255  255 255 255  255 255 255  255 255 255
255 255 255  255 255 255  255 255 255  134 197 255  28 145 255  28 145 255
28 145 255  28 145 255  28 145 255  28 145 255  28 145 255  28 145 255
28 145 255  28 145 255  28 145 255  28 145 255  28 145 255  28 145 255
28 145 255  28 145 255  28 145 255  28 145 255  28 145 255  28 145 255
28 145 255  28 145 255  28 145 255  28 145 255  28 145 255  28 145 255
28 145 255  28 145 255  28 145 255  28 145 255  28 145 255  28 145 255
28 145 255  28 145 255  28 145 255  28 145 255  28 145 255  28 145 255
28 145 255  28 145 255  28 145 255  28 145 255  28 145 255  28 145 255
28 145 255  28 145 255  28 145 255  28 145 255  28 145 255  28 145 255
28 145 255  28 145 255  28 145 255  28 145 255  28 145 255  28 145 255
28 145 255  28 145 255  28 145 255  28 145 255  28 145 255  28 145 255
28 145 255  28 145 255  28 145 255  28 145 255  28 145 255  134 197 255
240 248 255  255 255 255  255 255 255  255 255 255  255 255 255  255 255 255
255 255 255  255 255 255  255 255 255  255 255 255  255 255 255  255 255 255
255 255 255  255 255 255  255 255 255  255 255 255  255 255 255  255 255 255
255 255 255  255 255 255  255 255 255  255 255 255  89 175 255  28 145 255
28 145 255  28 145 255  28 145 255  28 145 255  28 145 255  28 145 255
28 145 255  28 145 255  28 145 255  28 145 255  28 145 255  28 145 255
28 145 255  28 145 255  28 145 255  28 145 255  134 197 255  255 255 255
255 255 255  255 255 255  255 255 255  255 255 255  255 255 255  255 255 255
255 255 255  255 255 255  255 255 255  255 255 255  255 255 255  255 255 255
255 255 255  255 255 255  255 255 255  255 255 255  255 255 255  255 255 255
255 255 255  255 255 255  255 255 255  255 255 255  255 255 255  255 255 255
255 255 255  255 255 255  255 255 255  255 255 255  255 255 255  255 255 255
255 255 255  255 255 255  255 255 255  255 255 255  255 255 255  255 255 255
89 175 255  28 145 255  28 145 255  28 145 255  28 145 255  28 145 255
28 145 255  28 145 255  28 145 255  28 145 255  28 145 255  28 145 255
28 145 255  28 145 255  28 145 255  28 145 255  28 145 255  28 145 255
28 145 255  28 145 255  89 175 255  255 255 255  255 255 255  255 255 255
255 255 255  255 255 255  255 255 255  255 255 255
255 255 255  255 255 255  255 255 255  255 255 255  255 255 255  255 255 255
255 255 255  255 255 255  255 255 255  255 255 255  255 255 255  255 255 255
255 255 255  255 255 255  255 255 255  255 255 255  180 219 255  89 175 255
28 145 255  28 145 255  28 145 255  28 145 255  28 145 255  28 145 255
28 145 255  28 145 255  28 145 255  28 145 255  28 145 255  28 145 255
28 145 255  28 145 255  28 145 255  28 145 255  28 145 255  28 145 255
28 145 255  28 145 255  28 145 255  28 145 255  28 145 255  28 145 255
28 145 255  28 145 255  28 145 255  28 145 255  28 145 255  28 145 255
28 145 255  28 145 255  28 145 255  28 145 255  28 145 255  28 145 255
28 145 255  28 145 255  28 145 255  28 145 255  28 145 255  28 145 255
28 145 255  28 145 255  28 145 255  28 145 255  28 145 255  28 145 255
28 145 255  195 226 255  255 255 255  255 255 255  255 255 255  255 255 255
255 255 255  255 255 255  255 255 255  255 255 255  255 255 255  255 255 255
255 255 255  255 255 255  255 255 255  89 175 255  28 145 255  28 145 255
28 145 255  28 145 255  28 145 255  28 145 255  28 145 255  28 145 255
28 145 255  28 145 255  28 145 255  28 145 255  28 145 255  28 145 255
28 145 255  28 145 255  28 145 255  28 145 255  28 145 255  28 145 255
28 145 255  28 145 255  28 145 255  28 145 255  28 145 255  28 145 255
28 145 255  28 145 255  28 145 255  28 145 255  28 145 255  28 145 255
28 145 255  28 145 255  28 145 255  28 145 255  28 145 255  28 145 255
28 145 255  28 145 255  28 145 255  28 145 255  28 145 255  28 145 255
28 145 255  28 145 255  28 145 255  28 145 255  28 145 255  28 145 255
28 145 255  28 145 255  28 145 255  28 145 255  28 145 255  28 145 255
28 145 255  28 145 255  28 145 255  28 145 255  28 145 255  28 145 255
28 145 255  28 145 255  28 145 255  119 189 255  210 233 255  255 255 255
255 255 255  255 255 255  255 255 255  255 255 255  255 255 255  255 255 255
255 255 255  255 255 255  255 255 255  255 255 255  255 255 255  255 255 255
255 255 255  255 255 255  255 255 255  255 255 255  255 255 255  255 255 255
255 255 255  255 255 255  255 255 255  255 255 255  28 145 255  28 145 255
28 145 255  28 145 255  28 145 255  28 145 255  28 145 255  28 145 255
28 145 255  28 145 255  28 145 255  28 145 255  28 145 255  28 145 255
28 145 255  28 145 255  28 145 255  28 145 255  165 211 255  255 255 255
255 255 255  255 255 255  255 255 255  255 255 255  255 255 255  255 255 255
255 255 255  255 255 255  255 255 255  255 255 255  255 255 255  255 255 255
255 255 255  255 255 255  255 255 255  255 255 255  255 255 255  255 255 255
255 255 255  255 255 255  255 255 255  255 255 255  255 255 255  255 255 255
255 255 255  255 255 255  255 255 255  255 255 255  255 255 255  255 255 255
255 255 255  255 255 255  255 255 255  255 255 255  255 255 255  255 255 255
195 226 255  28 145 255  28 145 255  28 145 255  28 145 255  28 145 255
28 145 255  28 145 255  28 145 255  28 145 255  28 145 255  28 145 255
28 145 255  28 145 255  28 145 255  28 145 255  28 145 255  28 145 255
28 145 255  28 145 255  28 145 255  195 226 255  255 255 255  255 255 255
255 255 255  255 255 255  255 255 255  255 255 255
255 255 255  255 255 255  255 255 255  255 255 255  255 255 255  255 255 255
255 255 255  255 255 255  255 255 255  255 255 255  255 255 255  255 255 255
255 255 255  255 255 255  255 255 255  255 255 255  255 255 255  255 255 255
210 233 255  119 189 255  44 153 255  28 145 255  28 145 255  28 145 255
28 145 255  28 145 255  28 145 255  28 145 255  28 145 255  28 145 255
28 145 255  28 145 255  28 145 255  28 145 255  28 145 255  28 145 255
28 145 255  28 145 255  28 145 255  28 145 255  28 145 255  28 145 255
28 145 255  28 145 255  28 145 255  28 145 255  28 145 255  28 145 255
28 145 255  28 145 255  28 145 255  28 145 255  28 145 255  28 145 255
28 145 255  28 145 255  28 145 255  28 145 255  28 145 255  28 145 255
28 145 255  28 145 255  28 145 255  28 145 255  28 145 255  28 145 255
28 145 255  240 248 255  255 255 255  255 255 255  255 255 255  255 255 255
255 255 255  255 255 255  255 255 255  255 255 255  255 255 255  255 255 255
255 255 255  255 255 255  255 255 255  134 197 255  28 145 255  28 145 255
28 145 255  28 145 255  28 145 255  28 145 255  28 145 255  28 145 255
28 145 255  28 145 255  28 145 255  28 145 255  28 145 255  28 145 255
28 145 255  28 145 255  28 145 255  28 145 255  28 145 255  28 145 255
28 145 255  28 145 255  28 145 255  28 145 255  28 145 255  28 145 255
28 145 255  28 145 255  28 145 255  28 145 255  28 145 255  28 145 255
28 145 255  28 145 255  28 145 255  28 145 255  28 145 255  28 145 255
28 145 255  28 145 255  28 145 255  28 145 255  28 145 255  28 145 255
28 145 255  28 145 255  28 145 255  28 145 255  28 145 255  28 145 255
28 145 255  28 145 255  28 145 255  28 145 255  28 145 255  28 145 255
28 145 255  28 145 255  28 145 255  28 145 255  28 145 255  28 145 255
89 175 255  165 211 255  240 248 255  255 255 255  255 255 255  255 255 255
255 255 255  255 255 255  255 255 255  255 255 255  255 255 255  255 255 255
255 255 255  255 255 255  255 255 255  255 255 255  255 255 255  255 255 255
255 255 255  255 255 255  255 255 255  255 255 255  255 255 255  255 255 255
255 255 255  255 255 255  255 255 255  255 255 255  74 167 255  28 145 255
28 145 255  28 145 255  28 145 255  28 145 255  28 145 255  28 145 255
28 145 255  28 145 255  28 145 255  28 145 255  28 145 255  28 145 255
28 145 255  28 145 255  28 145 255  28 145 255  225 241 255  255 255 255
255 255 255  255 255 255  255 255 255  255 255 255  255 255 255  255 255 255
255 255 255  255 255 255  255 255 255  255 255 255  255 255 255  255 255 255
255 255 255  255 255 255  255 255 255  255 255 255  255 255 255  255 255 255
255 255 255  255 255 255  255 255 255  255 255 255  255 255 255  255 255 255
255 255 255  255 255 255  255 255 255  255 255 255  255 255 255  255 255 255
255 255 255  255 255 255  255 255 255  255 255 255  255 255 255  255 255 255
255 255 255  104 182 255  28 145 255  28 145 255  28 145 255  28 145 255
28 145 255  28 145 255  28 145 255  28 145 255  28 145 255  28 145 255
28 145 255  28 145 255  28 145 255  28 145 255  28 145 255  28 145 255
28 145 255  28 145 255  28 145 255  134 197 255  255 255 255  255 255 255
255 255 255  255 255 255  255 255 255  255 255 255
255 255 255  255 255 255  255 255 255  255 255 255  255 255 255  255 255 255
255 255 255  255 255 255  255 255 255  255 255 255  255 255 255  255 255 255
255 255 255  255 255 255  255 255 255  255 255 255  255 255 255  255 255 255
255 255 255  255 255 255  255 255 255  195 226 255  134 197 255  89 175 255
28 145 255  28 145 255  28 145 255  28 145 255  28 145 255  28 145 255
28 145 255  28 145 255  28 145 255  28 145 255  28 145 255  28 145 255
28 145 255  28 145 255  28 145 255  28 145 255  28 145 255  28 145 255
28 145 255  28 145 255  28 145 255  28 145 255  28 145 255  28 145 255
28 145 255  28 145 255  28 145 255  28 145 255  28 145 255  28 145 255
28 145 255  28 145 255  28 145 255  28 145 255  28 145 255  28 145 255
28 145 255  28 145 255  28 145 255  28 145 255  28 145 255  28 145 255
165 211 255  255 255 255  255 255 255  255 255 255  255 255 255  255 255 255
255 255 255  255 255 255  255 255 255  255 255 255  255 255 255  255 255 255
255 255 255  255 255 255  255 255 255  225 241 255  44 153 255  28 145 255
28 145 255  28 145 255  28 145 255  28 145 255  28 145 255  28 145 255
28 145 255  28 145 255  28 145 255  28 145 255  28 145 255  28 145 255
28 145 255  28 145 255  28 145 255  28 145 255  28 145 255  28 145 255
28 145 255  28 145 255  28 145 255  28 145 255  28 145 255  28 145 255
28 145 255  28 145 255  28 145 255  28 145 255  28 145 255  28 145 255
28 145 255  28 145 255  28 145 255  28 145 255  28 145 255  28 145 255
28 145 255  28 145 255  28 145 255  28 145 255  28 145 255  28 145 255
28 145 255  28 145 255  28 145 255  28 145 255  28 145 255  28 145 255
28 145 255  28 145 255  28 145 255  28 145 255  28 145 255  28 145 255
28 145 255  28 145 255  89 175 255  134 197 255  150 204 255  225 241 255
255 255 255  255 255 255  255 255 255  255 255 255  255 255 255  255 255 255
255 255 255  255 255 255  255 255 255  255 255 255  255 255 255  255 255 255
255 255 255  255 255 255  255 255 255  255 255 255  255 255 255  255 255 255
255 255 255  255 255 255  255 255 255  255 255 255  255 255 255  255 255 255
255 255 255  255 255 255  255 255 255  255 255 255  180 219 255  28 145 255
28 145 255  28 145 255  28 145 255  28 145 255  28 145 255  28 145 255
28 145 255  28 145 255  28 145 255  28 145 255  28 145 255  28 145 255
28 145 255  28 145 255  28 145 255  134 197 255  255 255 255  255 255 255
255 255 255  255 255 255  255 255 255  255 255 255  255 255 255  255 255 255
255 255 255  255 255 255  255 255 255  255 255 255  255 255 255  255 255 255
255 255 255  255 255 255  255 255 255  255 255 255  255 255 255  255 255 255
255 255 255  255 255 255  255 255 255  255 255 255  255 255 255  255 255 255
255 255 255  255 255 255  255 255 255  255 255 255  255 255 255  255 255 255
255 255 255  255 255 255  255 255 255  255 255 255  255 255 255  255 255 255
255 255 255  240 248 255  119 189 255  28 145 255  28 145 255  28 145 255
28 145 255  28 145 255  28 145 255  28 145 255  28 145 255  28 145 255
28 145 255  28 145 255  28 145 255  28 145 255  28 145 255  28 145 255
28 145 255  28 145 255  28 145 255  134 197 255  255 255 255  255 255 255
255 255 255  255 255 255  255 255 255  255 255 255
255 255 255  255 255 255  255 255 255  255 255 255  255 255 255  255 255 255
255 255 255  255 255 255  255 255 255  255 255 255  255 255 255  255 255 255
255 255 255  255 255 255  255 255 255  255 255 255  255 255 255  255 255 255
255 255 255  255 255 255  255 255 255  255 255 255  255 255 255  255 255 255
255 255 255  210 233 255  195 226 255  134 197 255  134 197 255  104 182 255
89 175 255  89 175 255  89 175 255  89 175 255  89 175 255  74 167 255
28 145 255  28 145 255  28 145 255  28 145 255  28 145 255  28 145 255
28 145 255  28 145 255  28 145 255  28 145 255  28 145 255  28 145 255
28 145 255  28 145 255  28 145 255  28 145 255  28 145 255  28 145 255
28 145 255  28 145 255  28 145 255  28 145 255  28 145 255  28 145 255
28 145 255  28 145 255  28 145 255  44 153 255  89 175 255  180 219 255
255 255 255  255 255 255  255 255 255  255 255 255  255 255 255  255 255 255
255 255 255  255 255 255  255 255 255  255 255 255  255 255 255  255 255 255
255 255 255  255 255 255  255 255 255  255 255 255  210 233 255  104 182 255
44 153 255  28 145 255  28 145 255  28 145 255  28 145 255  28 145 255
28 145 255  28 145 255  28 145 255  28 145 255  28 145 255  28 145 255
28 145 255  28 145 255  28 145 255  28 145 255  28 145 255  28 145 255
28 145 255  28 145 255  28 145 255  28 145 255  28 145 255  28 145 255
28 145 255  28 145 255  28 145 255  28 145 255  28 145 255  28 145 255
28 145 255  28 145 255  28 145 255  28 145 255  28 145 255  28 145 255
28 145 255  28 145 255  28 145 255  28 145 255  28 145 255  28 145 255
28 145 255  28 145 255  28 145 255  44 153 255  89 175 255  89 175 255
89 175 255  89 175 255  134 197 255  134 197 255  134 197 255  180 219 255
225 241 255  255 255 255  255 255 255  255 255 255  255 255 255  255 255 255
255 255 255  255 255 255  255 255 255  255 255 255  255 255 255  255 255 255
255 255 255  255 255 255  255 255 255  255 255 255  255 255 255  255 255 255
255 255 255  255 255 255  255 255 255  255 255 255  255 255 255  255 255 255
255 255 255  255 255 255  255 255 255  255 255 255  255 255 255  255 255 255
255 255 255  255 255 255  255 255 255  255 255 255  255 255 255  180 219 255
89 175 255  28 145 255  28 145 255  28 145 255  28 145 255  28 145 255
28 145 255  28 145 255  28 145 255  28 145 255  28 145 255  28 145 255
44 153 255  89 175 255  180 219 255  255 255 255  255 255 255  255 255 255
255 255 255  255 255 255  255 255 255  255 255 255  255 255 255  255 255 255
255 255 255  255 255 255  255 255 255  255 255 255  255 255 255  255 255 255
255 255 255  255 255 255  255 255 255  255 255 255  255 255 255  255 255 255
255 255 255  255 255 255  255 255 255  255 255 255  255 255 255  255 255 255
255 255 255  255 255 255  255 255 255  255 255 255  255 255 255  255 255 255
255 255 255  255 255 255  255 255 255  255 255 255  255 255 255  255 255 255
255 255 255  255 255 255  255 255 255  195 226 255  104 182 255  74 167 255
28 145 255  28 145 255  28 145 255  28 145 255  28 145 255  28 145 255
28 145 255  28 145 255  28 145 255  28 145 255  28 145 255  28 145 255
28 145 255  59 160 255  104 182 255  240 248 255  255 255 255  255 255 255
255 255 255  255 255 255  255 255 255  255 255 255
255 255 255  255 255 255  255 255 255  255 255 255  255 255 255  255 255 255
255 255 255  255 255 255  255 255 255  255 255 255  255 255 255  255 255 255
255 255 255  255 255 255  255 255 255  255 255 255  255 255 255  255 255 255
255 255 255  255 255 255  255 255 255  255 255 255  255 255 255  255 255 255
255 255 255  255 255 255  255 255 255  255 255 255  255 255 255  255 255 255
255 255 255  255 255 255  255 255 255  255 255 255  255 255 255  255 255 255
255 255 255  255 255 255  255 255 255  255 255 255  255 255 255  255 255 255
255 255 255  255 255 255  255 255 255  255 255 255  255 255 255  255 255 255
255 255 255  255 255 255  255 255 255  255 255 255  255 255 255  255 255 255
255 255 255  255 255 255  255 255 255  255 255 255  255 255 255  255 255 255
255 255 255  255 255 255  255 255 255  255 255 255  255 255 255  255 255 255
255 255 255  255 255 255  255 255 255  255 255 255  255 255 255  255 255 255
255 255 255  255 255 255  255 255 255  255 255 255  255 255 255  255 255 255
255 255 255  255 255 255  255 255 255  255 255 255  255 255 255  255 255 255
255 255 255  255 255 255  255 255 255  255 255 255  255 255 255  255 255 255
255 255 255  255 255 255  255 255 255  255 255 255  255 255 255  255 255 255
255 255 255  255 255 255  255 255 255  255 255 255  255 255 255  255 255 255
255 255 255  255 255 255  255 255 255  255 255 255  255 255 255  255 255 255
255 255 255  255 255 255  255 255 255  255 255 255  255 255 255  255 255 255
255 255 255  255 255 255  255 255 255  255 255 255  255 255 255  255 255 255
255 255 255  255 255 255  255 255 255  255 255 255  255 255 255  255 255 255
255 255 255  255 255 255  255 255 255  255 255 255  255 255 255  255 255 255
255 255 255  255 255 255  255 255 255  255 255 255  255 255 255  255 255 255
255 255 255  255 255 255  255 255 255  255 255 255  255 255 255  255 255 255
255 255 255  255 255 255  255 255 255  255 255 255  255 255 255  255 255 255
255 255 255  255 255 255  255 255 255  255 255 255  255 255 255  255 255 255
255 255 255  255 255 255  255 255 255  255 255 255  255 255 255  255 255 255
255 255 255  255 255 255  255 255 255  255 255 255  255 255 255  255 255 255
255 255 255  255 255 255  255 255 255  255 255 255  255 255 255  255 255 255
255 255 255  255 255 255  255 255 255  255 255 255  255 255 255  255 255 255
255 255 255  255 255 255  255 255 255  255 255 255  255 255 255  255 255 255
255 255 255  255 255 255  255 255 255  255 255 255  255 255 255  255 255 255
255 255 255  255 255 255  255 255 255  255 255 255  255 255 255  255 255 255
255 255 255  255 255 255  255 255 255  255 255 255  255 255 255  255 255 255
255 255 255  255 255 255  255 255 255  255 255 255  255 255 255  255 255 255
255 255 255  255 255 255  255 255 255  255 255 255  255 255 255  255 255 255
255 255 255  255 255 255  255 255 255  255 255 255  255 255 255  255 255 255
255 255 255  255 255 255  255 255 255  255 255 255  255 255 255  255 255 255
255 255 255  255 255 255  255 255 255  255 255 255  255 255 255  255 255 255
255 255 255  255 255 255  255 255 255  255 255 255  255 255 255  255 255 255
255 255 255  255 255 255  255 255 255  255 255 255  255 255 255  255 255 255
255 255 255  255 255 255  255 255 255  255 255 255  255 255 255  255 255 255
255 255 255  255 255 255  255 255 255  255 255 255
255 255 255  255 255 255  255 255 255  255 255 255  255 255 255  255 255 255
255 255 255  255 255 255  255 255 255  255 255 255  255 255 255  255 255 255
255 255 255  255 255 255  255 255 255  255 255 255  255 255 255  255 255 255
255 255 255  255 255 255  255 255 255  255 255 255  255 255 255  255 255 255
255 255 255  255 255 255  255 255 255  255 255 255  255 255 255  255 255 255
255 255 255  255 255 255  255 255 255  255 255 255  255 255 255  255 255 255
255 255 255  255 255 255  255 255 255  255 255 255  255 255 255  255 255 255
255 255 255  255 255 255  255 255 255  255 255 255  255 255 255  255 255 255
255 255 255  255 255 255  255 255 255  255 255 255  255 255 255  255 255 255
255 255 255  255 255 255  255 255 255  255 255 255  255 255 255  255 255 255
255 255 255  255 255 255  255 255 255  255 255 255  255 255 255  255 255 255
255 255 255  255 255 255  255 255 255  255 255 255  255 255 255  255 255 255
255 255 255  255 255 255  255 255 255  255 255 255  255 255 255  255 255 255
255 255 255  255 255 255  255 255 255  255 255 255  255 255 255  255 255 255
255 255 255  255 255 255  255 255 255  255 255 255  255 255 255  255 255 255
255 255 255  255 255 255  255 255 255  255 255 255  255 255 255  255 255 255
255 255 255  255 255 255  255 255 255  255 255 255  255 255 255  255 255 255
255 255 255  255 255 255  255 255 255  255 255 255  255 255 255  255 255 255
255 255 255  255 255 255  255 255 255  255 255 255  255 255 255  255 255 255
255 255 255  255 255 255  255 255 255  255 255 255  255 255 255  255 255 255
255 255 255  255 255 255  255 255 255  255 255 255  255 255 255  255 255 255
255 255 255  255 255 255  255 255 255  255 255 255  255 255 255  255 255 255
255 255 255  255 255 255  255 255 255  255 255 255  255 255 255  255 255 255
255 255 255  255 255 255  255 255 255  255 255 255  255 255 255  255 255 255
255 255 255  255 255 255  255 255 255  255 255 255  255 255 255  255 255 255
255 255 255  255 255 255  255 255 255  255 255 255  255 255 255  255 255 255
255 255 255  255 255 255  255 255 255  255 255 255  255 255 255  255 255 255
255 255 255  255 255 255  255 255 255  255 255 255  255 255 255  255 255 255
255 255 255  255 255 255  255 255 255  255 255 255  255 255 255  255 255 255
255 255 255  255 255 255  255 255 255  255 255 255  255 255 255  255 255 255
255 255 255  255 255 255  255 255 255  255 255 255  255 255 255  255 255 255
255 255 255  255 255 255  255 255 255  255 255 255  255 255 255  255 255 255
255 255 255  255 255 255  255 255 255  255 255 255  255 255 255  255 255 255
255 255 255  255 255 255  255 255 255  255 255 255  255 255 255  255 255 255
255 255 255  255 255 255  255 255 255  255 255 255  255 255 255  255 255 255
255 255 255  255 255 255  255 255 255  255 255 255  255 255 255  255 255 255
255 255 255  255 255 255  255 255 255  255 255 255  255 255 255  255 255 255
255 255 255  255 255 255  255 255 255  255 255 255  255 255 255  255 255 255
255 255 255  255 255 255  255 255 255  255 255 255  255 255 255  255 255 255
255 255 255  255 255 255  255 255 255  255 255 255  255 255 255  255 255 255
255 255 255  255 255 255  255 255 255  255 255 255  255 255 255  255 255 255
255 255 255  255 255 255  255 255 255  255 255 255  255 255 255  255 255 255
255 255 255  255 255 255  255 255 255  255 255 255
255 255 255  255 255 255  255 255 255  255 255 255  255 255 255  255 255 255
255 255 255  255 255 255  255 255 255  255 255 255  255 255 255  255 255 255
255 255 255  255 255 255  255 255 255  255 255 255  255 255 255  255 255 255
255 255 255  255 255 255  255 255 255  255 255 255  255 255 255  255 255 255
255 255 255  255 255 255  255 255 255  255 255 255  255 255 255  255 255 255
255 255 255  255 255 255  255 255 255  255 255 255  255 255 255  255 255 255
255 255 255  255 255 255  255 255 255  255 255 255  255 255 255  255 255 255
255 255 255  255 255 255  255 255 255  255 255 255  255 255 255  255 255 255
255 255 255  255 255 255  255 255 255  255 255 255  255 255 255  255 255 255
255 255 255  255 255 255  255 255 255  255 255 255  255 255 255  255 255 255
255 255 255  255 255 255  255 255 255  255 255 255  255 255 255  255 255 255
255 255 255  255 255 255  255 255 255  255 255 255  255 255 255  255 255 255
255 255 255  255 255 255  255 255 255  255 255 255  255 255 255  255 255 255
255 255 255  255 255 255  255 255 255  255 255 255  255 255 255  255 255 255
255 255 255  255 255 255  255 255 255  255 255 255  255 255 255  255 255 255
255 255 255  255 255 255  255 255 255  255 255 255  255 255 255  255 255 255
255 255 255  255 255 255  255 255 255  255 255 255  255 255 255  255 255 255
255 255 255  255 255 255  255 255 255  255 255 255  255 255 255  255 255 255
255 255 255  255 255 255  255 255 255  255 255 255  255 255 255  255 255 255
255 255 255  255 255 255  255 255 255  255 255 255  255 255 255  255 255 255
255 255 255  255 255 255  255 255 255  255 255 255  255 255 255  255 255 255
255 255 255  255 255 255  255 255 255  255 255 255  255 255 255  255 255 255
255 255 255  255 255 255  255 255 255  255 255 255  255 255 255  255 255 255
255 255 255  255 255 255  255 255 255  255 255 255  255 255 255  255 255 255
255 255 255  255 255 255  255 255 255  255 255 255  255 255 255  255 255 255
255 255 255  255 255 255  255 255 255  255 255 255  255 255 255  255 255 255
255 255 255  255 255 255  255 255 255  255 255 255  255 255 255  255 255 255
255 255 255  255 255 255  255 255 255  255 255 255  255 255 255  255 255 255
255 255 255  255 255 255  255 255 255  255 255 255  255 255 255  255 255 255
255 255 255  255 255 255  255 255 255  255 255 255  255 255 255  255 255 255
255 255 255  255 255 255  255 255 255  255 255 255  255 255 255  255 255 255
255 255 255  255 255 255  255 255 255  255 255 255  255 255 255  255 255 255
255 255 255  255 255 255  255 255 255  255 255 255  255 255 255  255 255 255
255 255 255  255 255 255  255 255 255  255 255 255  255 255 255  255 255 255
255 255 255  255 255 255  255 255 255  255 255 255  255 255 255  255 255 255
255 255 255  255 255 255  255 255 255  255 255 255  255 255 255  255 255 255
255 255 255  255 255 255  255 255 255  255 255 255  255 255 255  255 255 255
255 255 255  255 255 255  255 255 255  255 255 255  255 255 255  255 255 255
255 255 255  255 255 255  255 255 255  255 255 255  255 255 255  255 255 255
255 255 255  255 255 255  255 255 255  255 255 255  255 255 255  255 255 255
255 255 255  255 255 255  255 255 255  255 255 255  255 255 255  255 255 255
255 255 255  255 255 255  255 255 255  255 255 255  255 255 255  255 255 255
255 255 255  255 255 255  255 255 255  255 255 255
255 255 255  255 255 255  255 255 255  255 255 255  255 255 255  255 255 255
255 255 255  255 255 255  255 255 255  255 255 255  255 255 255  255 255 255
255 255 255  255 255 255  255 255 255  255 255 255  255 255 255  255 255 255
255 255 255  255 255 255  255 255 255  255 255 255  255 255 255  255 255 255
255 255 255  255 255 255  255 255 255  255 255 255  255 255 255  255 255 255
255 255 255  255 255 255  255 255 255  255 255 255  255 255 255  255 255 255
255 255 255  255 255 255  255 255 255  255 255 255  255 255 255  255 255 255
255 255 255  255 255 255  255 255 255  255 255 255  255 255 255  255 255 255
255 255 255  255 255 255  255 255 255  255 255 255  255 255 255  255 255 255
255 255 255  255 255 255  255 255 255  255 255 255  255 255 255  255 255 255
255 255 255  255 255 255  255 255 255  255 255 255  255 255 255  255 255 255
255 255 255  255 255 255  255 255 255  255 255 255  255 255 255  255 255 255
255 255 255  255 255 255  255 255 255  255 255 255  255 255 255  255 255 255
255 255 255  255 255 255  255 255 255  255 255 255  255 255 255  255 255 255
255 255 255  255 255 255  255 255 255  255 255 255  255 255 255  255 255 255
255 255 255  255 255 255  255 255 255  255 255 255  255 255 255  255 255 255
255 255 255  255 255 255  255 255 255  255 255 255  255 255 255  255 255 255
255 255 255  255 255 255  255 255 255  255 255 255  255 255 255  255 255 255
255 255 255  255 255 255  255 255 255  255 255 255  255 255 255  255 255 255
255 255 255  255 255 255  255 255 255  255 255 255  255 255 255  255 255 255
255 255 255  255 255 255  255 255 255  255 255 255  255 255 255  255 255 255
255 255 255  255 255 255  255 255 255  255 255 255  255 255 255  255 255 255
255 255 255  255 255 255  255 255 255  255 255 255  255 255 255  255 255 255
255 255 255  255 255 255  255 255 255  255 255 255  255 255 255  255 255 255
255 255 255  255 255 255  255 255 255  255 255 255  255 255 255  255 255 255
255 255 255  255 255 255  255 255 255  255 255 255  255 255 255  255 255 255
255 255 255  255 255 255  255 255 255  255 255 255  255 255 255  255 255 255
255 255 255  255 255 255  255 255 255  255 255 255  255 255 255  255 255 255
255 255 255  255 255 255  255 255 255  255 255 255  255 255 255  255 255 255
255 255 255  255 255 255  255 255 255  255 255 255  255 255 255  255 255 255
255 255 255  255 255 255  255 255 255  255 255 255  255 255 255  255 255 255
255 255 255  255 255 255  255 255 255  255 255 255  255 255 255  255 255 255
255 255 255  255 255 255  255 255 255  255 255 255  255 255 255  255 255 255
255 255 255  255 255 255  255 255 255  255 255 255  255 255 255  255 255 255
255 255 255  255 255 255  255 255 255  255 255 255  255 255 255  255 255 255
255 255 255  255 255 255  255 255 255  255 255 255  255 255 255  255 255 255
255 255 255  255 255 255  255 255 255  255 255 255  255 255 255  255 255 255
255 255 255  255 255 255  255 255 255  255 255 255  255 255 255  255 255 255
255 255 255  255 255 255  255 255 255  255 255 255  255 255 255  255 255 255
255 255 255  255 255 255  255 255 255  255 255 255  255 255 255  255 255 255
255 255 255  255 255 255  255 255 255  255 255 255  255 255 255  255 255 255
255 255 255  255 255 255  255 255 255  255 255 255  255 255 255  255 255 255
255 255 255  255 255 255  255 255 255  255 255 255
255 255 255  255 255 255  255 255 255  255 255 255  255 255 255  255 255 255
255 255 255  255 255 255  255 255 255  255 255 255  255 255 255  255 255 255
255 255 255  255 255 255  255 255 255  255 255 255  255 255 255  255 255 255
255 255 255  255 255 255  255 255 255  255 255 255  255 255 255  255 255 255
255 255 255  255 255 255  255 255 255  255 255 255  255 255 255  255 255 255
255 255 255  255 255 255  255 255 255  255 255 255  255 255 255  255 255 255
255 255 255  255 255 255  255 255 255  255 255 255  255 255 255  255 255 255
255 255 255  255 255 255  255 255 255  255 255 255  255 255 255  255 255 255
255 255 255  255 255 255  255 255 255  255 255 255  255 255 255  255 255 255
255 255 255  255 255 255  255 255 255  255 255 255  255 255 255  255 255 255
255 255 255  255 255 255  255 255 255  255 255 255  255 255 255  255 255 255
255 255 255  255 255 255  255 255 255  255 255 255  255 255 255  255 255 255
255 255 255  255 255 255  255 255 255  255 255 255  255 255 255  255 255 255
255 255 255  255 255 255  255 255 255  255 255 255  255 255 255  255 255 255
255 255 255  255 255 255  255 255 255  255 255 255  255 255 255  255 255 255
255 255 255  255 255 255  255 255 255  255 255 255  255 255 255  255 255 255
255 255 255  255 255 255  255 255 255  255 255 255  255 255 255  255 255 255
255 255 255  255 255 255  255 255 255  255 255 255  255 255 255  255 255 255
255 255 255  255 255 255  255 255 255  255 255 255  255 255 255  255 255 255
255 255 255  255 255 255  255 255 255  255 255 255  255 255 255  255 255 255
255 255 255  255 255 255  255 255 255  255 255 255  255 255 255  255 255 255
255 255 255  255 255 255  255 255 255  255 255 255  255 255 255  255 255 255
255 255 255  255 255 255  255 255 255  255 255 255  255 255 255  255 255 255
255 255 255  255 255 255  255 255 255  255 255 255  255 255 255  255 255 255
255 255 255  255 255 255  255 255 255  255 255 255  255 255 255  255 255 255
255 255 255  255 255 255  255 255 255  255 255 255  255 255 255  255 255 255
255 255 255  255 255 255  255 255 255  255 255 255  255 255 255  255 255 255
255 255 255  255 255 255  255 255 255  255 255 255  255 255 255  255 255 255
255 255 255  255 255 255  255 255 255  255 255 255  255 255 255  255 255 255
255 255 255  255 255 255  255 255 255  255 255 255  255 255 255  255 255 255
255 255 255  255 255 255  255 255 255  255 255 255  255 255 255  255 255 255
255 255 255  255 255 255  255 255 255  255 255 255  255 255 255  255 255 255
255 255 255  255 255 255  255 255 255  255 255 255  255 255 255  255 255 255
255 255 255  255 255 255  255 255 255  255 255 255  255 255 255  255 255 255
255 255 255  255 255 255  255 255 255  255 255 255  255 255 255  255 255 255
255 255 255  255 255 255  255 255 255  255 255 255  255 255 255  255 255 255
255 255 255  255 255 255  255 255 255  255 255 255  255 255 255  255 255 255
255 255 255  255 255 255  255 255 255  255 255 255  255 255 255  255 255 255
255 255 255  255 255 255  255 255 255  255 255 255  255 255 255  255 255 255
255 255 255  255 255 255  255 255 255  255 255 255  255 255 255  255 255 255
255 255 255  255 255 255  255 255 255  255 255 255  255 255 255  255 255 255
255 255 255  255 255 255  255 255 255  255 255 255  255 255 255  255 255 255
255 255 255  255 255 255  255 255 255  255 255 255
255 255 255  255 255 255  255 255 255  255 255 255  255 255 255  255 255 255
255 255 255  255 255 255  255 255 255  255 255 255  255 255 255  255 255 255
255 255 255  255 255 255  255 255 255  255 255 255  255 255 255  255 255 255
255 255 255  255 255 255  255 255 255  255 255 255  255 255 255  255 255 255
255 255 255  255 255 255  255 255 255  255 255 255  255 255 255  255 255 255
255 255 255  255 255 255  255 255 255  255 255 255  255 255 255  255 255 255
255 255 255  255 255 255  255 255 255  255 255 255  255 255 255  255 255 255
255 255 255  255 255 255  255 255 255  255 255 255  255 255 255  255 255 255
255 255 255  255 255 255  255 255 255  255 255 255  255 255 255  255 255 255
255 255 255  255 255 255  255 255 255  255 255 255  255 255 255  255 255 255
255 255 255  255 255 255  255 255 255  255 255 255  255 255 255  255 255 255
255 255 255  255 255 255  255 255 255  255 255 255  255 255 255  255 255 255
255 255 255  255 255 255  255 255 255  255 255 255  255 255 255  255 255 255
255 255 255  255 255 255  255 255 255  255 255 255  255 255 255  255 255 255
255 255 255  255 255 255  255 255 255  255 255 255  255 255 255  255 255 255
255 255 255  255 255 255  255 255 255  255 255 255  255 255 255  255 255 255
255 255 255  255 255 255  255 255 255  255 255 255  255 255 255  255 255 255
255 255 255  255 255 255  255 255 255  255 255 255  255 255 255  255 255 255
255 255 255  255 255 255  255 255 255  255 255 255  255 255 255  255 255 255
255 255 255  255 255 255  255 255 255  255 255 255  255 255 255  255 255 255
255 255 255  255 255 255  255 255 255  255 255 255  255 255 255  255 255 255
255 255 255  255 255 255  255 255 255  255 255 255  255 255 255  255 255 255
255 255 255  255 255 255  255 255 255  255 255 255  255 255 255  255 255 255
255 255 255  255 255 255  255 255 255  255 255 255  255 255 255  255 255 255
255 255 255  255 255 255  255 255 255  255 255 255  255 255 255  255 255 255
255 255 255  255 255 255  255 255 255  255 255 255  255 255 255  255 255 255
255 255 255  255 255 255  255 255 255  255 255 255  255 255 255  255 255 255
255 255 255  255 255 255  255 255 255  255 255 255  255 255 255  255 255 255
255 255 255  255 255 255  255 255 255  255 255 255  255 255 255  255 255 255
255 255 255  255 255 255  255 255 255  255 255 255  255 255 255  255 255 255
255 255 255  255 255 255  255 255 255  255 255 255  255 255 255  255 255 255
255 255 255  255 255 255  255 255 255  255 255 255  255 255 255  255 255 255
255 255 255  255 255 255  255 255 255  255 255 255  255 255 255  255 255 255
255 255 255  255 255 255  255 255 255  255 255 255  255 255 255  255 255 255
255 255 255  255 255 255  255 255 255  255 255 255  255 255 255  255 255 255
255 255 255  255 255 255  255 255 255  255 255 255  255 255 255  255 255 255
255 255 255  255 255 255  255 255 255  255 255 255  255 255 255  255 255 255
255 255 255  255 255 255  255 255 255  255 255 255  255 255 255  255 255 255
255 255 255  255 255 255  255 255 255  255 255 255  255 255 255  255 255 255
255 255 255  255 255 255  255 255 255  255 255 255  255 255 255  255 255 255
255 255 255  255 255 255  255 255 255  255 255 255  255 255 255  255 255 255
255 255 255  255 255 255  255 255 255  255 255 255  255 255 255  255 255 255
255 255 255  255 255 255  255 255 255  255 255 255
255 255 255  255 255 255  255 255 255  255 255 255  255 255 255  255 255 255
255 255 255  255 255 255  255 255 255  255 255 255  255 255 255  255 255 255
255 255 255  255 255 255  255 255 255  255 255 255  255 255 255  255 255 255
255 255 255  255 255 255  255 255 255  255 255 255  255 255 255  255 255 255
255 255 255  255 255 255  255 255 255  255 255 255  255 255 255  255 255 255
255 255 255  255 255 255  255 255 255  255 255 255  255 255 255  255 255 255
255 255 255  255 255 255  255 255 255  255 255 255  255 255 255  255 255 255
255 255 255  255 255 255  255 255 255  255 255 255  255 255 255  255 255 255
255 255 255  255 255 255  255 255 255  255 255 255  255 255 255  255 255 255
255 255 255  255 255 255  255 255 255  255 255 255  255 255 255  255 255 255
255 255 255  255 255 255  255 255 255  255 255 255  255 255 255  255 255 255
255 255 255  255 255 255  255 255 255  255 255 255  255 255 255  255 255 255
255 255 255  255 255 255  255 255 255  255 255 255  255 255 255  255 255 255
255 255 255  255 255 255  255 255 255  255 255 255  255 255 255  255 255 255
255 255 255  255 255 255  255 255 255  255 255 255  255 255 255  255 255 255
255 255 255  255 255 255  255 255 255  255 255 255  255 255 255  255 255 255
255 255 255  255 255 255  255 255 255  255 255 255  255 255 255  255 255 255
255 255 255  255 255 255  255 255 255  255 255 255  255 255 255  255 255 255
255 255 255  255 255 255  255 255 255  255 255 255  255 255 255  255 255 255
255 255 255  255 255 255  255 255 255  255 255 255  255 255 255  255 255 255
255 255 255  255 255 255  255 255 255  255 255 255  255 255 255  255 255 255
255 255 255  255 255 255  255 255 255  255 255 255  255 255 255  255 255 255
255 255 255  255 255 255  255 255 255  255 255 255  255 255 255  255 255 255
255 255 255  255 255 255  255 255 255  255 255 255  255 255 255  255 255 255
255 255 255  255 255 255  255 255 255  255 255 255  255 255 255  255 255 255
255 255 255  255 255 255  255 255 255  255 255 255  255 255 255  255 255 255
255 255 255  255 255 255  255 255 255  255 255 255  255 255 255  255 255 255
255 255 255  255 255 255  255 255 255  255 255 255  255 255 255  255 255 255
255 255 255  255 255 255  255 255 255  255 255 255  255 255 255  255 255 255
255 255 255  255 255 255  255 255 255  255 255 255  255 255 255  255 255 255
255 255 255  255 255 255  255 255 255  255 255 255  255 255 255  255 255 255
255 255 255  255 255 255  255 255 255  255 255 255  255 255 255  255 255 255
255 255 255  255 255 255  255 255 255  255 255 255  255 255 255  255 255 255
255 255 255  255 255 255  255 255 255  255 255 255  255 255 255  255 255 255
255 255 255  255 255 255  255 255 255  255 255 255  255 255 255  255 255 255
255 255 255  255 255 255  255 255 255  255 255 255  255 255 255  255 255 255
255 255 255  255 255 255  255 255 255  255 255 255  255 255 255  255 255 255
255 255 255  255 255 255  255 255 255  255 255 255  255 255 255  255 255 255
255 255 255  255 255 255  255 255 255  255 255 255  255 255 255  255 255 255
255 255 255  255 255 255  255 255 255  255 255 255  255 255 255  255 255 255
255 255 255  255 255 255  255 255 255  255 255 255  255 255 255  255 255 255
255 255 255  255 255 255  255 255 255  255 255 255  255 255 255  255 255 255
255 255 255  255 255 255  255 255 255  255 255 255
255 255 255  255 255 255  255 255 255  255 255 255  255 255 255  255 255 255
255 255 255  255 255 255  255 255 255  255 255 255  255 255 255  255 255 255
255 255 255  255 255 255  255 255 255  255 255 255  255 255 255  255 255 255
255 255 255  255 255 255  255 255 255  255 255 255  255 255 255  255 255 255
255 255 255  255 255 255  255 255 255  255 255 255  255 255 255  255 255 255
255 255 255  255 255 255  255 255 255  255 255 255  255 255 255  255 255 255
255 255 255  255 255 255  255 255 255  255 255 255  255 255 255  255 255 255
255 255 255  255 255 255  255 255 255  255 255 255  255 255 255  255 255 255
255 255 255  255 255 255  255 255 255  255 255 255  255 255 255  255 255 255
255 255 255  255 255 255  255 255 255  255 255 255  255 255 255  255 255 255
255 255 255  255 255 255  255 255 255  255 255 255  255 255 255  255 255 255
255 255 255  255 255 255  255 255 255  255 255 255  255 255 255  255 255 255
255 255 255  255 255 255  255 255 255  255 255 255  255 255 255  255 255 255
255 255 255  255 255 255  255 255 255  255 255 255  255 255 255  255 255 255
255 255 255  255 255 255  255 255 255  255 255 255  255 255 255  255 255 255
255 255 255  255 255 255  255 255 255  255 255 255  255 255 255  255 255 255
255 255 255  255 255 255  255 255 255  255 255 255  255 255 255  255 255 255
255 255 255  255 255 255  255 255 255  255 255 255  255 255 255  255 255 255
255 255 255  255 255 255  255 255 255  255 255 255  255 255 255  255 255 255
255 255 255  255 255 255  255 255 255  255 255 255  255 255 255  255 255 255
255 255 255  255 255 255  255 255 255  255 255 255  255 255 255  255 255 255
255 255 255  255 255 255  255 255 255  255 255 255  255 255 255  255 255 255
255 255 255  255 255 255  255 255 255  255 255 255  255 255 255  255 255 255
255 255 255  255 255 255  255 255 255  255 255 255  255 255 255  255 255 255
255 255 255  255 255 255  255 255 255  255 255 255  255 255 255  255 255 255
255 255 255  255 255 255  255 255 255  255 255 255  255 255 255  255 255 255
255 255 255  255 255 255  255 255 255  255 255 255  255 255 255  255 255 255
255 255 255  255 255 255  255 255 255  255 255 255  255 255 255  255 255 255
255 255 255  255 255 255  255 255 255  255 255 255  255 255 255  255 255 255
255 255 255  255 255 255  255 255 255  255 255 255  255 255 255  255 255 255
255 255 255  255 255 255  255 255 255  255 255 255  255 255 255  255 255 255
255 255 255  255 255 255  255 255 255  255 255 255  255 255 255  255 255 255
255 255 255  255 255 255  255 255 255  255 255 255  255 255 255  255 255 255
255 255 255  255 255 255  255 255 255  255 255 255  255 255 255  255 255 255
255 255 255  255 255 255  255 255 255  255 255 255  255 255 255  255 255 255
255 255 255  255 255 255  255 255 255  255 255 255  255 255 255  255 255 255
255 255 255  255 255 255  255 255 255  255 255 255  255 255 255  255 255 255
255 255 255  255 255 255  255 255 255  255 255 255  255 255 255  255 255 255
255 255 255  255 255 255  255 255 255  255 255 255  255 255 255  255 255 255
255 255 255  255 255 255  255 255 255  255 255 255  255 255 255  255 255 255
255 255 255  255 255 255  255 255 255  255 255 255  255 255 255  255 255 255
255 255 255  255 255 255  255 255 255  255 255 255  255 255 255  255 255 255
255 255 255  255 255 255  255 255 255  255 255 255
255 255 255  255 255 255  255 255 255  255 255 255  255 255 255  255 255 255
255 255 255  255 255 255  255 255 255  255 255 255  255 255 255  255 255 255
255 255 255  255 255 255  255 255 255  255 255 255  255 255 255  255 255 255
255 255 255  255 255 255  255 255 255  255 255 255  255 255 255  255 255 255
255 255 255  255 255 255  255 255 255  255 255 255  255 255 255  255 255 255
255 255 255  255 255 255  255 255 255  255 255 255  255 255 255  255 255 255
255 255 255  255 255 255  255 255 255  255 255 255  255 255 255  255 255 255
255 255 255  255 255 255  255 255 255  255 255 255  255 255 255  255 255 255
255 255 255  255 255 255  255 255 255  255 255 255  255 255 255  255 255 255
255 255 255  255 255 255  255 255 255  255 255 255  255 255 255  255 255 255
255 255 255  255 255 255  255 255 255  255 255 255  255 255 255  255 255 255
255 255 255  255 255 255  255 255 255  255 255 255  255 255 255  255 255 255
255 255 255  255 255 255  255 255 255  255 255 255  255 255 255  255 255 255
255 255 255  255 255 255  255 255 255  255 255 255  255 255 255  255 255 255
255 255 255  255 255 255  255 255 255  255 255 255  255 255 255  255 255 255
255 255 255  255 255 255  255 255 255  255 255 255  255 255 255  255 255 255
255 255 255  255 255 255  255 255 255  255 255 255  255 255 255  255 255 255
255 255 255  255 255 255  255 255 255  255 255 255  255 255 255  255 255 255
255 255 255  255 255 255  255 255 255  255 255 255  255 255 255  255 255 255
255 255 255  255 255 255  255 255 255  255 255 255  255 255 255  255 255 255
255 255 255  255 255 255  255 255 255  255 255 255  255 255 255  255 255 255
255 255 255  255 255 255  255 255 255  255 255 255  255 255 255  255 255 255
255 255 255  255 255 255  255 255 255  255 255 255  255 255 255  255 255 255
255 255 255  255 255 255  255 255 255  255 255 255  255 255 255  255 255 255
255 255 255  255 255 255  255 255 255  255 255 255  255 255 255  255 255 255
255 255 255  255 255 255  255 255 255  255 255 255  255 255 255  255 255 255
255 255 255  255 255 255  255 255 255  255 255 255  255 255 255  255 255 255
255 255 255  255 255 255  255 255 255  255 255 255  255 255 255  255 255 255
255 255 255  255 255 255  255 255 255  255 255 255  255 255 255  255 255 255
255 255 255  255 255 255  255 255 255  255 255 255  255 255 255  255 255 255
255 255 255  255 255 255  255 255 255  255 255 255  255 255 255  255 255 255
255 255 255  255 255 255  255 255 255  255 255 255  255 255 255  255 255 255
255 255 255  255 255 255  255 255 255  255 255 255  255 255 255  255 255 255
255 255 255  255 255 255  255 255 255  255 255 255  255 255 255  255 255 255
255 255 255  255 255 255  255 255 255  255 255 255  255 255 255  255 255 255
255 255 255  255 255 255  255 255 255  255 255 255  255 255 255  255 255 255
255 255 255  255 255 255  255 255 255  255 255 255  255 255 255  255 255 255
255 255 255  255 255 255  255 255 255  255 255 255  255 255 255  255 255 255
255 255 255  255 255 255  255 255 255  255 255 255  255 255 255  255 255 255
255 255 255  255 255 255  255 255 255  255 255 255  255 255 255  255 255 255
255 255 255  255 255 255  255 255 255  255 255 255  255 255 255  255 255 255
255 255 255  255 255 255  255 255 255  255 255 255  255 255 255  255 255 255
255 255 255  255 255 255  255 255 255  255 255 255
255 255 255  255 255 255  255 255 255  255 255 255  255 255 255  255 255 255
255 255 255  255 255 255  255 255 255  255 255 255  255 255 255  255 255 255
255 255 255  255 255 255  255 255 255  255 255 255  255 255 255  255 255 255
255 255 255  255 255 255  255 255 255  255 255 255  255 255 255  255 255 255
255 255 255  255 255 255  255 255 255  255 255 255  255 255 255  255 255 255
255 255 255  255 255 255  255 255 255  255 255 255  255 255 255  255 255 255
255 255 255  255 255 255  255 255 255  255 255 255  255 255 255  255 255 255
255 255 255  255 255 255  255 255 255  255 255 255  255 255 255  255 255 255
255 255 255  255 255 255  255 255 255  255 255 255  255 255 255  255 255 255
255 255 255  255 255 255  255 255 255  255 255 255  255 255 255  255 255 255
255 255 255  255 255 255  255 255 255  255 255 255  255 255 255  255 255 255
255 255 255  255 255 255  255 255 255  255 255 255  255 255 255  255 255 255
255 255 255  255 255 255  255 255 255  255 255 255  255 255 255  255 255 255
255 255 255  255 255 255  255 255 255  255 255 255  255 255 255  255 255 255
255 255 255  255 255 255  255 255 255  255 255 255  255 255 255  255 255 255
255 255 255  255 255 255  255 255 255  255 255 255  255 255 255  255 255 255
255 255 255  255 255 255  255 255 255  255 255 255  255 255 255  255 255 255
255 255 255  255 255 255  255 255 255  255 255 255  255 255 255  255 255 255
255 255 255  255 255 255  255 255 255  255 255 255  255 255 255  255 255 255
255 255 255  255 255 255  255 255 255  255 255 255  255 255 255  255 255 255
255 255 255  255 255 255  255 255 255  255 255 255  255 255 255  255 255 255
255 255 255  255 255 255  255 255 255  255 255 255  255 255 255  255 255 255
255 255 255  255 255 255  255 255 255  255 255 255  255 255 255  255 255 255
255 255 255  255 255 255  255 255 255  255 255 255  255 255 255  255 255 255
255 255 255  255 255 255  255 255 255  255 255 255  255 255 255  255 255 255
255 255 255  255 255 255  255 255 255  255 255 255  255 255 255  255 255 255
255 255 255  255 255 255  255 255 255  255 255 255  255 255 255  255 255 255
255 255 255  255 255 255  255 255 255  255 255 255  255 255 255  255 255 255
255 255 255  255 255 255  255 255 255  255 255 255  255 255 255  255 255 255
255 255 255  255 255 255  255 255 255  255 255 255  255 255 255  255 255 255
255 255 255  255 255 255  255 255 255  255 255 255  255 255 255  255 255 255
255 255 255  255 255 255  255 255 255  255 255 255  255 255 255  255 255 255
255 255 255  255 255 255  255 255 255  255 255 255  255 255 255  255 255 255
255 255 255  255 255 255  255 255 255  255 255 255  255 255 255  255 255 255
255 255 255  255 255 255  255 255 255  255 255 255  255 255 255  255 255 255
255 255 255  255 255 255  255 255 255  255 255 255  255 255 255  255 255 255
255 255 255  255 255 255  255 255 255  255 255 255  255 255 255  255 255 255
255 255 255  255 255 255  255 255 255  255 255 255  255 255 255  255 255 255
255 255 255  255 255 255  255 255 255  255 255 255  255 255 255  255 255 255
255 255 255  255 255 255  255 255 255  255 255 255  255 255 255  255 255 255
255 255 255  255 255 255  255 255 255  255 255 255  255 255 255  255 255 255
255 255 255  255 255 255  255 255 255  255 255 255  255 255 255  255 255 255
255 255 255  255 255 255  255 255 255  255 255 255
255 255 255  255 255 255  255 255 255  255 255 255  255 255 255  255 255 255
255 255 255  255 255 255  255 255 255  255 255 255  255 255 255  255 255 255
255 255 255  255 255 255  255 255 255  255 255 255  255 255 255  255 255 255
255 255 255  255 255 255  255 255 255  255 255 255  255 255 255  255 255 255
255 255 255  255 255 255  255 255 255  255 255 255  255 255 255  255 255 255
255 255 255  255 255 255  255 255 255  255 255 255  255 255 255  255 255 255
255 255 255  255 255 255  255 255 255  255 255 255  255 255 255  255 255 255
255 255 255  255 255 255  255 255 255  255 255 255  255 255 255  255 255 255
255 255 255  255 255 255  255 255 255  255 255 255  255 255 255  255 255 255
255 255 255  255 255 255  255 255 255  255 255 255  255 255 255  255 255 255
255 255 255  255 255 255  255 255 255  255 255 255  255 255 255  255 255 255
255 255 255  255 255 255  255 255 255  255 255 255  255 255 255  255 255 255
255 255 255  255 255 255  255 255 255  255 255 255  255 255 255  255 255 255
255 255 255  255 255 255  255 255 255  255 255 255  255 255 255  255 255 255
255 255 255  255 255 255  255 255 255  255 255 255  255 255 255  255 255 255
255 255 255  255 255 255  255 255 255  255 255 255  255 255 255  255 255 255
255 255 255  255 255 255  255 255 255  255 255 255  255 255 255  255 255 255
255 255 255  255 255 255  255 255 255  255 255 255  255 255 255  255 255 255
255 255 255  255 255 255  255 255 255  255 255 255  255 255 255  255 255 255
255 255 255  255 255 255  255 255 255  255 255 255  255 255 255  255 255 255
255 255 255  255 255 255  255 255 255  255 255 255  255 255 255  255 255 255
255 255 255  255 255 255  255 255 255  255 255 255  255 255 255  255 255 255
255 255 255  255 255 255  255 255 255  255 255 255  255 255 255  255 255 255
255 255 255  255 255 255  255 255 255  255 255 255  255 255 255  255 255 255
255 255 255  255 255 255  255 255 255  255 255 255  255 255 255  255 255 255
255 255 255  255 255 255  255 255 255  255 255 255  255 255 255  255 255 255
255 255 255  255 255 255  255 255 255  255 255 255  255 255 255  255 255 255
255 255 255  255 255 255  255 255 255  255 255 255  255 255 255  255 255 255
255 255 255  255 255 255  255 255 255  255 255 255  255 255 255  255 255 255
255 255 255  255 255 255  255 255 255  255 255 255  255 255 255  255 255 255
255 255 255  255 255 255  255 255 255  255 255 255  255 255 255  255 255 255
255 255 255  255 255 255  255 255 255  255 255 255  255 255 255  255 255 255
255 255 255  255 255 255  255 255 255  255 255 255  255 255 255  255 255 255
255 255 255  255 255 255  255 255 255  255 255 255  255 255 255  255 255 255
255 255 255  255 255 255  255 255 255  255 255 255  255 255 255  255 255 255
255 255 255  255 255 255  255 255 255  255 255 255  255 255 255  255 255 255
255 255 255  255 255 255  255 255 255  255 255 255  255 255 255  255 255 255
255 255 255  255 255 255  255 255 255  255 255 255  255 255 255  255 255 255
255 255 255  255 255 255  255 255 255  255 255 255  255 255 255  255 255 255
255 255 255  255 255 255  255 255 255  255 255 255  255 255 255  255 255 255
255 255 255  255 255 255  255 255 255  255 255 255  255 255 255  255 255 255
255 255 255  255 255 255  255 255 255  255 255 255  255 255 255  255 255 255
255 255 255  255 255 255  255 255 255  255 255 255
255 255 255  255 255 255  255 255 255  255 255 255  255 255 255  255 255 255
255 255 255  255 255 255  255 255 255  255 255 255  255 255 255  255 255 255
255 255 255  255 255 255  255 255 255  255 255 255  255 255 255  255 255 255
255 255 255  255 255 255  255 255 255  255 255 255  255 255 255  255 255 255
255 255 255  255 255 255  255 255 255  255 255 255  255 255 255  255 255 255
255 255 255  255 255 255  255 255 255  255 255 255  255 255 255  255 255 255
255 255 255  255 255 255  255 255 255  255 255 255  255 255 255  255 255 255
255 255 255  255 255 255  255 255 255  255 255 255  255 255 255  255 255 255
255 255 255  255 255 255  255 255 255  255 255 255  255 255 255  255 255 255
255 255 255  255 255 255  255 255 255  255 255 255  255 255 255  255 255 255
255 255 255  255 255 255  255 255 255  255 255 255  255 255 255  255 255 255
255 255 255  255 255 255  255 255 255  255 255 255  255 255 255  255 255 255
255 255 255  255 255 255  255 255 255  255 255 255  255 255 255  255 255 255
255 255 255  255 255 255  255 255 255  255 255 255  255 255 255  255 255 255
255 255 255  255 255 255  255 255 255  255 255 255  255 255 255  255 255 255
255 255 255  255 255 255  255 255 255  255 255 255  255 255 255  255 255 255
255 255 255  255 255 255  255 255 255  255 255 255  255 255 255  255 255 255
255 255 255  255 255 255  255 255 255  255 255 255  255 255 255  255 255 255
255 255 255  255 255 255  255 255 255  255 255 255  255 255 255  255 255 255
255 255 255  255 255 255  255 255 255  255 255 255  255 255 255  255 255 255
255 255 255  255 255 255  255 255 255  255 255 255  255 255 255  255 255 255
255 255 255  255 255 255  255 255 255  255 255 255  255 255 255  255 255 255
255 255 255  255 255 255  255 255 255  255 255 255  255 255 255  255 255 255
255 255 255  255 255 255  255 255 255  255 255 255  255 255 255  255 255 255
255 255 255  255 255 255  255 255 255  255 255 255  255 255 255  255 255 255
255 255 255  255 255 255  255 255 255  255 255 255  255 255 255  255 255 255
255 255 255  255 255 255  255 255 255  255 255 255  255 255 255  255 255 255
255 255 255  255 255 255  255 255 255  255 255 255  255 255 255  255 255 255
255 255 255  255 255 255  255 255 255  255 255 255  255 255 255  255 255 255
255 255 255  255 255 255  255 255 255  255 255 255  255 255 255  255 255 255
255 255 255  255 255 255  255 255 255  255 255 255  255 255 255  255 255 255
255 255 255  255 255 255  255 255 255  255 255 255  255 255 255  255 255 255
255 255 255  255 255 255  255 255 255  255 255 255  255 255 255  255 255 255
255 255 255  255 255 255  255 255 255  255 255 255  255 255 255  255 255 255
255 255 255  255 255 255  255 255 255  255 255 255  255 255 255  255 255 255
255 255 255  255 255 255  255 255 255  255 255 255  255 255 255  255 255 255
255 255 255  255 255 255  255 255 255  255 255 255  255 255 255  255 255 255
255 255 255  255 255 255  255 255 255  255 255 255  255 255 255  255 255 255
255 255 255  255 255 255  255 255 255  255 255 255  255 255 255  255 255 255
255 255 255  255 255 255  255 255 255  255 255 255  255 255 255  255 255 255
255 255 255  255 255 255  255 255 255  255 255 255  255 255 255  255 255 255
255 255 255  255 255 255  255 255 255  255 255 255  255 255 255  255 255 255
255 255 255  255 255 255  255 255 255  255 255 255
255 255 255  255 255 255  255 255 255  255 255 255  255 255 255  255 255 255
255 255 255  255 255 255  255 255 255  255 255 255  255 255 255  255 255 255
255 255 255  255 255 255  255 255 255  255 255 255  255 255 255  255 255 255
255 255 255  255 255 255  255 255 255  255 255 255  255 255 255  255 255 255
255 255 255  255 255 255  255 255 255  255 255 255  255 255 255  255 255 255
255 255 255  255 255 255  255 255 255  255 255 255  255 255 255  255 255 255
255 255 255  255 255 255  255 255 255  255 255 255  255 255 255  255 255 255
255 255 255  255 255 255  255 255 255  255 255 255  255 255 255  255 255 255
255 255 255  255 255 255  255 255 255  255 255 255  255 255 255  255 255 255
255 255 255  255 255 255  255 255 255  255 255 255  255 255 255  255 255 255
255 255 255  255 255 255  255 255 255  255 255 255  255 255 255  255 255 255
255 255 255  255 255 255  255 255 255  255 255 255  255 255 255  255 255 255
255 255 255  255 255 255  255 255 255  255 255 255  255 255 255  255 255 255
255 255 255  255 255 255  255 255 255  255 255 255  255 255 255  255 255 255
255 255 255  255 255 255  255 255 255  255 255 255  255 255 255  255 255 255
255 255 255  255 255 255  255 255 255  255 255 255  255 255 255  255 255 255
255 255 255  255 255 255  255 255 255  255 255 255  255 255 255  255 255 255
255 255 255  255 255 255  255 255 255  255 255 255  255 255 255  255 255 255
255 255 255  255 255 255  255 255 255  255 255 255  255 255 255  255 255 255
255 255 255  255 255 255  255 255 255  255 255 255  255 255 255  255 255 255
255 255 255  255 255 255  255 255 255  255 255 255  255 255 255  255 255 255
255 255 255  255 255 255  255 255 255  255 255 255  255 255 255  255 255 255
255 255 255  255 255 255  255 255 255  255 255 255  255 255 255  255 255 255
255 255 255  255 255 255  255 255 255  255 255 255  255 255 255  255 255 255
255 255 255  255 255 255  255 255 255  255 255 255  255 255 255  255 255 255
255 255 255  255 255 255  255 255 255  255 255 255  255 255 255  255 255 255
255 255 255  255 255 255  255 255 255  255 255 255  255 255 255  255 255 255
255 255 255  255 255 255  255 255 255  255 255 255  255 255 255  255 255 255
255 255 255  255 255 255  255 255 255  255 255 255  255 255 255  255 255 255
255 255 255  255 255 255  255 255 255  255 255 255  255 255 255  255 255 255
255 255 255  255 255 255  255 255 255  255 255 255  255 255 255  255 255 255
255 255 255  255 255 255  255 255 255  255 255 255  255 255 255  255 255 255
255 255 255  255 255 255  255 255 255  255 255 255  255 255 255  255 255 255
255 255 255  255 255 255  255 255 255  255 255 255  255 255 255  255 255 255
255 255 255  255 255 255  255 255 255  255 255 255  255 255 255  255 255 255
255 255 255  255 255 255  255 255 255  255 255 255  255 255 255  255 255 255
255 255 255  255 255 255  255 255 255  255 255 255  255 255 255  255 255 255
255 255 255  255 255 255  255 255 255  255 255 255  255 255 255  255 255 255
255 255 255  255 255 255  255 255 255  255 255 255  255 255 255  255 255 255
255 255 255  255 255 255  255 255 255  255 255 255  255 255 255  255 255 255
255 255 255  255 255 255  255 255 255  255 255 255  255 255 255  255 255 255
255 255 255  255 255 255  255 255 255  255 255 255  255 255 255  255 255 255
255 255 255  255 255 255  255 255 255  255 255 255
255 255 255  255 255 255  255 255 255  255 255 255  255 255 255  255 255 255
255 255 255  255 255 255  255 255 255  255 255 255  255 255 255  255 255 255
255 255 255  255 255 255  255 255 255  255 255 255  255 255 255  255 255 255
255 255 255  255 255 255  255 255 255  255 255 255  255 255 255  255 255 255
255 255 255  255 255 255  255 255 255  255 255 255  255 255 255  255 255 255
255 255 255  255 255 255  255 255 255  255 255 255  255 255 255  255 255 255
255 255 255  255 255 255  255 255 255  255 255 255  255 255 255  255 255 255
255 255 255  255 255 255  255 255 255  255 255 255  255 255 255  255 255 255
255 255 255  255 255 255  255 255 255  255 255 255  255 255 255  255 255 255
255 255 255  255 255 255  255 255 255  255 255 255  255 255 255  255 255 255
255 255 255  255 255 255  255 255 255  255 255 255  255 255 255  255 255 255
255 255 255  255 255 255  255 255 255  255 255 255  255 255 255  255 255 255
255 255 255  255 255 255  255 255 255  255 255 255  255 255 255  255 255 255
255 255 255  255 255 255  255 255 255  255 255 255  255 255 255  255 255 255
255 255 255  255 255 255  255 255 255  255 255 255  255 255 255  255 255 255
255 255 255  255 255 255  255 255 255  255 255 255  255 255 255  255 255 255
255 255 255  255 255 255  255 255 255  255 255 255  255 255 255  255 255 255
255 255 255  255 255 255  255 255 255  255 255 255  255 255 255  255 255 255
255 255 255  255 255 255  255 255 255  255 255 255  255 255 255  255 255 255
255 255 255  255 255 255  255 255 255  255 255 255  255 255 255  255 255 255
255 255 255  255 255 255  255 255 255  255 255 255  255 255 255  255 255 255
255 255 255  255 255 255  255 255 255  255 255 255  255 255 255  255 255 255
255 255 255  255 255 255  255 255 255  255 255 255  255 255 255  255 255 255
255 255 255  255 255 255  255 255 255  255 255 255  255 255 255  255 255 255
255 255 255  255 255 255  255 255 255  255 255 255  255 255 255  255 255 255
255 255 255  255 255 255  255 255 255  255 255 255  255 255 255  255 255 255
255 255 255  255 255 255  255 255 255  255 255 255  255 255 255  255 255 255
255 255 255  255 255 255  255 255 255  255 255 255  255 255 255  255 255 255
255 255 255  255 255 255  255 255 255  255 255 255  255 255 255  255 255 255
255 255 255  255 255 255  255 255 255  255 255 255  255 255 255  255 255 255
255 255 255  255 255 255  255 255 255  255 255 255  255 255 255  255 255 255
255 255 255  255 255 255  255 255 255  255 255 255  255 255 255  255 255 255
255 255 255  255 255 255  255 255 255  255 255 255  255 255 255  255 255 255
255 255 255  255 255 255  255 255 255  255 255 255  255 255 255  255 255 255
255 255 255  255 255 255  255 255 255  255 255 255  255 255 255  255 255 255
255 255 255  255 255 255  255 255 255  255 255 255  255 255 255  255 255 255
255 255 255  255 255 255  255 255 255  255 255 255  255 255 255  255 255 255
255 255 255  255 255 255  255 255 255  255 255 255  255 255 255  255 255 255
255 255 255  255 255 255  255 255 255  255 255 255  255 255 255  255 255 255
255 255 255  255 255 255  255 255 255  255 255 255  255 255 255  255 255 255
255 255 255  255 255 255  255 255 255  255 255 255  255 255 255  255 255 255
255 255 255  255 255 255  255 255 255  255 255 255  255 255 255  255 255 255
255 255 255  255 255 255  255 255 255  255 255 255
255 255 255  255 255 255  255 255 255  255 255 255  255 255 255  255 255 255
255 255 255  255 255 255  255 255 255  255 255 255  255 255 255  255 255 255
255 255 255  255 255 255  255 255 255  255 255 255  255 255 255  255 255 255
255 255 255  255 255 255  255 255 255  255 255 255  255 255 255  255 255 255
255 255 255  255 255 255  255 255 255  255 255 255  255 255 255  255 255 255
255 255 255  255 255 255  255 255 255  255 255 255  255 255 255  255 255 255
255 255 255  255 255 255  255 255 255  255 255 255  255 255 255  255 255 255
255 255 255  255 255 255  255 255 255  255 255 255  255 255 255  255 255 255
255 255 255  255 255 255  255 255 255  255 255 255  255 255 255  255 255 255
255 255 255  255 255 255  255 255 255  255 255 255  255 255 255  255 255 255
255 255 255  255 255 255  255 255 255  255 255 255  255 255 255  255 255 255
255 255 255  255 255 255  255 255 255  255 255 255  255 255 255  255 255 255
255 255 255  255 255 255  255 255 255  255 255 255  255 255 255  255 255 255
255 255 255  255 255 255  255 255 255  255 255 255  255 255 255  255 255 255
255 255 255  255 255 255  255 255 255  255 255 255  255 255 255  255 255 255
255 255 255  255 255 255  255 255 255  255 255 255  255 255 255  255 255 255
255 255 255  255 255 255  255 255 255  255 255 255  255 255 255  255 255 255
255 255 255  255 255 255  255 255 255  255 255 255  255 255 255  255 255 255
255 255 255  255 255 255  255 255 255  255 255 255  255 255 255  255 255 255
255 255 255  255 255 255  255 255 255  255 255 255  255 255 255  255 255 255
255 255 255  255 255 255  255 255 255  255 255 255  255 255 255  255 255 255
255 255 255  255 255 255  255 255 255  255 255 255  255 255 255  255 255 255
255 255 255  255 255 255  255 255 255  255 255 255  255 255 255  255 255 255
255 255 255  255 255 255  255 255 255  255 255 255  255 255 255  255 255 255
255 255 255  255 255 255  255 255 255  255 255 255  255 255 255  255 255 255
255 255 255  255 255 255  255 255 255  255 255 255  255 255 255  255 255 255
255 255 255  255 255 255  255 255 255  255 255 255  255 255 255  255 255 255
255 255 255  255 255 255  255 255 255  255 255 255  255 255 255  255 255 255
255 255 255  255 255 255  255 255 255  255 255 255  255 255 255  255 255 255
255 255 255  255 255 255  255 255 255  255 255 255  255 255 255  255 255 255
255 255 255  255 255 255  255 255 255  255 255 255  255 255 255  255 255 255
255 255 255  255 255 255  255 255 255  255 255 255  255 255 255  255 255 255
255 255 255  255 255 255  255 255 255  255 255 255  255 255 255  255 255 255
255 255 255  255 255 255  255 255 255  255 255 255  255 255 255  255 255 255
255 255 255  255 255 255  255 255 255  255 255 255  255 255 255  255 255 255
255 255 255  255 255 255  255 255 255  255 255 255  255 255 255  255 255 255
255 255 255  255 255 255  255 255 255  255 255 255  255 255 255  255 255 255
255 255 255  255 255 255  255 255 255  255 255 255  255 255 255  255 255 255
255 255 255  255 255 255  255 255 255  255 255 255  255 255 255  255 255 255
255 255 255  255 255 255  255 255 255  255 255 255  255 255 255  255 255 255
255 255 255  255 255 255  255 255 255  255 255 255  255 255 255  255 255 255
255 255 255  255 255 255  255 255 255  255 255 255  255 255 255  255 255 255
255 255 255  255 255 255  255 255 255  255 255 255
255 255 255  255 255 255  255 255 255  255 255 255  255 255 255  255 255 255
255 255 255  255 255 255  255 255 255  255 255 255  255 255 255  255 255 255
255 255 255  255 255 255  255 255 255  255 255 255  255 255 255  255 255 255
255 255 255  255 255 255  255 255 255  255 255 255  255 255 255  255 255 255
255 255 255  255 255 255  255 255 255  255 255 255  255 255 255  255 255 255
255 255 255  255 255 255  255 255 255  255 255 255  255 255 255  255 255 255
255 255 255  255 255 255  255 255 255  255 255 255  255 255 255  255 255 255
255 255 255  255 255 255  255 255 255  255 255 255  255 255 255  255 255 255
255 255 255  255 255 255  255 255 255  255 255 255  255 255 255  255 255 255
255 255 255  255 255 255  255 255 255  255 255 255  255 255 255  255 255 255
255 255 255  255 255 255  255 255 255  255 255 255  255 255 255  255 255 255
255 255 255  255 255 255  255 255 255  255 255 255  255 255 255  255 255 255
255 255 255  255 255 255  255 255 255  255 255 255  255 255 255  255 255 255
255 255 255  255 255 255  255 255 255  255 255 255  255 255 255  255 255 255
255 255 255  255 255 255  255 255 255  255 255 255  255 255 255  255 255 255
255 255 255  255 255 255  255 255 255  255 255 255  255 255 255  255 255 255
255 255 255  255 255 255  255 255 255  255 255 255  255 255 255  255 255 255
255 255 255  255 255 255  255 255 255  255 255 255  255 255 255  255 255 255
255 255 255  255 255 255  255 255 255  255 255 255  255 255 255  255 255 255
255 255 255  255 255 255  255 255 255  255 255 255  255 255 255  255 255 255
255 255 255  255 255 255  255 255 255  255 255 255  255 255 255  255 255 255
255 255 255  255 255 255  255 255 255  255 255 255  255 255 255  255 255 255
255 255 255  255 255 255  255 255 255  255 255 255  255 255 255  255 255 255
255 255 255  255 255 255  255 255 255  255 255 255  255 255 255  255 255 255
255 255 255  255 255 255  255 255 255  255 255 255  255 255 255  255 255 255
255 255 255  255 255 255  255 255 255  255 255 255  255 255 255  255 255 255
255 255 255  255 255 255  255 255 255  255 255 255  255 255 255  255 255 255
255 255 255  255 255 255  255 255 255  255 255 255  255 255 255  255 255 255
255 255 255  255 255 255  255 255 255  255 255 255  255 255 255  255 255 255
255 255 255  255 255 255  255 255 255  255 255 255  255 255 255  255 255 255
255 255 255  255 255 255  255 255 255  255 255 255  255 255 255  255 255 255
255 255 255  255 255 255  255 255 255  255 255 255  255 255 255  255 255 255
255 255 255  255 255 255  255 255 255  255 255 255  255 255 255  255 255 255
255 255 255  255 255 255  255 255 255  255 255 255  255 255 255  255 255 255
255 255 255  255 255 255  255 255 255  255 255 255  255 255 255  255 255 255
255 255 255  255 255 255  255 255 255  255 255 255  255 255 255  255 255 255
255 255 255  255 255 255  255 255 255  255 255 255  255 255 255  255 255 255
255 255 255  255 255 255  255 255 255  255 255 255  255 255 255  255 255 255
255 255 255  255 255 255  255 255 255  255 255 255  255 255 255  255 255 255
255 255 255  255 255 255  255 255 255  255 255 255  255 255 255  255 255 255
255 255 255  255 255 255  255 255 255  255 255 255  255 255 255  255 255 255
255 255 255  255 255 255  255 255 255  255 255 255  255 255 255  255 255 255
255 255 255  255 255 255  255 255 255  255 255 255
255 255 255  255 255 255  255 255 255  255 255 255  255 255 255  255 255 255
255 255 255  255 255 255  255 255 255  255 255 255  255 255 255  255 255 255
255 255 255  255 255 255  255 255 255  255 255 255  255 255 255  255 255 255
255 255 255  255 255 255  255 255 255  255 255 255  255 255 255  255 255 255
255 255 255  255 255 255  255 255 255  255 255 255  255 255 255  255 255 255
255 255 255  255 255 255  255 255 255  255 255 255  255 255 255  255 255 255
255 255 255  255 255 255  255 255 255  255 255 255  255 255 255  255 255 255
255 255 255  255 255 255  255 255 255  255 255 255  255 255 255  255 255 255
255 255 255  255 255 255  255 255 255  255 255 255  255 255 255  255 255 255
255 255 255  255 255 255  255 255 255  255 255 255  255 255 255  255 255 255
255 255 255  255 255 255  255 255 255  255 255 255  255 255 255  255 255 255
255 255 255  255 255 255  255 255 255  255 255 255  255 255 255  255 255 255
255 255 255  255 255 255  255 255 255  255 255 255  255 255 255  255 255 255
255 255 255  255 255 255  255 255 255  255 255 255  255 255 255  255 255 255
255 255 255  255 255 255  255 255 255  255 255 255  255 255 255  255 255 255
255 255 255  255 255 255  255 255 255  255 255 255  255 255 255  255 255 255
255 255 255  255 255 255  255 255 255  255 255 255  255 255 255  255 255 255
255 255 255  255 255 255  255 255 255  255 255 255  255 255 255  255 255 255
255 255 255  255 255 255  255 255 255  255 255 255  255 255 255  255 255 255
255 255 255  255 255 255  255 255 255  255 255 255  255 255 255  255 255 255
255 255 255  255 255 255  255 255 255  255 255 255  255 255 255  255 255 255
255 255 255  255 255 255  255 255 255  255 255 255  255 255 255  255 255 255
255 255 255  255 255 255  255 255 255  255 255 255  255 255 255  255 255 255
255 255 255  255 255 255  255 255 255  255 255 255  255 255 255  255 255 255
255 255 255  255 255 255  255 255 255  255 255 255  255 255 255  255 255 255
255 255 255  255 255 255  255 255 255  255 255 255  255 255 255  255 255 255
255 255 255  255 255 255  255 255 255  255 255 255  255 255 255  255 255 255
255 255 255  255 255 255  255 255 255  255 255 255  255 255 255  255 255 255
255 255 255  255 255 255  255 255 255  255 255 255  255 255 255  255 255 255
255 255 255  255 255 255  255 255 255  255 255 255  255 255 255  255 255 255
255 255 255  255 255 255  255 255 255  255 255 255  255 255 255  255 255 255
255 255 255  255 255 255  255 255 255  255 255 255  255 255 255  255 255 255
255 255 255  255 255 255  255 255 255  255 255 255  255 255 255  255 255 255
255 255 255  255 255 255  255 255 255  255 255 255  255 255 255  255 255 255
255 255 255  255 255 255  255 255 255  255 255 255  255 255 255  255 255 255
255 255 255  255 255 255  255 255 255  255 255 255  255 255 255  255 255 255
255 255 255  255 255 255  255 255 255  255 255 255  255 255 255  255 255 255
255 255 255  255 255 255  255 255 255  255 255 255  255 255 255  255 255 255
255 255 255  255 255 255  255 255 255  255 255 255  255 255 255  255 255 255
255 255 255  255 255 255  255 255 255  255 255 255  255 255 255  255 255 255
255 255 255  255 255 255  255 255 255  255 255 255  255 255 255  255 255 255
255 255 255  255 255 255  255 255 255  255 255 255  255 255 255  255 255 255
255 255 255  255 255 255  255 255 255  255 255 255
255 255 255  255 255 255  255 255 255  255 255 255  255 255 255  255 255 255
255 255 255  255 255 255  255 255 255  255 255 255  255 255 255  255 255 255
255 255 255  255 255 255  255 255 255  255 255 255  255 255 255  255 255 255
255 255 255  255 255 255  255 255 255  255 255 255  255 255 255  255 255 255
255 255 255  255 255 255  255 255 255  255 255 255  255 255 255  255 255 255
255 255 255  255 255 255  255 255 255  255 255 255  255 255 255  255 255 255
255 255 255  255 255 255  255 255 255  255 255 255  255 255 255  255 255 255
255 255 255  255 255 255  255 255 255  255 255 255  255 255 255  255 255 255
255 255 255  255 255 255  255 255 255  255 255 255  255 255 255  255 255 255
255 255 255  255 255 255  255 255 255  255 255 255  255 255 255  255 255 255
255 255 255  255 255 255  255 255 255  255 255 255  255 255 255  255 255 255
255 255 255  255 255 255  255 255 255  255 255 255  255 255 255  255 255 255
255 255 255  255 255 255  255 255 255  255 255 255  255 255 255  255 255 255
255 255 255  255 255 255  255 255 255  255 255 255  255 255 255  255 255 255
255 255 255  255 255 255  255 255 255  255 255 255  255 255 255  255 255 255
255 255 255  255 255 255  255 255 255  255 255 255  255 255 255  255 255 255
255 255 255  255 255 255  255 255 255  255 255 255  255 255 255  255 255 255
255 255 255  255 255 255  255 255 255  255 255 255  255 255 255  255 255 255
255 255 255  255 255 255  255 255 255  255 255 255  255 255 255  255 255 255
255 255 255  255 255 255  255 255 255  255 255 255  255 255 255  255 255 255
255 255 255  255 255 255  255 255 255  255 255 255  255 255 255  255 255 255
255 255 255  255 255 255  255 255 255  255 255 255  255 255 255  255 255 255
255 255 255  255 255 255  255 255 255  255 255 255  255 255 255  255 255 255
255 255 255  255 255 255  255 255 255  255 255 255  255 255 255  255 255 255
255 255 255  255 255 255  255 255 255  255 255 255  255 255 255  255 255 255
255 255 255  255 255 255  255 255 255  255 255 255  255 255 255  255 255 255
255 255 255  255 255 255  255 255 255  255 255 255  255 255 255  255 255 255
255 255 255  255 255 255  255 255 255  255 255 255  255 255 255  255 255 255
255 255 255  255 255 255  255 255 255  255 255 255  255 255 255  255 255 255
255 255 255  255 255 255  255 255 255  255 255 255  255 255 255  255 255 255
255 255 255  255 255 255  255 255 255  255 255 255  255 255 255  255 255 255
255 255 255  255 255 255  255 255 255  255 255 255  255 255 255  255 255 255
255 255 255  255 255 255  255 255 255  255 255 255  255 255 255  255 255 255
255 255 255  255 255 255  255 255 255  255 255 255  255 255 255  255 255 255
255 255 255  255 255 255  255 255 255  255 255 255  255 255 255  255 255 255
255 255 255  255 255 255  255 255 255  255 255 255  255 255 255  255 255 255
255 255 255  255 255 255  255 255 255  255 255 255  255 255 255  255 255 255
255 255 255  255 255 255  255 255 255  255 255 255  255 255 255  255 255 255
255 255 255  255 255 255  255 255 255  255 255 255  255 255 255  255 255 255
255 255 255  255 255 255  255 255 255  255 255 255  255 255 255  255 255 255
255 255 255  255 255 255  255 255 255  255 255 255  255 255 255  255 255 255
255 255 255  255 255 255  255 255 255  255 255 255  255 255 255  255 255 255
255 255 255  255 255 255  255 255 255  255 255 255
255 255 255  255 255 255  255 255 255  255 255 255  255 255 255  255 255 255
255 255 255  255 255 255  255 255 255  255 255 255  255 255 255  255 255 255
255 255 255  255 255 255  255 255 255  255 255 255  255 255 255  255 255 255
255 255 255  255 255 255  255 255 255  255 255 255  255 255 255  255 255 255
255 255 255  255 255 255  255 255 255  255 255 255  255 255 255  255 255 255
255 255 255  255 255 255  255 255 255  255 255 255  255 255 255  255 255 255
255 255 255  255 255 255  255 255 255  255 255 255  255 255 255  255 255 255
255 255 255  255 255 255  255 255 255  255 255 255  255 255 255  255 255 255
255 255 255  255 255 255  255 255 255  255 255 255  255 255 255  255 255 255
255 255 255  255 255 255  255 255 255  255 255 255  255 255 255  255 255 255
255 255 255  255 255 255  255 255 255  255 255 255  255 255 255  255 255 255
255 255 255  255 255 255  255 255 255  255 255 255  255 255 255  255 255 255
255 255 255  255 255 255  255 255 255  255 255 255  255 255 255  255 255 255
255 255 255  255 255 255  255 255 255  255 255 255  255 255 255  255 255 255
255 255 255  255 255 255  255 255 255  255 255 255  255 255 255  255 255 255
255 255 255  255 255 255  255 255 255  255 255 255  255 255 255  255 255 255
255 255 255  255 255 255  255 255 255  255 255 255  255 255 255  255 255 255
255 255 255  255 255 255  255 255 255  255 255 255  255 255 255  255 255 255
255 255 255  255 255 255  255 255 255  255 255 255  255 255 255  255 255 255
255 255 255  255 255 255  255 255 255  255 255 255  255 255 255  255 255 255
255 255 255  255 255 255  255 255 255  255 255 255  255 255 255  255 255 255
255 255 255  255 255 255  255 255 255  255 255 255  255 255 255  255 255 255
255 255 255  255 255 255  255 255 255  255 255 255  255 255 255  255 255 255
255 255 255  255 255 255  255 255 255  255 255 255  255 255 255  255 255 255
255 255 255  255 255 255  255 255 255  255 255 255  255 255 255  255 255 255
255 255 255  255 255 255  255 255 255  255 255 255  255 255 255  255 255 255
255 255 255  255 255 255  255 255 255  255 255 255  255 255 255  255 255 255
255 255 255  255 255 255  255 255 255  255 255 255  255 255 255  255 255 255
255 255 255  255 255 255  255 255 255  255 255 255  255 255 255  255 255 255
255 255 255  255 255 255  255 255 255  255 255 255  255 255 255  255 255 255
255 255 255  255 255 255  255 255 255  255 255 255  255 255 255  255 255 255
255 255 255  255 255 255  255 255 255  255 255 255  255 255 255  255 255 255
255 255 255  255 255 255  255 255 255  255 255 255  255 255 255  255 255 255
255 255 255  255 255 255  255 255 255  255 255 255  255 255 255  255 255 255
255 255 255  255 255 255  255 255 255  255 255 255  255 255 255  255 255 255
255 255 255  255 255 255  255 255 255  255 255 255  255 255 255  255 255 255
255 255 255  255 255 255  255 255 255  255 255 255  255 255 255  255 255 255
255 255 255  255 255 255  255 255 255  255 255 255  255 255 255  255 255 255
255 255 255  255 255 255  255 255 255  255 255 255  255 255 255  255 255 255
255 255 255  255 255 255  255 255 255  255 255 255  255 255 255  255 255 255
255 255 255  255 255 255  255 255 255  255 255 255  255 255 255  255 255 255
255 255 255  255 255 255  255 255 255  255 255 255  255 255 255  255 255 255
255 255 255  255 255 255  255 255 255  255 255 255
255 255 255  255 255 255  255 255 255  255 255 255  255 255 255  255 255 255
255 255 255  255 255 255  255 255 255  255 255 255  255 255 255  255 255 255
255 255 255  255 255 255  255 255 255  255 255 255  255 255 255  255 255 255
255 255 255  255 255 255  255 255 255  255 255 255  255 255 255  255 255 255
255 255 255  255 255 255  255 255 255  255 255 255  255 255 255  255 255 255
255 255 255  255 255 255  255 255 255  255 255 255  255 255 255  255 255 255
255 255 255  255 255 255  255 255 255  255 255 255  255 255 255  255 255 255
255 255 255  255 255 255  255 255 255  255 255 255  255 255 255  255 255 255
255 255 255  255 255 255  255 255 255  255 255 255  255 255 255  255 255 255
255 255 255  255 255 255  255 255 255  255 255 255  255 255 255  255 255 255
255 255 255  255 255 255  255 255 255  255 255 255  255 255 255  255 255 255
255 255 255  255 255 255  255 255 255  255 255 255  255 255 255  255 255 255
255 255 255  255 255 255  255 255 255  255 255 255  255 255 255  255 255 255
255 255 255  255 255 255  255 255 255  255 255 255  255 255 255  255 255 255
255 255 255  255 255 255  255 255 255  255 255 255  255 255 255  255 255 255
255 255 255  255 255 255  255 255 255  255 255 255  255 255 255  255 255 255
255 255 255  255 255 255  255 255 255  255 255 255  255 255 255  255 255 255
255 255 255  255 255 255  255 255 255  255 255 255  255 255 255  255 255 255
255 255 255  255 255 255  255 255 255  255 255 255  255 255 255  255 255 255
255 255 255  255 255 255  255 255 255  255 255 255  255 255 255  255 255 255
255 255 255  255 255 255  255 255 255  255 255 255  255 255 255  255 255 255
255 255 255  255 255 255  255 255 255  255 255 255  255 255 255  255 255 255
255 255 255  255 255 255  255 255 255  255 255 255  255 255 255  255 255 255
255 255 255  255 255 255  255 255 255  255 255 255  255 255 255  255 255 255
255 255 255  255 255 255  255 255 255  255 255 255  255 255 255  255 255 255
255 255 255  255 255 255  255 255 255  255 255 255  255 255 255  255 255 255
255 255 255  255 255 255  255 255 255  255 255 255  255 255 255  255 255 255
255 255 255  255 255 255  255 255 255  255 255 255  255 255 255  255 255 255
255 255 255  255 255 255  255 255 255  255 255 255  255 255 255  255 255 255
255 255 255  255 255 255  255 255 255  255 255 255  255 255 255  255 255 255
255 255 255  255 255 255  255 255 255  255 255 255  255 255 255  255 255 255
255 255 255  255 255 255  255 255 255  255 255 255  255 255 255  255 255 255
255 255 255  255 255 255  255 255 255  255 255 255  255 255 255  255 255 255
255 255 255  255 255 255  255 255 255  255 255 255  255 255 255  255 255 255
255 255 255  255 255 255  255 255 255  255 255 255  255 255 255  255 255 255
255 255 255  255 255 255  255 255 255  255 255 255  255 255 255  255 255 255
255 255 255  255 255 255  255 255 255  255 255 255  255 255 255  255 255 255
255 255 255  255 255 255  255 255 255  255 255 255  255 255 255  255 255 255
255 255 255  255 255 255  255 255 255  255 255 255  255 255 255  255 255 255
255 255 255  255 255 255  255 255 255  255 255 255  255 255 255  255 255 255
255 255 255  255 255 255  255 255 255  255 255 255  255 255 255  255 255 255
255 255 255  255 255 255  255 255 255  255 255 255  255 255 255  255 255 255
255 255 255  255 255 255  255 255 255  255 255 255
255 255 255  255 255 255  255 255 255  255 255 255  255 255 255  255 255 255
255 255 255  255 255 255  255 255 255  255 255 255  255 255 255  255 255 255
255 255 255  255 255 255  255 255 255  255 255 255  255 255 255  255 255 255
255 255 255  255 255 255  255 255 255  255 255 255  255 255 255  255 255 255
255 255 255  255 255 255  255 255 255  255 255 255  255 255 255  255 255 255
255 255 255  255 255 255  255 255 255  255 255 255  255 255 255  255 255 255
255 255 255  255 255 255  255 255 255  255 255 255  255 255 255  255 255 255
255 255 255  255 255 255  255 255 255  255 255 255  255 255 255  255 255 255
255 255 255  255 255 255  255 255 255  255 255 255  255 255 255  255 255 255
255 255 255  255 255 255  255 255 255  255 255 255  255 255 255  255 255 255
255 255 255  255 255 255  255 255 255  255 255 255  255 255 255  255 255 255
255 255 255  255 255 255  255 255 255  255 255 255  255 255 255  255 255 255
255 255 255  255 255 255  255 255 255  255 255 255  255 255 255  255 255 255
255 255 255  255 255 255  255 255 255  255 255 255  255 255 255  255 255 255
255 255 255  255 255 255  255 255 255  255 255 255  255 255 255  255 255 255
255 255 255  255 255 255  255 255 255  255 255 255  255 255 255  255 255 255
255 255 255  255 255 255  255 255 255  255 255 255  255 255 255  255 255 255
255 255 255  255 255 255  255 255 255  255 255 255  255 255 255  255 255 255
255 255 255  255 255 255  255 255 255  255 255 255  255 255 255  255 255 255
255 255 255  255 255 255  255 255 255  255 255 255  255 255 255  255 255 255
255 255 255  255 255 255  255 255 255  255 255 255  255 255 255  255 255 255
255 255 255  255 255 255  255 255 255  255 255 255  255 255 255  255 255 255
255 255 255  255 255 255  255 255 255  255 255 255  255 255 255  255 255 255
255 255 255  255 255 255  255 255 255  255 255 255  255 255 255  255 255 255
255 255 255  255 255 255  255 255 255  255 255 255  255 255 255  255 255 255
255 255 255  255 255 255  255 255 255  255 255 255  255 255 255  255 255 255
255 255 255  255 255 255  255 255 255  255 255 255  255 255 255  255 255 255
255 255 255  255 255 255  255 255 255  255 255 255  255 255 255  255 255 255
255 255 255  255 255 255  255 255 255  255 255 255  255 255 255  255 255 255
255 255 255  255 255 255  255 255 255  255 255 255  255 255 255  255 255 255
255 255 255  255 255 255  255 255 255  255 255 255  255 255 255  255 255 255
255 255 255  255 255 255  255 255 255  255 255 255  255 255 255  255 255 255
255 255 255  255 255 255  255 255 255  255 255 255  255 255 255  255 255 255
255 255 255  255 255 255  255 255 255  255 255 255  255 255 255  255 255 255
255 255 255  255 255 255  255 255 255  255 255 255  255 255 255  255 255 255
255 255 255  255 255 255  255 255 255  255 255 255  255 255 255  255 255 255
255 255 255  255 255 255  255 255 255  255 255 255  255 255 255  255 255 255
255 255 255  255 255 255  255 255 255  255 255 255  255 255 255  255 255 255
255 255 255  255 255 255  255 255 255  255 255 255  255 255 255  255 255 255
255 255 255  255 255 255  255 255 255  255 255 255  255 255 255  255 255 255
255 255 255  255 255 255  255 255 255  255 255 255  255 255 255  255 255 255
255 255 255  255 255 255  255 255 255  255 255 255  255 255 255  255 255 255
255 255 255  255 255 255  255 255 255  255 255 255
255 255 255  255 255 255  255 255 255  255 255 255  255 255 255  255 255 255
255 255 255  255 255 255  255 255 255  255 255 255  255 255 255  255 255 255
255 255 255  255 255 255  255 255 255  255 255 255  255 255 255  255 255 255
255 255 255  255 255 255  255 255 255  255 255 255  255 255 255  255 255 255
255 255 255  255 255 255  255 255 255  255 255 255  255 255 255  255 255 255
255 255 255  255 255 255  255 255 255  255 255 255  255 255 255  255 255 255
255 255 255  255 255 255  255 255 255  255 255 255  255 255 255  255 255 255
255 255 255  255 255 255  255 255 255  255 255 255  255 255 255  255 255 255
255 255 255  255 255 255  255 255 255  255 255 255  255 255 255  255 255 255
255 255 255  255 255 255  255 255 255  255 255 255  255 255 255  255 255 255
255 255 255  255 255 255  255 255 255  255 255 255  255 255 255  255 255 255
255 255 255  255 255 255  255 255 255  255 255 255  255 255 255  255 255 255
255 255 255  255 255 255  255 255 255  255 255 255  255 255 255  255 255 255
255 255 255  255 255 255  255 255 255  255 255 255  255 255 255  255 255 255
255 255 255  255 255 255  255 255 255  255 255 255  255 255 255  255 255 255
255 255 255  255 255 255  255 255 255  255 255 255  255 255 255  255 255 255
255 255 255  255 255 255  255 255 255  255 255 255  255 255 255  255 255 255
255 255 255  255 255 255  255 255 255  255 255 255  255 255 255  255 255 255
255 255 255  255 255 255  255 255 255  255 255 255  255 255 255  255 255 255
255 255 255  255 255 255  255 255 255  255 255 255  255 255 255  255 255 255
255 255 255  255 255 255  255 255 255  255 255 255  255 255 255  255 255 255
255 255 255  255 255 255  255 255 255  255 255 255  255 255 255  255 255 255
255 255 255  255 255 255  255 255 255  255 255 255  255 255 255  255 255 255
255 255 255  255 255 255  255 255 255  255 255 255  255 255 255  255 255 255
255 255 255  255 255 255  255 255 255  255 255 255  255 255 255  255 255 255
255 255 255  255 255 255  255 255 255  255 255 255  255 255 255  255 255 255
255 255 255  255 255 255  255 255 255  255 255 255  255 255 255  255 255 255
255 255 255  255 255 255  255 255 255  255 255 255  255 255 255  255 255 255
255 255 255  255 255 255  255 255 255  255 255 255  255 255 255  255 255 255
255 255 255  255 255 255  255 255 255  255 255 255  255 255 255  255 255 255
255 255 255  255 255 255  255 255 255  255 255 255  255 255 255  255 255 255
255 255 255  255 255 255  255 255 255  255 255 255  255 255 255  255 255 255
255 255 255  255 255 255  255 255 255  255 255 255  255 255 255  255 255 255
255 255 255  255 255 255  255 255 255  255 255 255  255 255 255  255 255 255
255 255 255  255 255 255  255 255 255  255 255 255  255 255 255  255 255 255
255 255 255  255 255 255  255 255 255  255 255 255  255 255 255  255 255 255
255 255 255  255 255 255  255 255 255  255 255 255  255 255 255  255 255 255
255 255 255  255 255 255  255 255 255  255 255 255  255 255 255  255 255 255
255 255 255  255 255 255  255 255 255  255 255 255  255 255 255  255 255 255
255 255 255  255 255 255  255 255 255  255 255 255  255 255 255  255 255 255
255 255 255  255 255 255  255 255 255  255 255 255  255 255 255  255 255 255
255 255 255  255 255 255  255 255 255  255 255 255  255 255 255  255 255 255
255 255 255  255 255 255  255 255 255  255 255 255
255 255 255  255 255 255  255 255 255  255 255 255  255 255 255  255 255 255
255 255 255  255 255 255  255 255 255  255 255 255  255 255 255  255 255 255
255 255 255  255 255 255  255 255 255  255 255 255  255 255 255  255 255 255
255 255 255  255 255 255  255 255 255  255 255 255  255 255 255  255 255 255
255 255 255  255 255 255  255 255 255  255 255 255  255 255 255  255 255 255
255 255 255  255 255 255  255 255 255  255 255 255  255 255 255  255 255 255
255 255 255  255 255 255  255 255 255  255 255 255  255 255 255  255 255 255
255 255 255  255 255 255  255 255 255  255 255 255  255 255 255  255 255 255
255 255 255  255 255 255  255 255 255  255 255 255  255 255 255  255 255 255
255 255 255  255 255 255  255 255 255  255 255 255  255 255 255  255 255 255
255 255 255  255 255 255  255 255 255  255 255 255  255 255 255  255 255 255
255 255 255  255 255 255  255 255 255  255 255 255  255 255 255  255 255 255
255 255 255  255 255 255  255 255 255  255 255 255  255 255 255  255 255 255
255 255 255  255 255 255  255 255 255  255 255 255  255 255 255  255 255 255
255 255 255  255 255 255  255 255 255  255 255 255  255 255 255  255 255 255
255 255 255  255 255 255  255 255 255  255 255 255  255 255 255  255 255 255
255 255 255  255 255 255  255 255 255  255 255 255  255 255 255  255 255 255
255 255 255  255 255 255  255 255 255  255 255 255  255 255 255  255 255 255
255 255 255  255 255 255  255 255 255  255 255 255  255 255 255  255 255 255
255 255 255  255 255 255  255 255 255  255 255 255  255 255 255  255 255 255
255 255 255  255 255 255  255 255 255  255 255 255  255 255 255  255 255 255
255 255 255  255 255 255  255 255 255  255 255 255  255 255 255  255 255 255
255 255 255  255 255 255  255 255 255  255 255 255  255 255 255  255 255 255
255 255 255  255 255 255  255 255 255  255 255 255  255 255 255  255 255 255
255 255 255  255 255 255  255 255 255  255 255 255  255 255 255  255 255 255
255 255 255  255 255 255  255 255 255  255 255 255  255 255 255  255 255 255
255 255 255  255 255 255  255 255 255  255 255 255  255 255 255  255 255 255
255 255 255  255 255 255  255 255 255  255 255 255  255 255 255  255 255 255
255 255 255  255 255 255  255 255 255  255 255 255  255 255 255  255 255 255
255 255 255  255 255 255  255 255 255  255 255 255  255 255 255  255 255 255
255 255 255  255 255 255  255 255 255  255 255 255  255 255 255  255 255 255
255 255 255  255 255 255  255 255 255  255 255 255  255 255 255  255 255 255
255 255 255  255 255 255  255 255 255  255 255 255  255 255 255  255 255 255
255 255 255  255 255 255  255 255 255  255 255 255  255 255 255  255 255 255
255 255 255  255 255 255  255 255 255  255 255 255  255 255 255  255 255 255
255 255 255  255 255 255  255 255 255  255 255 255  255 255 255  255 255 255
255 255 255  255 255 255  255 255 255  255 255 255  255 255 255  255 255 255
255 255 255  255 255 255  255 255 255  255 255 255  255 255 255  255 255 255
255 255 255  255 255 255  255 255 255  255 255 255  255 255 255  255 255 255
255 255 255  255 255 255  255 255 255  255 255 255  255 255 255  255 255 255
255 255 255  255 255 255  255 255 255  255 255 255  255 255 255  255 255 255
255 255 255  255 255 255  255 255 255  255 255 255  255 255 255  255 255 255
255 255 255  255 255 255  255 255 255  255 255 255
255 255 255  255 255 255  255 255 255  255 255 255  255 255 255  255 255 255
255 255 255  255 255 255  255 255 255  255 255 255  255 255 255  255 255 255
255 255 255  255 255 255  255 255 255  255 255 255  255 255 255  255 255 255
255 255 255  255 255 255  255 255 255  255 255 255  255 255 255  255 255 255
255 255 255  255 255 255  255 255 255  255 255 255  255 255 255  255 255 255
255 255 255  255 255 255  255 255 255  255 255 255  255 255 255  255 255 255
255 255 255  255 255 255  255 255 255  255 255 255  255 255 255  255 255 255
255 255 255  255 255 255  255 255 255  255 255 255  255 255 255  255 255 255
255 255 255  255 255 255  255 255 255  255 255 255  255 255 255  255 255 255
255 255 255  255 255 255  255 255 255  255 255 255  255 255 255  255 255 255
255 255 255  255 255 255  255 255 255  255 255 255  255 255 255  255 255 255
255 255 255  255 255 255  255 255 255  255 255 255  255 255 255  255 255 255
255 255 255  255 255 255  255 255 255  255 255 255  255 255 255  255 255 255
255 255 255  255 255 255  255 255 255  255 255 255  255 255 255  255 255 255
255 255 255  255 255 255  255 255 255  255 255 255  255 255 255  255 255 255
255 255 255  255 255 255  255 255 255  255 255 255  255 255 255  255 255 255
255 255 255  255 255 255  255 255 255  255 255 255  255 255 255  255 255 255
255 255 255  255 255 255  255 255 255  255 255 255  255 255 255  255 255 255
255 255 255  255 255 255  255 255 255  255 255 255  255 255 255  255 255 255
255 255 255  255 255 255  255 255 255  255 255 255  255 255 255  255 255 255
255 255 255  255 255 255  255 255 255  255 255 255  255 255 255  255 255 255
255 255 255  255 255 255  255 255 255  255 255 255  255 255 255  255 255 255
255 255 255  255 255 255  255 255 255  255 255 255  255 255 255  255 255 255
255 255 255  255 255 255  255 255 255  255 255 255  255 255 255  255 255 255
255 255 255  255 255 255  255 255 255  255 255 255  255 255 255  255 255 255
255 255 255  255 255 255  255 255 255  255 255 255  255 255 255  255 255 255
255 255 255  255 255 255  255 255 255  255 255 255  255 255 255  255 255 255
255 255 255  255 255 255  255 255 255  255 255 255  255 255 255  255 255 255
255 255 255  255 255 255  255 255 255  255 255 255  255 255 255  255 255 255
255 255 255  255 255 255  255 255 255  255 255 255  255 255 255  255 255 255
255 255 255  255 255 255  255 255 255  255 255 255  255 255 255  255 255 255
255 255 255  255 255 255  255 255 255  255 255 255  255 255 255  255 255 255
255 255 255  255 255 255  255 255 255  255 255 255  255 255 255  255 255 255
255 255 255  255 255 255  255 255 255  255 255 255  255 255 255  255 255 255
255 255 255  255 255 255  255 255 255  255 255 255  255 255 255  255 255 255
255 255 255  255 255 255  255 255 255  255 255 255  255 255 255  255 255 255
255 255 255  255 255 255  255 255 255  255 255 255  255 255 255  255 255 255
255 255 255  255 255 255  255 255 255  255 255 255  255 255 255  255 255 255
255 255 255  255 255 255  255 255 255  255 255 255  255 255 255  255 255 255
255 255 255  255 255 255  255 255 255  255 255 255  255 255 255  255 255 255
255 255 255  255 255 255  255 255 255  255 255 255  255 255 255  255 255 255
255 255 255  255 255 255  255 255 255  255 255 255  255 255 255  255 255 255
255 255 255  255 255 255  255 255 255  255 255 255
255 255 255  255 255 255  255 255 255  255 255 255  255 255 255  255 255 255
255 255 255  255 255 255  255 255 255  255 255 255  255 255 255  255 255 255
255 255 255  255 255 255  255 255 255  255 255 255  255 255 255  255 255 255
255 255 255  255 255 255  255 255 255  255 255 255  255 255 255  255 255 255
255 255 255  255 255 255  255 255 255  255 255 255  255 255 255  255 255 255
255 255 255  255 255 255  255 255 255  255 255 255  255 255 255  255 255 255
255 255 255  255 255 255  255 255 255  255 255 255  255 255 255  255 255 255
255 255 255  255 255 255  255 255 255  255 255 255  255 255 255  255 255 255
255 255 255  255 255 255  255 255 255  255 255 255  255 255 255  255 255 255
255 255 255  255 255 255  255 255 255  255 255 255  255 255 255  255 255 255
255 255 255  255 255 255  255 255 255  255 255 255  255 255 255  255 255 255
255 255 255  255 255 255  255 255 255  255 255 255  255 255 255  255 255 255
255 255 255  255 255 255  255 255 255  255 255 255  255 255 255  255 255 255
255 255 255  255 255 255  255 255 255  255 255 255  255 255 255  255 255 255
255 255 255  255 255 255  255 255 255  255 255 255  255 255 255  255 255 255
255 255 255  255 255 255  255 255 255  255 255 255  255 255 255  255 255 255
255 255 255  255 255 255  255 255 255  255 255 255  255 255 255  255 255 255
255 255 255  255 255 255  255 255 255  255 255 255  255 255 255  255 255 255
255 255 255  255 255 255  255 255 255  255 255 255  255 255 255  255 255 255
255 255 255  255 255 255  255 255 255  255 255 255  255 255 255  255 255 255
255 255 255  255 255 255  255 255 255  255 255 255  255 255 255  255 255 255
255 255 255  255 255 255  255 255 255  255 255 255  255 255 255  255 255 255
255 255 255  255 255 255  255 255 255  255 255 255  255 255 255  255 255 255
255 255 255  255 255 255  255 255 255  255 255 255  255 255 255  255 255 255
255 255 255  255 255 255  255 255 255  255 255 255  255 255 255  255 255 255
255 255 255  255 255 255  255 255 255  255 255 255  255 255 255  255 255 255
255 255 255  255 255 255  255 255 255  255 255 255  255 255 255  255 255 255
255 255 255  255 255 255  255 255 255  255 255 255  255 255 255  255 255 255
255 255 255  255 255 255  255 255 255  255 255 255  255 255 255  255 255 255
255 255 255  255 255 255  255 255 255  255 255 255  255 255 255  255 255 255
255 255 255  255 255 255  255 255 255  255 255 255  255 255 255  255 255 255
255 255 255  255 255 255  255 255 255  255 255 255  255 255 255  255 255 255
255 255 255  255 255 255  255 255 255  255 255 255  255 255 255  255 255 255
255 255 255  255 255 255  255 255 255  255 255 255  255 255 255  255 255 255
255 255 255  255 255 255  255 255 255  255 255 255  255 255 255  255 255 255
255 255 255  255 255 255  255 255 255  255 255 255  255 255 255  255 255 255
255 255 255  255 255 255  255 255 255  255 255 255  255 255 255  255 255 255
255 255 255  255 255 255  255 255 255  255 255 255  255 255 255  255 255 255
255 255 255  255 255 255  255 255 255  255 255 255  255 255 255  255 255 255
255 255 255  255 255 255  255 255 255  255 255 255  255 255 255  255 255 255
255 255 255  255 255 255  255 255 255  255 255 255  255 255 255  255 255 255
255 255 255  255 255 255  255 255 255  255 255 255  255 255 255  255 255 255
255 255 255  255 255 255  255 255 255  255 255 255
255 255 255  255 255 255  255 255 255  255 255 255  255 255 255  255 255 255
255 255 255  255 255 255  255 255 255  255 255 255  255 255 255  255 255 255
255 255 255  255 255 255  255 255 255  255 255 255  255 255 255  255 255 255
255 255 255  255 255 255  255 255 255  255 255 255  255 255 255  255 255 255
255 255 255  255 255 255  255 255 255  255 255 255  255 255 255  255 255 255
255 255 255  255 255 255  255 255 255  255 255 255  255 255 255  255 255 255
255 255 255  255 255 255  255 255 255  255 255 255  255 255 255  255 255 255
255 255 255  255 255 255  255 255 255  255 255 255  255 255 255  255 255 255
255 255 255  255 255 255  255 255 255  255 255 255  255 255 255  255 255 255
255 255 255  255 255 255  255 255 255  255 255 255  255 255 255  255 255 255
255 255 255  255 255 255  255 255 255  255 255 255  255 255 255  255 255 255
255 255 255  255 255 255  255 255 255  255 255 255  255 255 255  255 255 255
255 255 255  255 255 255  255 255 255  255 255 255  255 255 255  255 255 255
255 255 255  255 255 255  255 255 255  255 255 255  255 255 255  255 255 255
255 255 255  255 255 255  255 255 255  255 255 255  255 255 255  255 255 255
255 255 255  255 255 255  255 255 255  255 255 255  255 255 255  255 255 255
255 255 255  255 255 255  255 255 255  255 255 255  255 255 255  255 255 255
255 255 255  255 255 255  255 255 255  255 255 255  255 255 255  255 255 255
255 255 255  255 255 255  255 255 255  255 255 255  255 255 255  255 255 255
255 255 255  255 255 255  255 255 255  255 255 255  255 255 255  255 255 255
255 255 255  255 255 255  255 255 255  255 255 255  255 255 255  255 255 255
255 255 255  255 255 255  255 255 255  255 255 255  255 255 255  255 255 255
255 255 255  255 255 255  255 255 255  255 255 255  255 255 255  255 255 255
255 255 255  255 255 255  255 255 255  255 255 255  255 255 255  255 255 255
255 255 255  255 255 255  255 255 255  255 255 255  255 255 255  255 255 255
255 255 255  255 255 255  255 255 255  255 255 255  255 255 255  255 255 255
255 255 255  255 255 255  255 255 255  255 255 255  255 255 255  255 255 255
255 255 255  255 255 255  255 255 255  255 255 255  255 255 255  255 255 255
255 255 255  255 255 255  255 255 255  255 255 255  255 255 255  255 255 255
255 255 255  255 255 255  255 255 255  255 255 255  255 255 255  255 255 255
255 255 255  255 255 255  255 255 255  255 255 255  255 255 255  255 255 255
255 255 255  255 255 255  255 255 255  255 255 255  255 255 255  255 255 255
255 255 255  255 255 255  255 255 255  255 255 255  255 255 255  255 255 255
255 255 255  255 255 255  255 255 255  255 255 255  255 255 255  255 255 255
255 255 255  255 255 255  255 255 255  255 255 255  255 255 255  255 255 255
255 255 255  255 255 255  255 255 255  255 255 255  255 255 255  255 255 255
255 255 255  255 255 255  255 255 255  255 255 255  255 255 255  255 255 255
255 255 255  255 255 255  255 255 255  255 255 255  255 255 255  255 255 255
255 255 255  255 255 255  255 255 255  255 255 255  255 255 255  255 255 255
255 255 255  255 255 255  255 255 255  255 255 255  255 255 255  255 255 255
255 255 255  255 255 255  255 255 255  255 255 255  255 255 255  255 255 255
255 255 255  255 255 255  255 255 255  255 255 255  255 255 255  255 255 255
255 255 255  255 255 255  255 255 255  255 255 255
255 255 255  255 255 255  255 255 255  255 255 255  255 255 255  255 255 255
255 255 255  255 255 255  255 255 255  255 255 255  255 255 255  255 255 255
255 255 255  255 255 255  255 255 255  255 255 255  255 255 255  255 255 255
255 255 255  255 255 255  255 255 255  255 255 255  255 255 255  255 255 255
255 255 255  255 255 255  255 255 255  255 255 255  255 255 255  255 255 255
255 255 255  255 255 255  255 255 255  255 255 255  255 255 255  255 255 255
255 255 255  255 255 255  255 255 255  255 255 255  255 255 255  255 255 255
255 255 255  255 255 255  255 255 255  255 255 255  255 255 255  255 255 255
255 255 255  255 255 255  255 255 255  255 255 255  255 255 255  255 255 255
255 255 255  255 255 255  255 255 255  255 255 255  255 255 255  255 255 255
255 255 255  255 255 255  255 255 255  255 255 255  255 255 255  255 255 255
255 255 255  255 255 255  255 255 255  255 255 255  255 255 255  255 255 255
255 255 255  255 255 255  255 255 255  255 255 255  255 255 255  255 255 255
255 255 255  255 255 255  255 255 255  255 255 255  255 255 255  255 255 255
255 255 255  255 255 255  255 255 255  255 255 255  255 255 255  255 255 255
255 255 255  255 255 255  255 255 255  255 255 255  255 255 255  255 255 255
255 255 255  255 255 255  255 255 255  255 255 255  255 255 255  255 255 255
255 255 255  255 255 255  255 255 255  255 255 255  255 255 255  255 255 255
255 255 255  255 255 255  255 255 255  255 255 255  255 255 255  255 255 255
255 255 255  255 255 255  255 255 255  255 255 255  255 255 255  255 255 255
255 255 255  255 255 255  255 255 255  255 255 255  255 255 255  255 255 255
255 255 255  255 255 255  255 255 255  255 255 255  255 255 255  255 255 255
255 255 255  255 255 255  255 255 255  255 255 255  255 255 255  255 255 255
255 255 255  255 255 255  255 255 255  255 255 255  255 255 255  255 255 255
255 255 255  255 255 255  255 255 255  255 255 255  255 255 255  255 255 255
255 255 255  255 255 255  255 255 255  255 255 255  255 255 255  255 255 255
255 255 255  255 255 255  255 255 255  255 255 255  255 255 255  255 255 255
255 255 255  255 255 255  255 255 255  255 255 255  255 255 255  255 255 255
255 255 255  255 255 255  255 255 255  255 255 255  255 255 255  255 255 255
255 255 255  255 255 255  255 255 255  255 255 255  255 255 255  255 255 255
255 255 255  255 255 255  255 255 255  255 255 255  255 255 255  255 255 255
255 255 255  255 255 255  255 255 255  255 255 255  255 255 255  255 255 255
255 255 255  255 255 255  255 255 255  255 255 255  255 255 255  255 255 255
255 255 255  255 255 255  255 255 255  255 255 255  255 255 255  255 255 255
255 255 255  255 255 255  255 255 255  255 255 255  255 255 255  255 255 255
255 255 255  255 255 255  255 255 255  255 255 255  255 255 255  255 255 255
255 255 255  255 255 255  255 255 255  255 255 255  255 255 255  255 255 255
255 255 255  255 255 255  255 255 255  255 255 255  255 255 255  255 255 255
255 255 255  255 255 255  255 255 255  255 255 255  255 255 255  255 255 255
255 255 255  255 255 255  255 255 255  255 255 255  255 255 255  255 255 255
255 255 255  255 255 255  255 255 255  255 255 255  255 255 255  255 255 255
255 255 255  255 255 255  255 255 255  255 255 255  255 255 255  255 255 255
255 255 255  255 255 255  255 255 255  255 255 255
255 255 255  255 255 255  255 255 255  255 255 255  255 255 255  255 255 255
255 255 255  255 255 255  255 255 255  255 255 255  255 255 255  255 255 255
255 255 255  255 255 255  255 255 255  255 255 255  255 255 255  255 255 255
255 255 255  255 255 255  255 255 255  255 255 255  255 255 255  255 255 255
255 255 255  255 255 255  255 255 255  255 255 255  255 255 255  255 255 255
255 255 255  255 255 255  255 255 255  255 255 255  255 255 255  255 255 255
255 255 255  255 255 255  255 255 255  255 255 255  255 255 255  255 255 255
255 255 255  255 255 255  255 255 255  255 255 255  255 255 255  255 255 255
255 255 255  255 255 255  255 255 255  255 255 255  255 255 255  255 255 255
255 255 255  255 255 255  255 255 255  255 255 255  255 255 255  255 255 255
255 255 255  255 255 255  255 255 255  255 255 255  255 255 255  255 255 255
255 255 255  255 255 255  255 255 255  255 255 255  255 255 255  255 255 255
255 255 255  255 255 255  255 255 255  255 255 255  255 255 255  255 255 255
255 255 255  255 255 255  255 255 255  255 255 255  255 255 255  255 255 255
255 255 255  255 255 255  255 255 255  255 255 255  255 255 255  255 255 255
255 255 255  255 255 255  255 255 255  255 255 255  255 255 255  255 255 255
255 255 255  255 255 255  255 255 255  255 255 255  255 255 255  255 255 255
255 255 255  255 255 255  255 255 255  255 255 255  255 255 255  255 255 255
255 255 255  255 255 255  255 255 255  255 255 255  255 255 255  255 255 255
255 255 255  255 255 255  255 255 255  255 255 255  255 255 255  255 255 255
255 255 255  255 255 255  255 255 255  255 255 255  255 255 255  255 255 255
255 255 255  255 255 255  255 255 255  255 255 255  255 255 255  255 255 255
255 255 255  255 255 255  255 255 255  255 255 255  255 255 255  255 255 255
255 255 255  255 255 255  255 255 255  255 255 255  255 255 255  255 255 255
255 255 255  255 255 255  255 255 255  255 255 255  255 255 255  255 255 255
255 255 255  255 255 255  255 255 255  255 255 255  255 255 255  255 255 255
255 255 255  255 255 255  255 255 255  255 255 255  255 255 255  255 255 255
255 255 255  255 255 255  255 255 255  255 255 255  255 255 255  255 255 255
255 255 255  255 255 255  255 255 255  255 255 255  255 255 255  255 255 255
255 255 255  255 255 255  255 255 255  255 255 255  255 255 255  255 255 255
255 255 255  255 255 255  255 255 255  255 255 255  255 255 255  255 255 255
255 255 255  255 255 255  255 255 255  255 255 255  255 255 255  255 255 255
255 255 255  255 255 255  255 255 255  255 255 255  255 255 255  255 255 255
255 255 255  255 255 255  255 255 255  255 255 255  255 255 255  255 255 255
255 255 255  255 255 255  255 255 255  255 255 255  255 255 255  255 255 255
255 255 255  255 255 255  255 255 255  255 255 255  255 255 255  255 255 255
255 255 255  255 255 255  255 255 255  255 255 255  255 255 255  255 255 255
255 255 255  255 255 255  255 255 255  255 255 255  255 255 255  255 255 255
255 255 255  255 255 255  255 255 255  255 255 255  255 255 255  255 255 255
255 255 255  255 255 255  255 255 255  255 255 255  255 255 255  255 255 255
255 255 255  255 255 255  255 255 255  255 255 255  255 255 255  255 255 255
255 255 255  255 255 255  255 255 255  255 255 255  255 255 255  255 255 255
255 255 255  255 255 255  255 255 255  255 255 255
255 255 255  255 255 255  255 255 255  255 255 255  255 255 255  255 255 255
255 255 255  255 255 255  255 255 255  255 255 255  255 255 255  255 255 255
255 255 255  255 255 255  255 255 255  255 255 255  255 255 255  255 255 255
255 255 255  255 255 255  255 255 255  255 255 255  255 255 255  255 255 255
255 255 255  255 255 255  255 255 255  255 255 255  255 255 255  255 255 255
255 255 255  255 255 255  255 255 255  255 255 255  255 255 255  255 255 255
255 255 255  255 255 255  255 255 255  255 255 255  255 255 255  255 255 255
255 255 255  255 255 255  255 255 255  255 255 255  255 255 255  255 255 255
255 255 255  255 255 255  255 255 255  255 255 255  255 255 255  255 255 255
255 255 255  255 255 255  255 255 255  255 255 255  255 255 255  255 255 255
255 255 255  255 255 255  255 255 255  255 255 255  255 255 255  255 255 255
255 255 255  255 255 255  255 255 255  255 255 255  255 255 255  255 255 255
255 255 255  255 255 255  255 255 255  255 255 255  255 255 255  255 255 255
255 255 255  255 255 255  255 255 255  255 255 255  255 255 255  255 255 255
255 255 255  255 255 255  255 255 255  255 255 255  255 255 255  255 255 255
255 255 255  255 255 255  255 255 255  255 255 255  255 255 255  255 255 255
255 255 255  255 255 255  255 255 255  255 255 255  255 255 255  255 255 255
255 255 255  255 255 255  255 255 255  255 255 255  255 255 255  255 255 255
255 255 255  255 255 255  255 255 255  255 255 255  255 255 255  255 255 255
255 255 255  255 255 255  255 255 255  255 255 255  255 255 255  255 255 255
255 255 255  255 255 255  255 255 255  255 255 255  255 255 255  255 255 255
255 255 255  255 255 255  255 255 255  255 255 255  255 255 255  255 255 255
255 255 255  255 255 255  255 255 255  255 255 255  255 255 255  255 255 255
255 255 255  255 255 255  255 255 255  255 255 255  255 255 255  255 255 255
255 255 255  255 255 255  255 255 255  255 255 255  255 255 255  255 255 255
255 255 255  255 255 255  255 255 255  255 255 255  255 255 255  255 255 255
255 255 255  255 255 255  255 255 255  255 255 255  255 255 255  255 255 255
255 255 255  255 255 255  255 255 255  255 255 255  255 255 255  255 255 255
255 255 255  255 255 255  255 255 255  255 255 255  255 255 255  255 255 255
255 255 255  255 255 255  255 255 255  255 255 255  255 255 255  255 255 255
255 255 255  255 255 255  255 255 255  255 255 255  255 255 255  255 255 255
255 255 255  255 255 255  255 255 255  255 255 255  255 255 255  255 255 255
255 255 255  255 255 255  255 255 255  255 255 255  255 255 255  255 255 255
255 255 255  255 255 255  255 255 255  255 255 255  255 255 255  255 255 255
255 255 255  255 255 255  255 255 255  255 255 255  255 255 255  255 255 255
255 255 255  255 255 255  255 255 255  255 255 255  255 255 255  255 255 255
255 255 255  255 255 255  255 255 255  255 255 255  255 255 255  255 255 255
255 255 255  255 255 255  255 255 255  255 255 255  255 255 255  255 255 255
255 255 255  255 255 255  255 255 255  255 255 255  255 255 255  255 255 255
255 255 255  255 255 255  255 255 255  255 255 255  255 255 255  255 255 255
255 255 255  255 255 255  255 255 255  255 255 255  255 255 255  255 255 255
255 255 255  255 255 255  255 255 255  255 255 255  255 255 255  255 255 255
255 255 255  255 255 255  255 255 255  255 255 255
255 255 255  255 255 255  255 255 255  255 255 255  255 255 255  255 255 255
255 255 255  255 255 255  255 255 255  255 255 255  255 255 255  255 255 255
255 255 255  255 255 255  255 255 255  255 255 255  255 255 255  255 255 255
255 255 255  255 255 255  255 255 255  255 255 255  255 255 255  255 255 255
255 255 255  255 255 255  255 255 255  255 255 255  255 255 255  255 255 255
255 255 255  255 255 255  255 255 255  255 255 255  255 255 255  255 255 255
255 255 255  255 255 255  255 255 255  255 255 255  255 255 255  255 255 255
255 255 255  255 255 255  255 255 255  255 255 255  255 255 255  255 255 255
255 255 255  255 255 255  255 255 255  255 255 255  255 255 255  255 255 255
255 255 255  255 255 255  255 255 255  255 255 255  255 255 255  255 255 255
255 255 255  255 255 255  255 255 255  255 255 255  255 255 255  255 255 255
255 255 255  255 255 255  255 255 255  255 255 255  255 255 255  255 255 255
255 255 255  255 255 255  255 255 255  255 255 255  255 255 255  255 255 255
255 255 255  255 255 255  255 255 255  255 255 255  255 255 255  255 255 255
255 255 255  255 255 255  255 255 255  255 255 255  255 255 255  255 255 255
255 255 255  255 255 255  255 255 255  255 255 255  255 255 255  255 255 255
255 255 255  255 255 255  255 255 255  255 255 255  255 255 255  255 255 255
255 255 255  255 255 255  255 255 255  255 255 255  255 255 255  255 255 255
255 255 255  255 255 255  255 255 255  255 255 255  255 255 255  255 255 255
255 255 255  255 255 255  255 255 255  255 255 255  255 255 255  255 255 255
255 255 255  255 255 255  255 255 255  255 255 255  255 255 255  255 255 255
255 255 255  255 255 255  255 255 255  255 255 255  255 255 255  255 255 255
255 255 255  255 255 255  255 255 255  255 255 255  255 255 255  255 255 255
255 255 255  255 255 255  255 255 255  255 255 255  255 255 255  255 255 255
255 255 255  255 255 255  255 255 255  255 255 255  255 255 255  255 255 255
255 255 255  255 255 255  255 255 255  255 255 255  255 255 255  255 255 255
255 255 255  255 255 255  255 255 255  255 255 255  255 255 255  255 255 255
255 255 255  255 255 255  255 255 255  255 255 255  255 255 255  255 255 255
255 255 255  255 255 255  255 255 255  255 255 255  255 255 255  255 255 255
255 255 255  255 255 255  255 255 255  255 255 255  255 255 255  255 255 255
255 255 255  255 255 255  255 255 255  255 255 255  255 255 255  255 255 255
255 255 255  255 255 255  255 255 255  255 255 255  255 255 255  255 255 255
255 255 255  255 255 255  255 255 255  255 255 255  255 255 255  255 255 255
255 255 255  255 255 255  255 255 255  255 255 255  255 255 255  255 255 255
255 255 255  255 255 255  255 255 255  255 255 255  255 255 255  255 255 255
255 255 255  255 255 255  255 255 255  255 255 255  255 255 255  255 255 255
255 255 255  255 255 255  255 255 255  255 255 255  255 255 255  255 255 255
255 255 255  255 255 255  255 255 255  255 255 255  255 255 255  255 255 255
255 255 255  255 255 255  255 255 255  255 255 255  255 255 255  255 255 255
255 255 255  255 255 255  255 255 255  255 255 255  255 255 255  255 255 255
255 255 255  255 255 255  255 255 255  255 255 255  255 255 255  255 255 255
255 255 255  255 255 255  255 255 255  255 255 255  255 255 255  255 255 255
255 255 255  255 255 255  255 255 255  255 255 255
255 255 255  255 255 255  255 255 255  255 255 255  255 255 255  255 255 255
255 255 255  255 255 255  255 255 255  255 255 255  255 255 255  255 255 255
255 255 255  255 255 255  255 255 255  255 255 255  255 255 255  255 255 255
255 255 255  255 255 255  255 255 255  255 255 255  255 255 255  255 255 255
255 255 255  255 255 255  255 255 255  255 255 255  255 255 255  255 255 255
255 255 255  255 255 255  255 255 255  255 255 255  255 255 255  255 255 255
255 255 255  255 255 255  255 255 255  255 255 255  255 255 255  255 255 255
255 255 255  255 255 255  255 255 255  255 255 255  255 255 255  255 255 255
255 255 255  255 255 255  255 255 255  255 255 255  255 255 255  255 255 255
255 255 255  255 255 255  255 255 255  255 255 255  255 255 255  255 255 255
255 255 255  255 255 255  255 255 255  255 255 255  255 255 255  255 255 255
255 255 255  255 255 255  255 255 255  255 255 255  255 255 255  255 255 255
255 255 255  255 255 255  255 255 255  255 255 255  255 255 255  255 255 255
255 255 255  255 255 255  255 255 255  255 255 255  255 255 255  255 255 255
255 255 255  255 255 255  255 255 255  255 255 255  255 255 255  255 255 255
255 255 255  255 255 255  255 255 255  255 255 255  255 255 255  255 255 255
255 255 255  255 255 255  255 255 255  255 255 255  255 255 255  255 255 255
255 255 255  255 255 255  255 255 255  255 255 255  255 255 255  255 255 255
255 255 255  255 255 255  255 255 255  255 255 255  255 255 255  255 255 255
255 255 255  255 255 255  255 255 255  255 255 255  255 255 255  255 255 255
255 255 255  255 255 255  255 255 255  255 255 255  255 255 255  255 255 255
255 255 255  255 255 255  255 255 255  255 255 255  255 255 255  255 255 255
255 255 255  255 255 255  255 255 255  255 255 255  255 255 255  255 255 255
255 255 255  255 255 255  255 255 255  255 255 255  255 255 255  255 255 255
255 255 255  255 255 255  255 255 255  255 255 255  255 255 255  255 255 255
255 255 255  255 255 255  255 255 255  255 255 255  255 255 255  255 255 255
255 255 255  255 255 255  255 255 255  255 255 255  255 255 255  255 255 255
255 255 255  255 255 255  255 255 255  255 255 255  255 255 255  255 255 255
255 255 255  255 255 255  255 255 255  255 255 255  255 255 255  255 255 255
255 255 255  255 255 255  255 255 255  255 255 255  255 255 255  255 255 255
255 255 255  255 255 255  255 255 255  255 255 255  255 255 255  255 255 255
255 255 255  255 255 255  255 255 255  255 255 255  255 255 255  255 255 255
255 255 255  255 255 255  255 255 255  255 255 255  255 255 255  255 255 255
255 255 255  255 255 255  255 255 255  255 255 255  255 255 255  255 255 255
255 255 255  255 255 255  255 255 255  255 255 255  255 255 255  255 255 255
255 255 255  255 255 255  255 255 255  255 255 255  255 255 255  255 255 255
255 255 255  255 255 255  255 255 255  255 255 255  255 255 255  255 255 255
255 255 255  255 255 255  255 255 255  255 255 255  255 255 255  255 255 255
255 255 255  255 255 255  255 255 255  255 255 255  255 255 255  255 255 255
255 255 255  255 255 255  255 255 255  255 255 255  255 255 255  255 255 255
255 255 255  255 255 255  255 255 255  255 255 255  255 255 255  255 255 255
255 255 255  255 255 255  255 255 255  255 255 255  255 255 255  255 255 255
255 255 255  255 255 255  255 255 255  255 255 255
255 255 255  255 255 255  255 255 255  255 255 255  255 255 255  255 255 255
255 255 255  255 255 255  255 255 255  255 255 255  255 255 255  255 255 255
255 255 255  255 255 255  255 255 255  255 255 255  255 255 255  255 255 255
255 255 255  255 255 255  255 255 255  255 255 255  255 255 255  255 255 255
255 255 255  255 255 255  255 255 255  255 255 255  255 255 255  255 255 255
255 255 255  255 255 255  255 255 255  255 255 255  255 255 255  255 255 255
255 255 255  255 255 255  255 255 255  255 255 255  255 255 255  255 255 255
255 255 255  255 255 255  255 255 255  255 255 255  255 255 255  255 255 255
255 255 255  255 255 255  255 255 255  255 255 255  255 255 255  255 255 255
255 255 255  255 255 255  255 255 255  255 255 255  255 255 255  255 255 255
255 255 255  255 255 255  255 255 255  255 255 255  255 255 255  255 255 255
255 255 255  255 255 255  255 255 255  255 255 255  255 255 255  255 255 255
255 255 255  255 255 255  255 255 255  255 255 255  255 255 255  255 255 255
255 255 255  255 255 255  255 255 255  255 255 255  255 255 255  255 255 255
255 255 255  255 255 255  255 255 255  255 255 255  255 255 255  255 255 255
255 255 255  255 255 255  255 255 255  255 255 255  255 255 255  255 255 255
255 255 255  255 255 255  255 255 255  255 255 255  255 255 255  255 255 255
255 255 255  255 255 255  255 255 255  255 255 255  255 255 255  255 255 255
255 255 255  255 255 255  255 255 255  255 255 255  255 255 255  255 255 255
255 255 255  255 255 255  255 255 255  255 255 255  255 255 255  255 255 255
255 255 255  255 255 255  255 255 255  255 255 255  255 255 255  255 255 255
255 255 255  255 255 255  255 255 255  255 255 255  255 255 255  255 255 255
255 255 255  255 255 255  255 255 255  255 255 255  255 255 255  255 255 255
255 255 255  255 255 255  255 255 255  255 255 255  255 255 255  255 255 255
255 255 255  255 255 255  255 255 255  255 255 255  255 255 255  255 255 255
255 255 255  255 255 255  255 255 255  255 255 255  255 255 255  255 255 255
255 255 255  255 255 255  255 255 255  255 255 255  255 255 255  255 255 255
255 255 255  255 255 255  255 255 255  255 255 255  255 255 255  255 255 255
255 255 255  255 255 255  255 255 255  255 255 255  255 255 255  255 255 255
255 255 255  255 255 255  255 255 255  255 255 255  255 255 255  255 255 255
255 255 255  255 255 255  255 255 255  255 255 255  255 255 255  255 255 255
255 255 255  255 255 255  255 255 255  255 255 255  255 255 255  255 255 255
255 255 255  255 255 255  255 255 255  255 255 255  255 255 255  255 255 255
255 255 255  255 255 255  255 255 255  255 255 255  255 255 255  255 255 255
255 255 255  255 255 255  255 255 255  255 255 255  255 255 255  255 255 255
255 255 255  255 255 255  255 255 255  255 255 255  255 255 255  255 255 255
255 255 255  255 255 255  255 255 255  255 255 255  255 255 255  255 255 255
255 255 255  255 255 255  255 255 255  255 255 255  255 255 255  255 255 255
255 255 255  255 255 255  255 255 255  255 255 255  255 255 255  255 255 255
255 255 255  255 255 255  255 255 255  255 255 255  255 255 255  255 255 255
255 255 255  255 255 255  255 255 255  255 255 255  255 255 255  255 255 255
255 255 255  255 255 255  255 255 255  255 255 255  255 255 255  255 255 255
255 255 255  255 255 255  255 255 255  255 255 255
255 255 255  255 255 255  255 255 255  255 255 255  255 255 255  255 255 255
255 255 255  255 255 255  255 255 255  255 255 255  255 255 255  255 255 255
255 255 255  255 255 255  255 255 255  255 255 255  255 255 255  255 255 255
255 255 255  255 255 255  255 255 255  255 255 255  255 255 255  255 255 255
255 255 255  255 255 255  255 255 255  255 255 255  255 255 255  255 255 255
255 255 255  255 255 255  255 255 255  255 255 255  255 255 255  255 255 255
255 255 255  255 255 255  255 255 255  255 255 255  255 255 255  255 255 255
255 255 255  255 255 255  255 255 255  255 255 255  255 255 255  255 255 255
255 255 255  255 255 255  255 255 255  255 255 255  255 255 255  255 255 255
255 255 255  255 255 255  255 255 255  255 255 255  255 255 255  255 255 255
255 255 255  255 255 255  255 255 255  255 255 255  255 255 255  255 255 255
255 255 255  255 255 255  255 255 255  255 255 255  255 255 255  255 255 255
255 255 255  255 255 255  255 255 255  255 255 255  255 255 255  255 255 255
255 255 255  255 255 255  255 255 255  255 255 255  255 255 255  255 255 255
255 255 255  255 255 255  255 255 255  255 255 255  255 255 255  255 255 255
255 255 255  255 255 255  255 255 255  255 255 255  255 255 255  255 255 255
255 255 255  255 255 255  255 255 255  255 255 255  255 255 255  255 255 255
255 255 255  255 255 255  255 255 255  255 255 255  255 255 255  255 255 255
255 255 255  255 255 255  255 255 255  255 255 255  255 255 255  255 255 255
255 255 255  255 255 255  255 255 255  255 255 255  255 255 255  255 255 255
255 255 255  255 255 255  255 255 255  255 255 255  255 255 255  255 255 255
255 255 255  255 255 255  255 255 255  255 255 255  255 255 255  255 255 255
255 255 255  255 255 255  255 255 255  255 255 255  255 255 255  255 255 255
255 255 255  255 255 255  255 255 255  255 255 255  255 255 255  255 255 255
255 255 255  255 255 255  255 255 255  255 255 255  255 255 255  255 255 255
255 255 255  255 255 255  255 255 255  255 255 255  255 255 255  255 255 255
255 255 255  255 255 255  255 255 255  255 255 255  255 255 255  255 255 255
255 255 255  255 255 255  255 255 255  255 255 255  255 255 255  255 255 255
255 255 255  255 255 255  255 255 255  255 255 255  255 255 255  255 255 255
255 255 255  255 255 255  255 255 255  255 255 255  255 255 255  255 255 255
255 255 255  255 255 255  255 255 255  255 255 255  255 255 255  255 255 255
255 255 255  255 255 255  255 255 255  255 255 255  255 255 255  255 255 255
255 255 255  255 255 255  255 255 255  255 255 255  255 255 255  255 255 255
255 255 255  255 255 255  255 255 255  255 255 255  255 255 255  255 255 255
255 255 255  255 255 255  255 255 255  255 255 255  255 255 255  255 255 255
255 255 255  255 255 255  255 255 255  255 255 255  255 255 255  255 255 255
255 255 255  255 255 255  255 255 255  255 255 255  255 255 255  255 255 255
255 255 255  255 255 255  255 255 255  255 255 255  255 255 255  255 255 255
255 255 255  255 255 255  255 255 255  255 255 255  255 255 255  255 255 255
255 255 255  255 255 255  255 255 255  255 255 255  255 255 255  255 255 255
255 255 255  255 255 255  255 255 255  255 255 255  255 255 255  255 255 255
255 255 255  255 255 255  255 255 255  255 255 255  255 255 255  255 255 255
255 255 255  255 255 255  255 255 255  255 255 255
255 255 255  255 255 255  255 255 255  255 255 255  255 255 255  255 255 255
255 255 255  255 255 255  255 255 255  255 255 255  255 255 255  255 255 255
255 255 255  255 255 255  255 255 255  255 255 255  255 255 255  255 255 255
255 255 255  255 255 255  255 255 255  255 255 255  255 255 255  255 255 255
255 255 255  255 255 255  255 255 255  255 255 255  255 255 255  255 255 255
255 255 255  255 255 255  255 255 255  255 255 255  255 255 255  255 255 255
255 255 255  255 255 255  255 255 255  255 255 255  255 255 255  255 255 255
255 255 255  255 255 255  255 255 255  255 255 255  255 255 255  255 255 255
255 255 255  255 255 255  255 255 255  255 255 255  255 255 255  255 255 255
255 255 255  255 255 255  255 255 255  255 255 255  255 255 255  255 255 255
255 255 255  255 255 255  255 255 255  255 255 255  255 255 255  255 255 255
255 255 255  255 255 255  255 255 255  255 255 255  255 255 255  255 255 255
255 255 255  255 255 255  255 255 255  255 255 255  255 255 255  255 255 255
255 255 255  255 255 255  255 255 255  255 255 255  255 255 255  255 255 255
255 255 255  255 255 255  255 255 255  255 255 255  255 255 255  255 255 255
255 255 255  255 255 255  255 255 255  255 255 255  255 255 255  255 255 255
255 255 255  255 255 255  255 255 255  255 255 255  255 255 255  255 255 255
255 255 255  255 255 255  255 255 255  255 255 255  255 255 255  255 255 255
255 255 255  255 255 255  255 255 255  255 255 255  255 255 255  255 255 255
255 255 255  255 255 255  255 255 255  255 255 255  255 255 255  255 255 255
255 255 255  255 255 255  255 255 255  255 255 255  255 255 255  255 255 255
255 255 255  255 255 255  255 255 255  255 255 255  255 255 255  255 255 255
255 255 255  255 255 255  255 255 255  255 255 255  255 255 255  255 255 255
255 255 255  255 255 255  255 255 255  255 255 255  255 255 255  255 255 255
255 255 255  255 255 255  255 255 255  255 255 255  255 255 255  255 255 255
255 255 255  255 255 255  255 255 255  255 255 255  255 255 255  255 255 255
255 255 255  255 255 255  255 255 255  255 255 255  255 255 255  255 255 255
255 255 255  255 255 255  255 255 255  255 255 255  255 255 255  255 255 255
255 255 255  255 255 255  255 255 255  255 255 255  255 255 255  255 255 255
255 255 255  255 255 255  255 255 255  255 255 255  255 255 255  255 255 255
255 255 255  255 255 255  255 255 255  255 255 255  255 255 255  255 255 255
255 255 255  255 255 255  255 255 255  255 255 255  255 255 255  255 255 255
255 255 255  255 255 255  255 255 255  255 255 255  255 255 255  255 255 255
255 255 255  255 255 255  255 255 255  255 255 255  255 255 255  255 255 255
255 255 255  255 255 255  255 255 255  255 255 255  255 255 255  255 255 255
255 255 255  255 255 255  255 255 255  255 255 255  255 255 255  255 255 255
255 255 255  255 255 255  255 255 255  255 255 255  255 255 255  255 255 255
255 255 255  255 255 255  255 255 255  255 255 255  255 255 255  255 255 255
255 255 255  255 255 255  255 255 255  255 255 255  255 255 255  255 255 255
255 255 255  255 255 255  255 255 255  255 255 255  255 255 255  255 255 255
255 255 255  255 255 255  255 255 255  255 255 255  255 255 255  255 255 255
255 255 255  255 255 255  255 255 255  255 255 255  255 255 255  255 255 255
255 255 255  255 255 255  255 255 255  255 255 255
255 255 255  255 255 255  255 255 255  255 255 255  255 255 255  255 255 255
255 255 255  255 255 255  255 255 255  255 255 255  255 255 255  255 255 255
134 197 255  28 145 255  28 145 255  28 145 255  28 145 255  28 145 255
28 145 255  28 145 255  28 145 255  28 145 255  74 167 255  134 197 255
240 248 255  255 255 255  255 255 255  255 255 255  255 255 255  255 255 255
255 255 255  255 255 255  255 255 255  255 255 255  255 255 255  255 255 255
255 255 255  255 255 255  255 255 255  255 255 255  255 255 255  255 255 255
255 255 255  255 255 255  255 255 255  255 255 255  255 255 255  255 255 255
255 255 255  255 255 255  255 255 255  255 255 255  255 255 255  255 255 255
255 255 255  195 226 255  28 145 255  134 197 255  255 255 255  255 255 255
255 255 255  255 255 255  255 255 255  255 255 255  255 255 255  255 255 255
255 255 255  255 255 255  255 255 255  255 255 255  255 255 255  255 255 255
255 255 255  255 255 255  255 255 255  255 255 255  255 255 255  255 255 255
255 255 255  255 255 255  255 255 255  255 255 255  255 255 255  255 255 255
255 255 255  255 255 255  255 255 255  255 255 255  255 255 255  255 255 255
255 255 255  255 255 255  255 255 255  255 255 255  255 255 255  255 255 255
255 255 255  255 255 255  255 255 255  255 255 255  255 255 255  255 255 255
255 255 255  255 255 255  255 255 255  255 255 255  255 255 255  255 255 255
255 255 255  255 255 255  255 255 255  255 255 255  255 255 255  255 255 255
255 255 255  255 255 255  255 255 255  255 255 255  255 255 255  255 255 255
255 255 255  255 255 255  255 255 255  255 255 255  255 255 255  255 255 255
255 255 255  255 255 255  255 255 255  255 255 255  255 255 255  255 255 255
255 255 255  255 255 255  255 255 255  255 255 255  255 255 255  255 255 255
255 255 255  255 255 255  255 255 255  255 255 255  134 197 255  28 145 255
195 226 255  255 255 255  255 255 255  255 255 255  255 255 255  255 255 255
255 255 255  255 255 255  255 255 255  255 255 255  255 255 255  255 255 255
255 255 255  255 255 255  255 255 255  255 255 255  255 255 255  255 255 255
255 255 255  255 255 255  255 255 255  255 255 255  255 255 255  255 255 255
255 255 255  255 255 255  255 255 255  255 255 255  255 255 255  255 255 255
255 255 255  255 255 255  255 255 255  255 255 255  255 255 255  255 255 255
255 255 255  255 255 255  255 255 255  255 255 255  255 255 255  255 255 255
255 255 255  255 255 255  255 255 255  255 255 255  255 255 255  255 255 255
255 255 255  255 255 255  255 255 255  255 255 255  255 255 255  255 255 255
255 255 255  255 255 255  255 255 255  255 255 255  255 255 255  255 255 255
255 255 255  255 255 255  255 255 255  255 255 255  255 255 255  255 255 255
195 226 255  28 145 255  134 197 255  255 255 255  255 255 255  255 255 255
255 255 255  255 255 255  255 255 255  255 255 255  255 255 255  255 255 255
255 255 255  255 255 255  255 255 255  255 255 255  255 255 255  255 255 255
255 255 255  255 255 255  255 255 255  255 255 255  255 255 255  255 255 255
255 255 255  255 255 255  255 255 255  255 255 255  255 255 255  255 255 255
255 255 255  255 255 255  255 255 255  255 255 255  255 255 255  255 255 255
255 255 255  255 255 255  255 255 255  255 255 255  255 255 255  255 255 255
255 255 255  255 255 255  255 255 255  255 255 255
255 255 255  255 255 255  255 255 255  255 255 255  255 255 255  255 255 255
255 255 255  255 255 255  255 255 255  255 255 255  255 255 255  255 255 255
134 197 255  28 145 255  59 160 255  89 175 255  89 175 255  89 175 255
89 175 255  89 175 255  89 175 255  89 175 255  44 153 255  28 145 255
44 153 255  210 233 255  255 255 255  255 255 255  255 255 255  255 255 255
255 255 255  255 255 255  255 255 255  255 255 255  255 255 255  255 255 255
255 255 255  255 255 255  255 255 255  255 255 255  255 255 255  255 255 255
255 255 255  255 255 255  255 255 255  255 255 255  255 255 255  255 255 255
255 255 255  255 255 255  255 255 255  255 255 255  255 255 255  255 255 255
255 255 255  195 226 255  28 145 255  134 197 255  255 255 255  255 255 255
255 255 255  255 255 255  255 255 255  255 255 255  255 255 255  255 255 255
255 255 255  255 255 255  255 255 255  255 255 255  255 255 255  255 255 255
255 255 255  255 255 255  255 255 255  255 255 255  255 255 255  255 255 255
255 255 255  255 255 255  255 255 255  255 255 255  255 255 255  255 255 255
255 255 255  255 255 255  255 255 255  255 255 255  255 255 255  255 255 255
255 255 255  255 255 255  255 255 255  255 255 255  255 255 255  255 255 255
255 255 255  255 255 255  255 255 255  255 255 255  255 255 255  255 255 255
255 255 255  255 255 255  255 255 255  255 255 255  255 255 255  255 255 255
255 255 255  255 255 255  255 255 255  255 255 255  255 255 255  255 255 255
255 255 255  255 255 255  255 255 255  255 255 255  255 255 255  255 255 255
255 255 255  255 255 255  255 255 255  255 255 255  255 255 255  255 255 255
255 255 255  255 255 255  255 255 255  255 255 255  255 255 255  255 255 255
255 255 255  255 255 255  255 255 255  255 255 255  255 255 255  255 255 255
255 255 255  255 255 255  255 255 255  255 255 255  134 197 255  28 145 255
195 226 255  255 255 255  255 255 255  255 255 255  255 255 255  255 255 255
255 255 255  255 255 255  255 255 255  255 255 255  255 255 255  255 255 255
255 255 255  255 255 255  255 255 255  255 255 255  255 255 255  255 255 255
255 255 255  255 255 255  255 255 255  255 255 255  255 255 255  255 255 255
255 255 255  255 255 255  255 255 255  255 255 255  255 255 255  255 255 255
255 255 255  255 255 255  255 255 255  255 255 255  255 255 255  255 255 255
255 255 255  255 255 255  255 255 255  255 255 255  255 255 255  255 255 255
255 255 255  255 255 255  255 255 255  255 255 255  255 255 255  255 255 255
255 255 255  255 255 255  255 255 255  255 255 255  255 255 255  255 255 255
255 255 255  255 255 255  255 255 255  255 255 255  255 255 255  255 255 255
255 255 255  255 255 255  255 255 255  255 255 255  255 255 255  255 255 255
195 226 255  28 145 255  134 197 255  255 255 255  255 255 255  255 255 255
255 255 255  255 255 255  255 255 255  255 255 255  255 255 255  255 255 255
255 255 255  255 255 255  255 255 255  255 255 255  255 255 255  255 255 255
255 255 255  255 255 255  255 255 255  255 255 255  255 255 255  255 255 255
255 255 255  255 255 255  255 255 255  255 255 255  255 255 255  255 255 255
255 255 255  255 255 255  255 255 255  255 255 255  255 255 255  255 255 255
255 255 255  255 255 255  255 255 255  255 255 255  255 255 255  255 255 255
255 255 255  255 255 255  255 255 255  255 255 255
255 255 255  255 255 255  255 255 255  255 255 255  255 255 255  255 255 255
255 255 255  255 255 255  255 255 255  255 255 255  255 255 255  255 255 255
134 197 255  28 145 255  134 197 255  255 255 255  255 255 255  255 255 255
255 255 255  255 255 255  255 255 255  255 255 255  240 248 255  104 182 255
28 145 255  74 167 255  255 255 255  255 255 255  255 255 255  255 255 255
255 255 255  255 255 255  255 255 255  255 255 255  255 255 255  255 255 255
255 255 255  255 255 255  255 255 255  255 255 255  255 255 255  255 255 255
255 255 255  255 255 255  255 255 255  255 255 255  255 255 255  255 255 255
255 255 255  255 255 255  255 255 255  255 255 255  255 255 255  255 255 255
255 255 255  195 226 255  28 145 255  134 197 255  255 255 255  255 255 255
255 255 255  255 255 255  255 255 255  255 255 255  255 255 255  255 255 255
255 255 255  255 255 255  255 255 255  255 255 255  255 255 255  255 255 255
255 255 255  255 255 255  255 255 255  255 255 255  255 255 255  255 255 255
255 255 255  255 255 255  255 255 255  255 255 255  255 255 255  255 255 255
255 255 255  255 255 255  255 255 255  255 255 255  255 255 255  255 255 255
255 255 255  255 255 255  255 255 255  255 255 255  255 255 255  255 255 255
255 255 255  255 255 255  255 255 255  255 255 255  255 255 255  255 255 255
255 255 255  255 255 255  255 255 255  255 255 255  255 255 255  255 255 255
255 255 255  255 255 255  255 255 255  255 255 255  255 255 255  255 255 255
255 255 255  255 255 255  255 255 255  255 255 255  255 255 255  255 255 255
255 255 255  255 255 255  255 255 255  255 255 255  255 255 255  255 255 255
255 255 255  255 255 255  255 255 255  255 255 255  255 255 255  255 255 255
255 255 255  255 255 255  255 255 255  255 255 255  255 255 255  255 255 255
255 255 255  255 255 255  255 255 255  255 255 255  134 197 255  28 145 255
195 226 255  255 255 255  255 255 255  255 255 255  255 255 255  255 255 255
255 255 255  255 255 255  255 255 255  255 255 255  255 255 255  255 255 255
255 255 255  255 255 255  255 255 255  255 255 255  255 255 255  255 255 255
255 255 255  255 255 255  255 255 255  255 255 255  255 255 255  255 255 255
255 255 255  255 255 255  255 255 255  255 255 255  255 255 255  255 255 255
255 255 255  255 255 255  255 255 255  255 255 255  255 255 255  255 255 255
255 255 255  255 255 255  255 255 255  255 255 255  255 255 255  255 255 255
255 255 255  255 255 255  255 255 255  255 255 255  255 255 255  255 255 255
255 255 255  255 255 255  255 255 255  255 255 255  255 255 255  255 255 255
255 255 255  255 255 255  255 255 255  255 255 255  255 255 255  255 255 255
255 255 255  255 255 255  255 255 255  255 255 255  255 255 255  255 255 255
195 226 255  28 145 255  134 197 255  255 255 255  255 255 255  255 255 255
255 255 255  255 255 255  255 255 255  255 255 255  255 255 255  255 255 255
255 255 255  255 255 255  255 255 255  255 255 255  255 255 255  255 255 255
255 255 255  255 255 255  255 255 255  255 255 255  255 255 255  255 255 255
255 255 255  255 255 255  255 255 255  255 255 255  255 255 255  255 255 255
255 255 255  255 255 255  255 255 255  255 255 255  255 255 255  255 255 255
255 255 255  255 255 255  255 255 255  255 255 255  255 255 255  255 255 255
195 226 255  165 211 255  225 241 255  255 255 255
255 255 255  255 255 255  255 255 255  255 255 255  255 255 255  255 255 255
255 255 255  255 255 255  255 255 255  255 255 255  255 255 255  255 255 255
134 197 255  28 145 255  134 197 255  255 255 255  255 255 255  255 255 255
255 255 255  255 255 255  255 255 255  255 255 255  255 255 255  255 255 255
74 167 255  28 145 255  180 219 255  255 255 255  255 255 255  255 255 255
255 255 255  255 255 255  255 255 255  255 255 255  255 255 255  255 255 255
255 255 255  255 255 255  255 255 255  255 255 255  255 255 255  255 255 255
255 255 255  255 255 255  255 255 255  255 255 255  255 255 255  255 255 255
255 255 255  255 255 255  255 255 255  255 255 255  255 255 255  255 255 255
255 255 255  195 226 255  28 145 255  134 197 255  255 255 255  255 255 255
255 255 255  255 255 255  255 255 255  255 255 255  255 255 255  255 255 255
255 255 255  255 255 255  255 255 255  255 255 255  255 255 255  255 255 255
255 255 255  255 255 255  255 255 255  255 255 255  255 255 255  255 255 255
255 255 255  255 255 255  255 255 255  255 255 255  255 255 255  255 255 255
255 255 255  255 255 255  255 255 255  255 255 255  255 255 255  255 255 255
255 255 255  255 255 255  255 255 255  255 255 255  255 255 255  255 255 255
255 255 255  255 255 255  255 255 255  255 255 255  255 255 255  255 255 255
255 255 255  255 255 255  255 255 255  255 255 255  255 255 255  255 255 255
255 255 255  255 255 255  255 255 255  255 255 255  255 255 255  255 255 255
255 255 255  255 255 255  255 255 255  255 255 255  255 255 255  255 255 255
255 255 255  255 255 255  255 255 255  255 255 255  255 255 255  255 255 255
255 255 255  255 255 255  255 255 255  255 255 255  255 255 255  255 255 255
255 255 255  255 255 255  255 255 255  255 255 255  255 255 255  255 255 255
255 255 255  255 255 255  255 255 255  255 255 255  134 197 255  28 145 255
195 226 255  255 255 255  255 255 255  255 255 255  255 255 255  255 255 255
255 255 255  255 255 255  255 255 255  255 255 255  255 255 255  255 255 255
255 255 255  255 255 255  255 255 255  255 255 255  255 255 255  255 255 255
255 255 255  255 255 255  255 255 255  255 255 255  255 255 255  255 255 255
255 255 255  255 255 255  255 255 255  255 255 255  255 255 255  255 255 255
255 255 255  255 255 255  255 255 255  255 255 255  255 255 255  255 255 255
255 255 255  255 255 255  255 255 255  255 255 255  255 255 255  255 255 255
255 255 255  255 255 255  255 255 255  255 255 255  255 255 255  255 255 255
255 255 255  255 255 255  255 255 255  255 255 255  255 255 255  255 255 255
255 255 255  255 255 255  255 255 255  255 255 255  255 255 255  255 255 255
255 255 255  255 255 255  255 255 255  255 255 255  255 255 255  255 255 255
195 226 255  28 145 255  134 197 255  255 255 255  255 255 255  255 255 255
255 255 255  255 255 255  255 255 255  255 255 255  255 255 255  255 255 255
255 255 255  255 255 255  255 255 255  255 255 255  255 255 255  255 255 255
255 255 255  255 255 255  255 255 255  255 255 255  255 255 255  255 255 255
255 255 255  255 255 255  255 255 255  255 255 255  255 255 255  255 255 255
255 255 255  255 255 255  255 255 255  255 255 255  255 255 255  255 255 255
255 255 255  255 255 255  255 255 255  255 255 255  255 255 255  134 197 255
104 182 255  119 189 255  119 189 255  195 226 255
255 255 255  255 255 255  255 255 255  255 255 255  255 255 255  255 255 255
255 255 255  255 255 255  255 255 255  255 255 255  255 255 255  255 255 255
134 197 255  28 145 255  134 197 255  255 255 255  255 255 255  255 255 255
255 255 255  255 255 255  255 255 255  255 255 255  255 255 255  255 255 255
134 197 255  28 145 255  134 197 255  255 255 255  255 255 255  255 255 255
255 255 255  255 255 255  255 255 255  255 255 255  255 255 255  255 255 255
255 255 255  255 255 255  255 255 255  255 255 255  255 255 255  255 255 255
255 255 255  255 255 255  255 255 255  255 255 255  255 255 255  210 233 255
225 241 255  255 255 255  255 255 255  255 255 255  255 255 255  255 255 255
255 255 255  195 226 255  28 145 255  134 197 255  255 255 255  255 255 255
255 255 255  210 233 255  225 241 255  255 255 255  255 255 255  255 255 255
255 255 255  255 255 255  255 255 255  255 255 255  255 255 255  255 255 255
255 255 255  255 255 255  255 255 255  255 255 255  255 255 255  255 255 255
255 255 255  255 255 255  225 241 255  195 226 255  255 255 255  255 255 255
255 255 255  255 255 255  255 255 255  255 255 255  255 255 255  255 255 255
255 255 255  255 255 255  255 255 255  255 255 255  255 255 255  255 255 255
255 255 255  255 255 255  255 255 255  255 255 255  255 255 255  255 255 255
255 255 255  255 255 255  255 255 255  255 255 255  195 226 255  225 241 255
255 255 255  255 255 255  255 255 255  255 255 255  255 255 255  255 255 255
255 255 255  255 255 255  255 255 255  255 255 255  255 255 255  255 255 255
255 255 255  255 255 255  255 255 255  255 255 255  255 255 255  255 255 255
255 255 255  255 255 255  255 255 255  255 255 255  255 255 255  255 255 255
255 255 255  255 255 255  255 255 255  255 255 255  255 255 255  255 255 255
255 255 255  255 255 255  255 255 255  255 255 255  134 197 255  28 145 255
195 226 255  255 255 255  255 255 255  255 255 255  225 241 255  210 233 255
255 255 255  255 255 255  255 255 255  255 255 255  255 255 255  255 255 255
255 255 255  255 255 255  255 255 255  255 255 255  255 255 255  255 255 255
240 248 255  195 226 255  225 241 255  255 255 255  255 255 255  255 255 255
255 255 255  255 255 255  255 255 255  255 255 255  255 255 255  255 255 255
255 255 255  255 255 255  255 255 255  255 255 255  255 255 255  255 255 255
255 255 255  255 255 255  255 255 255  255 255 255  255 255 255  255 255 255
255 255 255  255 255 255  255 255 255  255 255 255  255 255 255  255 255 255
210 233 255  240 248 255  255 255 255  255 255 255  255 255 255  255 255 255
255 255 255  255 255 255  255 255 255  255 255 255  255 255 255  255 255 255
255 255 255  210 233 255  210 233 255  255 255 255  255 255 255  255 255 255
195 226 255  28 145 255  134 197 255  255 255 255  255 255 255  255 255 255
255 255 255  255 255 255  255 255 255  255 255 255  210 233 255  195 226 255
240 248 255  255 255 255  255 255 255  255 255 255  255 255 255  255 255 255
255 255 255  255 255 255  255 255 255  255 255 255  255 255 255  255 255 255
255 255 255  255 255 255  255 255 255  255 255 255  255 255 255  255 255 255
255 255 255  255 255 255  255 255 255  255 255 255  255 255 255  255 255 255
255 255 255  255 255 255  255 255 255  255 255 255  225 241 255  134 197 255
134 197 255  134 197 255  150 204 255  119 189 255
255 255 255  255 255 255  255 255 255  255 255 255  255 255 255  255 255 255
255 255 255  255 255 255  255 255 255  255 255 255  255 255 255  255 255 255
134 197 255  28 145 255  134 197 255  255 255 255  255 255 255  255 255 255
255 255 255  255 255 255  255 255 255  255 255 255  255 255 255  255 255 255
180 219 255  28 145 255  119 189 255  255 255 255  210 233 255  89 175 255
134 197 255  255 255 255  255 255 255  255 255 255  255 255 255  255 255 255
255 255 255  255 255 255  134 197 255  89 175 255  255 255 255  255 255 255
255 255 255  255 255 255  180 219 255  89 175 255  28 145 255  28 145 255
28 145 255  28 145 255  119 189 255  225 241 255  255 255 255  255 255 255
255 255 255  195 226 255  28 145 255  134 197 255  240 248 255  134 197 255
44 153 255  28 145 255  28 145 255  28 145 255  89 175 255  225 241 255
255 255 255  255 255 255  255 255 255  255 255 255  255 255 255  255 255 255
255 255 255  255 255 255  255 255 255  255 255 255  255 255 255  240 248 255
134 197 255  44 153 255  28 145 255  28 145 255  28 145 255  59 160 255
180 219 255  255 255 255  255 255 255  255 255 255  119 189 255  89 175 255
225 241 255  255 255 255  255 255 255  255 255 255  255 255 255  255 255 255
255 255 255  255 255 255  134 197 255  89 175 255  210 233 255  255 255 255
255 255 255  195 226 255  89 175 255  28 145 255  28 145 255  28 145 255
28 145 255  119 189 255  240 248 255  255 255 255  255 255 255  255 255 255
255 255 255  89 175 255  134 197 255  255 255 255  225 241 255  134 197 255
74 167 255  28 145 255  165 211 255  89 175 255  165 211 255  255 255 255
255 255 255  255 255 255  255 255 255  255 255 255  255 255 255  255 255 255
210 233 255  89 175 255  150 204 255  255 255 255  255 255 255  255 255 255
255 255 255  255 255 255  255 255 255  255 255 255  134 197 255  28 145 255
195 226 255  240 248 255  119 189 255  44 153 255  28 145 255  28 145 255
28 145 255  104 182 255  210 233 255  255 255 255  255 255 255  255 255 255
255 255 255  255 255 255  255 255 255  255 255 255  134 197 255  59 160 255
28 145 255  28 145 255  28 145 255  44 153 255  134 197 255  240 248 255
255 255 255  255 255 255  255 255 255  255 255 255  165 211 255  89 175 255
210 233 255  255 255 255  255 255 255  255 255 255  255 255 255  255 255 255
255 255 255  210 233 255  89 175 255  134 197 255  255 255 255  255 255 255
210 233 255  89 175 255  165 211 255  240 248 255  119 189 255  28 145 255
28 145 255  28 145 255  28 145 255  119 189 255  240 248 255  255 255 255
255 255 255  255 255 255  255 255 255  255 255 255  210 233 255  104 182 255
28 145 255  28 145 255  28 145 255  28 145 255  119 189 255  240 248 255
195 226 255  28 145 255  134 197 255  255 255 255  255 255 255  255 255 255
255 255 255  165 211 255  89 175 255  28 145 255  28 145 255  28 145 255
28 145 255  59 160 255  180 219 255  255 255 255  255 255 255  255 255 255
255 255 255  134 197 255  89 175 255  255 255 255  240 248 255  165 211 255
89 175 255  28 145 255  162 210 255  89 175 255  134 197 255  255 255 255
255 255 255  255 255 255  255 255 255  255 255 255  255 255 255  255 255 255
255 255 255  89 175 255  119 189 255  255 255 255  225 241 255  134 197 255
134 197 255  89 175 255  225 241 255  119 189 255
255 255 255  255 255 255  255 255 255  255 255 255  255 255 255  255 255 255
255 255 255  255 255 255  255 255 255  255 255 255  255 255 255  255 255 255
134 197 255  28 145 255  134 197 255  255 255 255  255 255 255  255 255 255
255 255 255  255 255 255  255 255 255  255 255 255  255 255 255  255 255 255
134 197 255  28 145 255  134 197 255  255 255 255  195 226 255  28 145 255
89 175 255  255 255 255  255 255 255  255 255 255  255 255 255  255 255 255
255 255 255  255 255 255  89 175 255  28 145 255  255 255 255  255 255 255
255 255 255  165 211 255  28 145 255  44 153 255  134 197 255  165 211 255
134 197 255  89 175 255  28 145 255  44 153 255  225 241 255  255 255 255
255 255 255  195 226 255  28 145 255  134 197 255  74 167 255  28 145 255
119 189 255  150 204 255  134 197 255  89 175 255  28 145 255  44 153 255
225 241 255  255 255 255  255 255 255  255 255 255  255 255 255  255 255 255
255 255 255  255 255 255  255 255 255  255 255 255  240 248 255  74 167 255
28 145 255  59 160 255  134 197 255  150 204 255  119 189 255  44 153 255
28 145 255  119 189 255  255 255 255  255 255 255  134 197 255  28 145 255
134 197 255  255 255 255  255 255 255  255 255 255  255 255 255  255 255 255
255 255 255  255 255 255  44 153 255  59 160 255  255 255 255  255 255 255
165 211 255  28 145 255  28 145 255  104 182 255  150 204 255  134 197 255
74 167 255  28 145 255  44 153 255  210 233 255  255 255 255  255 255 255
255 255 255  28 145 255  89 175 255  210 233 255  44 153 255  28 145 255
28 145 255  44 153 255  225 241 255  28 145 255  59 160 255  255 255 255
255 255 255  255 255 255  255 255 255  255 255 255  255 255 255  255 255 255
134 197 255  28 145 255  180 219 255  255 255 255  255 255 255  255 255 255
255 255 255  255 255 255  255 255 255  255 255 255  134 197 255  28 145 255
180 219 255  74 167 255  44 153 255  89 175 255  134 197 255  134 197 255
89 175 255  28 145 255  28 145 255  165 211 255  255 255 255  255 255 255
255 255 255  255 255 255  240 248 255  74 167 255  28 145 255  59 160 255
119 189 255  134 197 255  134 197 255  59 160 255  28 145 255  74 167 255
240 248 255  255 255 255  255 255 255  255 255 255  134 197 255  28 145 255
195 226 255  255 255 255  255 255 255  255 255 255  255 255 255  255 255 255
255 255 255  195 226 255  28 145 255  89 175 255  255 255 255  255 255 255
195 226 255  28 145 255  134 197 255  59 160 255  44 153 255  119 189 255
134 197 255  134 197 255  59 160 255  28 145 255  44 153 255  240 248 255
255 255 255  255 255 255  255 255 255  195 226 255  28 145 255  28 145 255
89 175 255  134 197 255  134 197 255  104 182 255  44 153 255  59 160 255
165 211 255  28 145 255  134 197 255  255 255 255  255 255 255  255 255 255
165 211 255  28 145 255  44 153 255  134 197 255  165 211 255  150 204 255
134 197 255  44 153 255  28 145 255  180 219 255  255 255 255  255 255 255
255 255 255  89 175 255  28 145 255  240 248 255  74 167 255  28 145 255
28 145 255  28 145 255  210 233 255  59 160 255  28 145 255  225 241 255
255 255 255  255 255 255  255 255 255  255 255 255  255 255 255  255 255 255
180 219 255  28 145 255  134 197 255  255 255 255  255 255 255  104 182 255
150 204 255  225 241 255  74 167 255  180 219 255
255 255 255  255 255 255  255 255 255  255 255 255  255 255 255  255 255 255
255 255 255  255 255 255  255 255 255  255 255 255  255 255 255  255 255 255
134 197 255  28 145 255  134 197 255  255 255 255  255 255 255  255 255 255
255 255 255  255 255 255  255 255 255  255 255 255  255 255 255  240 248 255
59 160 255  28 145 255  195 226 255  255 255 255  195 226 255  28 145 255
89 175 255  255 255 255  255 255 255  255 255 255  255 255 255  255 255 255
255 255 255  255 255 255  89 175 255  28 145 255  255 255 255  255 255 255
255 255 255  59 160 255  44 153 255  240 248 255  255 255 255  255 255 255
255 255 255  255 255 255  150 204 255  28 145 255  104 182 255  255 255 255
255 255 255  195 226 255  28 145 255  59 160 255  44 153 255  210 233 255
255 255 255  255 255 255  255 255 255  255 255 255  119 189 255  28 145 255
119 189 255  255 255 255  255 255 255  255 255 255  255 255 255  255 255 255
255 255 255  255 255 255  255 255 255  255 255 255  104 182 255  28 145 255
104 182 255  240 248 255  255 255 255  255 255 255  255 255 255  225 241 255
74 167 255  28 145 255  180 219 255  255 255 255  225 241 255  28 145 255
59 160 255  255 255 255  255 255 255  255 255 255  255 255 255  255 255 255
255 255 255  165 211 255  28 145 255  134 197 255  255 255 255  210 233 255
28 145 255  44 153 255  195 226 255  255 255 255  255 255 255  255 255 255
255 255 255  134 197 255  28 145 255  74 167 255  255 255 255  255 255 255
255 255 255  28 145 255  89 175 255  59 160 255  44 153 255  150 204 255
255 255 255  255 255 255  255 255 255  89 175 255  28 145 255  210 233 255
255 255 255  255 255 255  255 255 255  255 255 255  255 255 255  255 255 255
44 153 255  59 160 255  255 255 255  255 255 255  255 255 255  255 255 255
255 255 255  255 255 255  255 255 255  255 255 255  134 197 255  28 145 255
59 160 255  44 153 255  210 233 255  255 255 255  255 255 255  255 255 255
255 255 255  165 211 255  28 145 255  44 153 255  225 241 255  255 255 255
255 255 255  255 255 255  104 182 255  28 145 255  74 167 255  240 248 255
255 255 255  255 255 255  255 255 255  255 255 255  119 189 255  28 145 255
74 167 255  255 255 255  255 255 255  255 255 255  134 197 255  28 145 255
195 226 255  255 255 255  255 255 255  255 255 255  255 255 255  255 255 255
255 255 255  195 226 255  28 145 255  89 175 255  255 255 255  255 255 255
195 226 255  28 145 255  28 145 255  74 167 255  225 241 255  255 255 255
255 255 255  255 255 255  240 248 255  104 182 255  28 145 255  134 197 255
255 255 255  255 255 255  240 248 255  44 153 255  28 145 255  165 211 255
255 255 255  255 255 255  255 255 255  255 255 255  210 233 255  44 153 255
59 160 255  28 145 255  134 197 255  255 255 255  255 255 255  225 241 255
28 145 255  59 160 255  240 248 255  255 255 255  255 255 255  255 255 255
255 255 255  210 233 255  28 145 255  59 160 255  255 255 255  255 255 255
255 255 255  89 175 255  28 145 255  119 189 255  28 145 255  134 197 255
240 248 255  255 255 255  255 255 255  134 197 255  28 145 255  150 204 255
255 255 255  255 255 255  255 255 255  255 255 255  255 255 255  255 255 255
104 182 255  28 145 255  225 241 255  255 255 255  255 255 255  255 255 255
150 204 255  134 197 255  195 226 255  255 255 255
255 255 255  255 255 255  255 255 255  255 255 255  255 255 255  255 255 255
255 255 255  255 255 255  255 255 255  255 255 255  255 255 255  255 255 255
134 197 255  28 145 255  134 197 255  255 255 255  255 255 255  255 255 255
255 255 255  255 255 255  255 255 255  255 255 255  210 233 255  89 175 255
28 145 255  89 175 255  255 255 255  255 255 255  195 226 255  28 145 255
89 175 255  255 255 255  255 255 255  255 255 255  255 255 255  255 255 255
255 255 255  255 255 255  89 175 255  28 145 255  255 255 255  255 255 255
210 233 255  28 145 255  89 175 255  255 255 255  255 255 255  255 255 255
255 255 255  255 255 255  255 255 255  44 153 255  44 153 255  255 255 255
255 255 255  195 226 255  28 145 255  28 145 255  180 219 255  255 255 255
255 255 255  255 255 255  255 255 255  255 255 255  225 241 255  28 145 255
59 160 255  255 255 255  255 255 255  255 255 255  255 255 255  255 255 255
255 255 255  255 255 255  255 255 255  210 233 255  28 145 255  59 160 255
240 248 255  255 255 255  255 255 255  255 255 255  255 255 255  255 255 255
210 233 255  28 145 255  59 160 255  255 255 255  255 255 255  89 175 255
28 145 255  210 233 255  255 255 255  255 255 255  255 255 255  255 255 255
255 255 255  104 182 255  28 145 255  210 233 255  255 255 255  104 182 255
28 145 255  165 211 255  255 255 255  255 255 255  255 255 255  255 255 255
255 255 255  255 255 255  104 182 255  28 145 255  180 219 255  255 255 255
255 255 255  28 145 255  28 145 255  44 153 255  225 241 255  255 255 255
255 255 255  255 255 255  255 255 255  165 211 255  28 145 255  119 189 255
255 255 255  255 255 255  255 255 255  255 255 255  255 255 255  180 219 255
28 145 255  134 197 255  255 255 255  255 255 255  255 255 255  255 255 255
255 255 255  255 255 255  255 255 255  255 255 255  134 197 255  28 145 255
28 145 255  195 226 255  255 255 255  255 255 255  255 255 255  255 255 255
255 255 255  255 255 255  134 197 255  28 145 255  119 189 255  255 255 255
255 255 255  195 226 255  28 145 255  59 160 255  255 255 255  255 255 255
255 255 255  255 255 255  255 255 255  255 255 255  255 255 255  89 175 255
28 145 255  165 211 255  255 255 255  255 255 255  134 197 255  28 145 255
195 226 255  255 255 255  255 255 255  255 255 255  255 255 255  255 255 255
255 255 255  195 226 255  28 145 255  89 175 255  255 255 255  255 255 255
195 226 255  28 145 255  28 145 255  210 233 255  255 255 255  255 255 255
255 255 255  255 255 255  255 255 255  195 226 255  28 145 255  89 175 255
255 255 255  255 255 255  134 197 255  28 145 255  134 197 255  255 255 255
255 255 255  255 255 255  255 255 255  255 255 255  255 255 255  195 226 255
28 145 255  28 145 255  134 197 255  255 255 255  255 255 255  165 211 255
28 145 255  165 211 255  255 255 255  255 255 255  255 255 255  255 255 255
255 255 255  255 255 255  89 175 255  28 145 255  255 255 255  255 255 255
255 255 255  89 175 255  28 145 255  28 145 255  180 219 255  255 255 255
255 255 255  255 255 255  255 255 255  225 241 255  28 145 255  59 160 255
255 255 255  255 255 255  255 255 255  255 255 255  255 255 255  240 248 255
28 145 255  74 167 255  255 255 255  255 255 255  255 255 255  255 255 255
255 255 255  255 255 255  255 255 255  255 255 255
255 255 255  255 255 255  255 255 255  255 255 255  255 255 255  255 255 255
255 255 255  255 255 255  255 255 255  255 255 255  255 255 255  255 255 255
134 197 255  28 145 255  59 160 255  89 175 255  89 175 255  89 175 255
89 175 255  89 175 255  89 175 255  44 153 255  28 145 255  28 145 255
59 160 255  225 241 255  255 255 255  255 255 255  195 226 255  28 145 255
89 175 255  255 255 255  255 255 255  255 255 255  255 255 255  255 255 255
255 255 255  255 255 255  89 175 255  28 145 255  255 255 255  255 255 255
225 241 255  28 145 255  59 160 255  240 248 255  255 255 255  255 255 255
255 255 255  255 255 255  255 255 255  210 233 255  195 226 255  255 255 255
255 255 255  195 226 255  28 145 255  59 160 255  255 255 255  255 255 255
255 255 255  255 255 255  255 255 255  255 255 255  255 255 255  59 160 255
28 145 255  255 255 255  255 255 255  255 255 255  255 255 255  255 255 255
255 255 255  255 255 255  255 255 255  134 197 255  28 145 255  165 211 255
255 255 255  255 255 255  255 255 255  255 255 255  255 255 255  255 255 255
255 255 255  104 182 255  28 145 255  225 241 255  255 255 255  165 211 255
28 145 255  119 189 255  255 255 255  255 255 255  255 255 255  255 255 255
240 248 255  28 145 255  74 167 255  255 255 255  255 255 255  28 145 255
59 160 255  255 255 255  255 255 255  255 255 255  255 255 255  255 255 255
255 255 255  255 255 255  210 233 255  28 145 255  119 189 255  255 255 255
255 255 255  28 145 255  28 145 255  150 204 255  255 255 255  255 255 255
255 255 255  255 255 255  255 255 255  255 255 255  44 153 255  44 153 255
240 248 255  255 255 255  255 255 255  255 255 255  255 255 255  119 189 255
28 145 255  225 241 255  255 255 255  255 255 255  255 255 255  255 255 255
255 255 255  255 255 255  255 255 255  255 255 255  134 197 255  28 145 255
59 160 255  255 255 255  255 255 255  255 255 255  255 255 255  255 255 255
255 255 255  255 255 255  240 248 255  28 145 255  44 153 255  255 255 255
255 255 255  119 189 255  28 145 255  165 211 255  255 255 255  255 255 255
255 255 255  255 255 255  255 255 255  255 255 255  255 255 255  195 226 255
28 145 255  89 175 255  255 255 255  255 255 255  134 197 255  28 145 255
195 226 255  255 255 255  255 255 255  255 255 255  255 255 255  255 255 255
255 255 255  195 226 255  28 145 255  89 175 255  255 255 255  255 255 255
195 226 255  28 145 255  89 175 255  255 255 255  255 255 255  255 255 255
255 255 255  255 255 255  255 255 255  255 255 255  28 145 255  89 175 255
255 255 255  255 255 255  59 160 255  28 145 255  225 241 255  255 255 255
255 255 255  255 255 255  255 255 255  255 255 255  255 255 255  255 255 255
89 175 255  28 145 255  134 197 255  255 255 255  255 255 255  195 226 255
134 197 255  225 241 255  255 255 255  255 255 255  255 255 255  255 255 255
255 255 255  255 255 255  89 175 255  28 145 255  195 226 255  255 255 255
255 255 255  89 175 255  28 145 255  104 182 255  255 255 255  255 255 255
255 255 255  255 255 255  255 255 255  255 255 255  104 182 255  28 145 255
195 226 255  255 255 255  255 255 255  255 255 255  255 255 255  165 211 255
28 145 255  165 211 255  255 255 255  255 255 255  255 255 255  255 255 255
255 255 255  255 255 255  255 255 255  255 255 255
255 255 255  255 255 255  255 255 255  255 255 255  255 255 255  255 255 255
255 255 255  255 255 255  255 255 255  255 255 255  255 255 255  255 255 255
134 197 255  28 145 255  28 145 255  28 145 255  28 145 255  28 145 255
28 145 255  28 145 255  28 145 255  74 167 255  104 182 255  150 204 255
255 255 255  255 255 255  255 255 255  255 255 255  195 226 255  28 145 255
89 175 255  255 255 255  255 255 255  255 255 255  255 255 255  255 255 255
255 255 255  255 255 255  89 175 255  28 145 255  255 255 255  255 255 255
255 255 255  89 175 255  28 145 255  59 160 255  150 204 255  225 241 255
255 255 255  255 255 255  255 255 255  255 255 255  255 255 255  255 255 255
255 255 255  195 226 255  28 145 255  89 175 255  255 255 255  255 255 255
255 255 255  255 255 255  255 255 255  255 255 255  255 255 255  89 175 255
28 145 255  255 255 255  255 255 255  255 255 255  255 255 255  255 255 255
255 255 255  255 255 255  255 255 255  89 175 255  28 145 255  225 241 255
255 255 255  255 255 255  255 255 255  255 255 255  255 255 255  255 255 255
255 255 255  134 197 255  28 145 255  180 219 255  255 255 255  255 255 255
44 153 255  44 153 255  255 255 255  255 255 255  255 255 255  255 255 255
165 211 255  28 145 255  150 204 255  255 255 255  195 226 255  28 145 255
119 189 255  255 255 255  255 255 255  255 255 255  255 255 255  255 255 255
255 255 255  255 255 255  255 255 255  28 145 255  74 167 255  255 255 255
255 255 255  28 145 255  28 145 255  225 241 255  255 255 255  255 255 255
255 255 255  255 255 255  255 255 255  255 255 255  134 197 255  28 145 255
165 211 255  255 255 255  255 255 255  255 255 255  240 248 255  28 145 255
74 167 255  255 255 255  255 255 255  255 255 255  255 255 255  255 255 255
255 255 255  255 255 255  255 255 255  255 255 255  134 197 255  28 145 255
134 197 255  255 255 255  255 255 255  255 255 255  255 255 255  255 255 255
255 255 255  255 255 255  255 255 255  89 175 255  28 145 255  210 233 255
255 255 255  74 167 255  28 145 255  240 248 255  255 255 255  255 255 255
255 255 255  255 255 255  255 255 255  255 255 255  255 255 255  255 255 255
28 145 255  28 145 255  255 255 255  255 255 255  134 197 255  28 145 255
195 226 255  255 255 255  255 255 255  255 255 255  255 255 255  255 255 255
255 255 255  195 226 255  28 145 255  89 175 255  255 255 255  255 255 255
195 226 255  28 145 255  134 197 255  255 255 255  255 255 255  255 255 255
255 255 255  255 255 255  255 255 255  255 255 255  28 145 255  28 145 255
255 255 255  240 248 255  28 145 255  89 175 255  255 255 255  255 255 255
255 255 255  255 255 255  255 255 255  255 255 255  255 255 255  255 255 255
134 197 255  28 145 255  134 197 255  255 255 255  255 255 255  255 255 255
255 255 255  255 255 255  255 255 255  255 255 255  255 255 255  255 255 255
195 226 255  134 197 255  28 145 255  28 145 255  195 226 255  255 255 255
255 255 255  89 175 255  28 145 255  165 211 255  255 255 255  255 255 255
255 255 255  255 255 255  255 255 255  255 255 255  195 226 255  28 145 255
119 189 255  255 255 255  255 255 255  255 255 255  255 255 255  74 167 255
28 145 255  240 248 255  255 255 255  255 255 255  255 255 255  255 255 255
255 255 255  255 255 255  255 255 255  255 255 255
255 255 255  255 255 255  255 255 255  255 255 255  255 255 255  255 255 255
255 255 255  255 255 255  255 255 255  255 255 255  255 255 255  255 255 255
134 197 255  28 145 255  134 197 255  255 255 255  255 255 255  255 255 255
255 255 255  255 255 255  255 255 255  255 255 255  255 255 255  255 255 255
255 255 255  255 255 255  255 255 255  255 255 255  195 226 255  28 145 255
89 175 255  255 255 255  255 255 255  255 255 255  255 255 255  255 255 255
255 255 255  255 255 255  89 175 255  28 145 255  255 255 255  255 255 255
255 255 255  240 248 255  119 189 255  28 145 255  28 145 255  28 145 255
59 160 255  104 182 255  150 204 255  240 248 255  255 255 255  255 255 255
255 255 255  195 226 255  28 145 255  134 197 255  255 255 255  255 255 255
255 255 255  255 255 255  255 255 255  255 255 255  255 255 255  89 175 255
28 145 255  255 255 255  255 255 255  255 255 255  255 255 255  255 255 255
255 255 255  255 255 255  255 255 255  89 175 255  28 145 255  28 145 255
28 145 255  28 145 255  28 145 255  28 145 255  28 145 255  28 145 255
28 145 255  28 145 255  28 145 255  134 197 255  255 255 255  255 255 255
119 189 255  28 145 255  180 219 255  255 255 255  255 255 255  255 255 255
89 175 255  28 145 255  240 248 255  255 255 255  195 226 255  28 145 255
28 145 255  28 145 255  28 145 255  28 145 255  28 145 255  28 145 255
28 145 255  28 145 255  28 145 255  28 145 255  28 145 255  255 255 255
255 255 255  28 145 255  28 145 255  255 255 255  255 255 255  255 255 255
255 255 255  255 255 255  255 255 255  255 255 255  225 241 255  28 145 255
89 175 255  255 255 255  255 255 255  255 255 255  165 211 255  28 145 255
165 211 255  255 255 255  255 255 255  255 255 255  255 255 255  255 255 255
255 255 255  255 255 255  255 255 255  255 255 255  134 197 255  28 145 255
150 204 255  255 255 255  255 255 255  255 255 255  255 255 255  255 255 255
255 255 255  255 255 255  255 255 255  119 189 255  28 145 255  195 226 255
255 255 255  28 145 255  28 145 255  255 255 255  255 255 255  255 255 255
255 255 255  255 255 255  255 255 255  255 255 255  255 255 255  255 255 255
89 175 255  28 145 255  255 255 255  255 255 255  134 197 255  28 145 255
195 226 255  255 255 255  255 255 255  255 255 255  255 255 255  255 255 255
255 255 255  195 226 255  28 145 255  89 175 255  255 255 255  255 255 255
195 226 255  28 145 255  134 197 255  255 255 255  255 255 255  255 255 255
255 255 255  255 255 255  255 255 255  255 255 255  28 145 255  28 145 255
255 255 255  195 226 255  28 145 255  89 175 255  255 255 255  255 255 255
255 255 255  255 255 255  255 255 255  255 255 255  255 255 255  255 255 255
180 219 255  28 145 255  134 197 255  255 255 255  255 255 255  255 255 255
255 255 255  180 219 255  119 189 255  89 175 255  28 145 255  28 145 255
28 145 255  28 145 255  44 153 255  28 145 255  195 226 255  255 255 255
255 255 255  89 175 255  28 145 255  195 226 255  255 255 255  255 255 255
255 255 255  255 255 255  255 255 255  255 255 255  255 255 255  59 160 255
44 153 255  240 248 255  255 255 255  255 255 255  225 241 255  28 145 255
119 189 255  255 255 255  255 255 255  255 255 255  255 255 255  255 255 255
255 255 255  255 255 255  255 255 255  255 255 255
255 255 255  255 255 255  255 255 255  255 255 255  255 255 255  255 255 255
255 255 255  255 255 255  255 255 255  255 255 255  255 255 255  255 255 255
134 197 255  28 145 255  134 197 255  255 255 255  255 255 255  255 255 255
255 255 255  255 255 255  255 255 255  255 255 255  255 255 255  255 255 255
255 255 255  255 255 255  255 255 255  255 255 255  195 226 255  28 145 255
89 175 255  255 255 255  255 255 255  255 255 255  255 255 255  255 255 255
255 255 255  255 255 255  89 175 255  28 145 255  255 255 255  255 255 255
255 255 255  255 255 255  255 255 255  225 241 255  150 204 255  119 189 255
59 160 255  28 145 255  28 145 255  44 153 255  165 211 255  255 255 255
255 255 255  195 226 255  28 145 255  134 197 255  255 255 255  255 255 255
255 255 255  255 255 255  255 255 255  255 255 255  255 255 255  89 175 255
28 145 255  255 255 255  255 255 255  255 255 255  255 255 255  255 255 255
255 255 255  255 255 255  255 255 255  89 175 255  28 145 255  89 175 255
89 175 255  89 175 255  89 175 255  89 175 255  89 175 255  89 175 255
89 175 255  89 175 255  89 175 255  165 211 255  255 255 255  255 255 255
210 233 255  28 145 255  119 189 255  255 255 255  255 255 255  225 241 255
28 145 255  104 182 255  255 255 255  255 255 255  195 226 255  28 145 255
59 160 255  89 175 255  89 175 255  89 175 255  89 175 255  89 175 255
89 175 255  89 175 255  89 175 255  89 175 255  89 175 255  255 255 255
255 255 255  28 145 255  28 145 255  255 255 255  255 255 255  255 255 255
255 255 255  255 255 255  255 255 255  255 255 255  255 255 255  89 175 255
28 145 255  225 241 255  255 255 255  255 255 255  89 175 255  28 145 255
240 248 255  255 255 255  255 255 255  255 255 255  255 255 255  255 255 255
255 255 255  255 255 255  255 255 255  255 255 255  134 197 255  28 145 255
165 211 255  255 255 255  255 255 255  255 255 255  255 255 255  255 255 255
255 255 255  255 255 255  255 255 255  134 197 255  28 145 255  195 226 255
255 255 255  28 145 255  44 153 255  255 255 255  255 255 255  255 255 255
255 255 255  255 255 255  255 255 255  255 255 255  255 255 255  255 255 255
89 175 255  28 145 255  255 255 255  255 255 255  134 197 255  28 145 255
195 226 255  255 255 255  255 255 255  255 255 255  255 255 255  255 255 255
255 255 255  195 226 255  28 145 255  89 175 255  255 255 255  255 255 255
195 226 255  28 145 255  134 197 255  255 255 255  255 255 255  255 255 255
255 255 255  255 255 255  255 255 255  255 255 255  28 145 255  28 145 255
255 255 255  195 226 255  28 145 255  104 182 255  255 255 255  255 255 255
255 255 255  255 255 255  255 255 255  255 255 255  255 255 255  255 255 255
180 219 255  28 145 255  134 197 255  255 255 255  255 255 255  210 233 255
59 160 255  28 145 255  28 145 255  89 175 255  134 197 255  165 211 255
195 226 255  240 248 255  89 175 255  28 145 255  195 226 255  255 255 255
255 255 255  89 175 255  28 145 255  195 226 255  255 255 255  255 255 255
255 255 255  255 255 255  255 255 255  255 255 255  255 255 255  150 204 255
28 145 255  165 211 255  255 255 255  255 255 255  150 204 255  28 145 255
180 219 255  255 255 255  255 255 255  255 255 255  255 255 255  255 255 255
255 255 255  255 255 255  255 255 255  255 255 255
255 255 255  255 255 255  255 255 255  255 255 255  255 255 255  255 255 255
255 255 255  255 255 255  255 255 255  255 255 255  255 255 255  255 255 255
134 197 255  28 145 255  134 197 255  255 255 255  255 255 255  255 255 255
255 255 255  255 255 255  255 255 255  255 255 255  255 255 255  255 255 255
255 255 255  255 255 255  255 255 255  255 255 255  195 226 255  28 145 255
89 175 255  255 255 255  255 255 255  255 255 255  255 255 255  255 255 255
255 255 255  255 255 255  59 160 255  28 145 255  255 255 255  255 255 255
255 255 255  255 255 255  255 255 255  255 255 255  255 255 255  255 255 255
255 255 255  225 241 255  134 197 255  28 145 255  28 145 255  225 241 255
255 255 255  195 226 255  28 145 255  134 197 255  255 255 255  255 255 255
255 255 255  255 255 255  255 255 255  255 255 255  255 255 255  89 175 255
28 145 255  255 255 255  255 255 255  255 255 255  255 255 255  255 255 255
255 255 255  255 255 255  255 255 255  89 175 255  28 145 255  240 248 255
255 255 255  255 255 255  255 255 255  255 255 255  255 255 255  255 255 255
255 255 255  255 255 255  255 255 255  255 255 255  255 255 255  255 255 255
255 255 255  74 167 255  28 145 255  240 248 255  255 255 255  150 204 255
28 145 255  180 219 255  255 255 255  255 255 255  195 226 255  28 145 255
134 197 255  255 255 255  255 255 255  255 255 255  255 255 255  255 255 255
255 255 255  255 255 255  255 255 255  255 255 255  255 255 255  255 255 255
255 255 255  28 145 255  28 145 255  255 255 255  255 255 255  255 255 255
255 255 255  255 255 255  255 255 255  255 255 255  255 255 255  165 211 255
28 145 255  134 197 255  255 255 255  225 241 255  28 145 255  119 189 255
255 255 255  255 255 255  255 255 255  255 255 255  255 255 255  255 255 255
255 255 255  255 255 255  255 255 255  255 255 255  134 197 255  28 145 255
134 197 255  255 255 255  255 255 255  255 255 255  255 255 255  255 255 255
255 255 255  255 255 255  255 255 255  89 175 255  28 145 255  210 233 255
255 255 255  59 160 255  28 145 255  255 255 255  255 255 255  255 255 255
255 255 255  255 255 255  255 255 255  255 255 255  255 255 255  255 255 255
44 153 255  28 145 255  255 255 255  255 255 255  134 197 255  28 145 255
195 226 255  255 255 255  255 255 255  255 255 255  255 255 255  255 255 255
255 255 255  195 226 255  28 145 255  89 175 255  255 255 255  255 255 255
195 226 255  28 145 255  134 197 255  255 255 255  255 255 255  255 255 255
255 255 255  255 255 255  255 255 255  255 255 255  28 145 255  28 145 255
255 255 255  225 241 255  28 145 255  89 175 255  255 255 255  255 255 255
255 255 255  255 255 255  255 255 255  255 255 255  255 255 255  255 255 255
134 197 255  28 145 255  134 197 255  255 255 255  255 255 255  89 175 255
28 145 255  119 189 255  240 248 255  255 255 255  255 255 255  255 255 255
255 255 255  255 255 255  89 175 255  28 145 255  195 226 255  255 255 255
255 255 255  89 175 255  28 145 255  195 226 255  255 255 255  255 255 255
255 255 255  255 255 255  255 255 255  255 255 255  255 255 255  240 248 255
28 145 255  74 167 255  255 255 255  255 255 255  59 160 255  59 160 255
255 255 255  255 255 255  255 255 255  255 255 255  255 255 255  255 255 255
255 255 255  255 255 255  255 255 255  255 255 255
255 255 255  255 255 255  255 255 255  255 255 255  255 255 255  255 255 255
255 255 255  255 255 255  255 255 255  255 255 255  255 255 255  255 255 255
134 197 255  28 145 255  134 197 255  255 255 255  255 255 255  255 255 255
255 255 255  255 255 255  255 255 255  255 255 255  255 255 255  255 255 255
255 255 255  255 255 255  255 255 255  255 255 255  225 241 255  28 145 255
89 175 255  255 255 255  255 255 255  255 255 255  255 255 255  255 255 255
255 255 255  240 248 255  28 145 255  28 145 255  255 255 255  255 255 255
180 219 255  134 197 255  225 241 255  255 255 255  255 255 255  255 255 255
255 255 255  255 255 255  255 255 255  134 197 255  28 145 255  134 197 255
255 255 255  195 226 255  28 145 255  134 197 255  255 255 255  255 255 255
255 255 255  255 255 255  255 255 255  255 255 255  255 255 255  89 175 255
28 145 255  255 255 255  255 255 255  255 255 255  255 255 255  255 255 255
255 255 255  255 255 255  255 255 255  134 197 255  28 145 255  180 219 255
255 255 255  255 255 255  255 255 255  255 255 255  255 255 255  255 255 255
255 255 255  165 211 255  89 175 255  180 219 255  255 255 255  255 255 255
255 255 255  150 204 255  28 145 255  165 211 255  255 255 255  74 167 255
44 153 255  255 255 255  255 255 255  255 255 255  225 241 255  28 145 255
74 167 255  255 255 255  255 255 255  255 255 255  255 255 255  255 255 255
255 255 255  255 255 255  255 255 255  89 175 255  119 189 255  255 255 255
255 255 255  28 145 255  28 145 255  255 255 255  255 255 255  255 255 255
255 255 255  255 255 255  255 255 255  255 255 255  255 255 255  255 255 255
44 153 255  59 160 255  255 255 255  150 204 255  28 145 255  195 226 255
255 255 255  255 255 255  255 255 255  255 255 255  255 255 255  255 255 255
255 255 255  255 255 255  255 255 255  255 255 255  134 197 255  28 145 255
89 175 255  255 255 255  255 255 255  255 255 255  255 255 255  255 255 255
255 255 255  255 255 255  255 255 255  44 153 255  28 145 255  255 255 255
255 255 255  104 182 255  28 145 255  180 219 255  255 255 255  255 255 255
255 255 255  255 255 255  255 255 255  255 255 255  255 255 255  225 241 255
28 145 255  74 167 255  255 255 255  255 255 255  134 197 255  28 145 255
195 226 255  255 255 255  255 255 255  255 255 255  255 255 255  255 255 255
255 255 255  150 204 255  28 145 255  89 175 255  255 255 255  255 255 255
195 226 255  28 145 255  134 197 255  255 255 255  255 255 255  255 255 255
255 255 255  255 255 255  255 255 255  255 255 255  28 145 255  28 145 255
255 255 255  255 255 255  44 153 255  44 153 255  240 248 255  255 255 255
255 255 255  255 255 255  255 255 255  255 255 255  255 255 255  255 255 255
104 182 255  28 145 255  134 197 255  255 255 255  255 255 255  28 145 255
74 167 255  255 255 255  255 255 255  255 255 255  255 255 255  255 255 255
255 255 255  255 255 255  59 160 255  28 145 255  195 226 255  255 255 255
255 255 255  89 175 255  28 145 255  195 226 255  255 255 255  255 255 255
255 255 255  255 255 255  255 255 255  255 255 255  255 255 255  255 255 255
119 189 255  28 145 255  210 233 255  210 233 255  28 145 255  134 197 255
255 255 255  255 255 255  255 255 255  255 255 255  255 255 255  255 255 255
255 255 255  255 255 255  255 255 255  255 255 255
255 255 255  255 255 255  255 255 255  255 255 255  255 255 255  255 255 255
255 255 255  255 255 255  255 255 255  255 255 255  255 255 255  255 255 255
134 197 255  28 145 255  134 197 255  255 255 255  255 255 255  255 255 255
255 255 255  255 255 255  255 255 255  255 255 255  255 255 255  255 255 255
255 255 255  255 255 255  255 255 255  255 255 255  255 255 255  28 145 255
74 167 255  255 255 255  255 255 255  255 255 255  255 255 255  255 255 255
255 255 255  150 204 255  28 145 255  28 145 255  255 255 255  255 255 255
150 204 255  28 145 255  165 211 255  255 255 255  255 255 255  255 255 255
255 255 255  255 255 255  255 255 255  195 226 255  28 145 255  134 197 255
255 255 255  195 226 255  28 145 255  134 197 255  255 255 255  255 255 255
255 255 255  255 255 255  255 255 255  255 255 255  255 255 255  89 175 255
28 145 255  255 255 255  255 255 255  255 255 255  255 255 255  255 255 255
255 255 255  255 255 255  255 255 255  180 219 255  28 145 255  89 175 255
255 255 255  255 255 255  255 255 255  255 255 255  255 255 255  255 255 255
255 255 255  59 160 255  28 145 255  240 248 255  255 255 255  255 255 255
255 255 255  240 248 255  28 145 255  104 182 255  225 241 255  28 145 255
134 197 255  255 255 255  255 255 255  255 255 255  255 255 255  74 167 255
28 145 255  195 226 255  255 255 255  255 255 255  255 255 255  255 255 255
255 255 255  255 255 255  165 211 255  28 145 255  134 197 255  255 255 255
255 255 255  28 145 255  28 145 255  255 255 255  255 255 255  255 255 255
255 255 255  255 255 255  255 255 255  255 255 255  255 255 255  255 255 255
134 197 255  28 145 255  180 219 255  74 167 255  59 160 255  255 255 255
255 255 255  255 255 255  255 255 255  255 255 255  255 255 255  255 255 255
255 255 255  255 255 255  255 255 255  255 255 255  134 197 255  28 145 255
28 145 255  225 241 255  255 255 255  255 255 255  255 255 255  255 255 255
255 255 255  255 255 255  165 211 255  28 145 255  104 182 255  255 255 255
255 255 255  180 219 255  28 145 255  89 175 255  255 255 255  255 255 255
255 255 255  255 255 255  255 255 255  255 255 255  255 255 255  119 189 255
28 145 255  150 204 255  255 255 255  255 255 255  134 197 255  28 145 255
150 204 255  255 255 255  255 255 255  255 255 255  255 255 255  255 255 255
255 255 255  59 160 255  28 145 255  89 175 255  255 255 255  255 255 255
195 226 255  28 145 255  134 197 255  255 255 255  255 255 255  255 255 255
255 255 255  255 255 255  255 255 255  255 255 255  28 145 255  28 145 255
255 255 255  255 255 255  119 189 255  28 145 255  150 204 255  255 255 255
255 255 255  255 255 255  255 255 255  255 255 255  255 255 255  225 241 255
28 145 255  28 145 255  134 197 255  255 255 255  210 233 255  28 145 255
89 175 255  255 255 255  255 255 255  255 255 255  255 255 255  255 255 255
255 255 255  210 233 255  28 145 255  28 145 255  195 226 255  255 255 255
255 255 255  89 175 255  28 145 255  195 226 255  255 255 255  255 255 255
255 255 255  255 255 255  255 255 255  255 255 255  255 255 255  255 255 255
195 226 255  28 145 255  134 197 255  134 197 255  28 145 255  225 241 255
255 255 255  255 255 255  255 255 255  255 255 255  255 255 255  255 255 255
255 255 255  255 255 255  255 255 255  255 255 255
255 255 255  255 255 255  255 255 255  255 255 255  255 255 255  255 255 255
255 255 255  255 255 255  255 255 255  255 255 255  255 255 255  255 255 255
134 197 255  28 145 255  134 197 255  255 255 255  255 255 255  255 255 255
255 255 255  255 255 255  255 255 255  255 255 255  255 255 255  255 255 255
255 255 255  255 255 255  255 255 255  255 255 255  255 255 255  59 160 255
28 145 255  195 226 255  255 255 255  255 255 255  255 255 255  255 255 255
210 233 255  44 153 255  44 153 255  28 145 255  255 255 255  255 255 255
210 233 255  28 145 255  59 160 255  240 248 255  255 255 255  255 255 255
255 255 255  255 255 255  255 255 255  104 182 255  28 145 255  195 226 255
255 255 255  195 226 255  28 145 255  134 197 255  255 255 255  255 255 255
255 255 255  255 255 255  255 255 255  255 255 255  255 255 255  89 175 255
28 145 255  255 255 255  255 255 255  255 255 255  255 255 255  255 255 255
255 255 255  255 255 255  255 255 255  255 255 255  59 160 255  28 145 255
150 204 255  255 255 255  255 255 255  255 255 255  255 255 255  255 255 255
134 197 255  28 145 255  104 182 255  255 255 255  255 255 255  255 255 255
255 255 255  255 255 255  119 189 255  28 145 255  104 182 255  28 145 255
210 233 255  255 255 255  255 255 255  255 255 255  255 255 255  165 211 255
28 145 255  74 167 255  240 248 255  255 255 255  255 255 255  255 255 255
255 255 255  225 241 255  44 153 255  28 145 255  210 233 255  255 255 255
255 255 255  28 145 255  28 145 255  255 255 255  255 255 255  255 255 255
255 255 255  255 255 255  255 255 255  255 255 255  255 255 255  255 255 255
225 241 255  28 145 255  59 160 255  28 145 255  134 197 255  255 255 255
255 255 255  255 255 255  255 255 255  255 255 255  255 255 255  255 255 255
255 255 255  255 255 255  255 255 255  255 255 255  134 197 255  28 145 255
44 153 255  74 167 255  240 248 255  255 255 255  255 255 255  255 255 255
255 255 255  210 233 255  44 153 255  28 145 255  195 226 255  255 255 255
255 255 255  255 255 255  74 167 255  28 145 255  119 189 255  255 255 255
255 255 255  255 255 255  255 255 255  255 255 255  165 211 255  28 145 255
59 160 255  240 248 255  255 255 255  255 255 255  210 233 255  28 145 255
59 160 255  255 255 255  255 255 255  255 255 255  255 255 255  255 255 255
165 211 255  44 153 255  28 145 255  89 175 255  255 255 255  255 255 255
195 226 255  28 145 255  134 197 255  255 255 255  255 255 255  255 255 255
255 255 255  255 255 255  255 255 255  255 255 255  28 145 255  28 145 255
255 255 255  255 255 255  210 233 255  28 145 255  44 153 255  210 233 255
255 255 255  255 255 255  255 255 255  255 255 255  240 248 255  74 167 255
28 145 255  28 145 255  134 197 255  255 255 255  255 255 255  44 153 255
44 153 255  210 233 255  255 255 255  255 255 255  255 255 255  255 255 255
225 241 255  59 160 255  44 153 255  28 145 255  195 226 255  255 255 255
255 255 255  89 175 255  28 145 255  195 226 255  255 255 255  255 255 255
255 255 255  255 255 255  255 255 255  255 255 255  255 255 255  255 255 255
255 255 255  59 160 255  44 153 255  44 153 255  74 167 255  255 255 255
255 255 255  255 255 255  255 255 255  28 145 255  28 145 255  134 197 255
255 255 255  255 255 255  255 255 255  255 255 255
255 255 255  255 255 255  255 255 255  255 255 255  255 255 255  255 255 255
255 255 255  255 255 255  255 255 255  255 255 255  255 255 255  255 255 255
134 197 255  28 145 255  134 197 255  255 255 255  255 255 255  255 255 255
255 255 255  255 255 255  255 255 255  255 255 255  255 255 255  255 255 255
255 255 255  255 255 255  255 255 255  255 255 255  255 255 255  165 211 255
28 145 255  44 153 255  134 197 255  195 226 255  195 226 255  134 197 255
44 153 255  74 167 255  134 197 255  28 145 255  255 255 255  255 255 255
255 255 255  134 197 255  28 145 255  59 160 255  165 211 255  195 226 255
195 226 255  165 211 255  89 175 255  28 145 255  74 167 255  255 255 255
255 255 255  195 226 255  28 145 255  134 197 255  255 255 255  255 255 255
255 255 255  255 255 255  255 255 255  255 255 255  255 255 255  89 175 255
28 145 255  255 255 255  255 255 255  255 255 255  255 255 255  255 255 255
255 255 255  255 255 255  255 255 255  255 255 255  210 233 255  44 153 255
28 145 255  104 182 255  165 211 255  195 226 255  180 219 255  89 175 255
28 145 255  59 160 255  240 248 255  255 255 255  255 255 255  255 255 255
255 255 255  255 255 255  195 226 255  28 145 255  28 145 255  74 167 255
255 255 255  255 255 255  255 255 255  255 255 255  255 255 255  255 255 255
119 189 255  28 145 255  44 153 255  134 197 255  195 226 255  195 226 255
134 197 255  44 153 255  28 145 255  150 204 255  255 255 255  255 255 255
255 255 255  28 145 255  28 145 255  255 255 255  255 255 255  255 255 255
255 255 255  255 255 255  255 255 255  255 255 255  255 255 255  255 255 255
255 255 255  89 175 255  28 145 255  28 145 255  225 241 255  255 255 255
255 255 255  255 255 255  255 255 255  255 255 255  255 255 255  255 255 255
255 255 255  255 255 255  255 255 255  255 255 255  134 197 255  28 145 255
134 197 255  28 145 255  44 153 255  134 197 255  195 226 255  195 226 255
134 197 255  44 153 255  28 145 255  134 197 255  255 255 255  255 255 255
255 255 255  255 255 255  210 233 255  44 153 255  28 145 255  104 182 255
150 204 255  195 226 255  165 211 255  104 182 255  28 145 255  44 153 255
210 233 255  255 255 255  255 255 255  255 255 255  255 255 255  89 175 255
28 145 255  89 175 255  180 219 255  195 226 255  180 219 255  104 182 255
28 145 255  150 204 255  28 145 255  89 175 255  255 255 255  255 255 255
195 226 255  28 145 255  134 197 255  255 255 255  255 255 255  255 255 255
255 255 255  255 255 255  255 255 255  255 255 255  28 145 255  28 145 255
255 255 255  255 255 255  255 255 255  165 211 255  28 145 255  44 153 255
134 197 255  180 219 255  195 226 255  134 197 255  59 160 255  44 153 255
134 197 255  28 145 255  134 197 255  255 255 255  255 255 255  134 197 255
28 145 255  59 160 255  165 211 255  195 226 255  195 226 255  134 197 255
44 153 255  74 167 255  134 197 255  28 145 255  89 175 255  150 204 255
255 255 255  89 175 255  28 145 255  195 226 255  255 255 255  255 255 255
255 255 255  255 255 255  255 255 255  255 255 255  255 255 255  255 255 255
255 255 255  150 204 255  28 145 255  28 145 255  165 211 255  255 255 255
255 255 255  255 255 255  255 255 255  28 145 255  28 145 255  134 197 255
255 255 255  255 255 255  255 255 255  255 255 255
255 255 255  255 255 255  255 255 255  255 255 255  255 255 255  255 255 255
255 255 255  255 255 255  255 255 255  255 255 255  255 255 255  255 255 255
134 197 255  28 145 255  134 197 255  255 255 255  255 255 255  255 255 255
255 255 255  255 255 255  255 255 255  255 255 255  255 255 255  255 255 255
255 255 255  255 255 255  255 255 255  255 255 255  255 255 255  255 255 255
150 204 255  44 153 255  28 145 255  28 145 255  28 145 255  28 145 255
104 182 255  240 248 255  134 197 255  28 145 255  255 255 255  255 255 255
255 255 255  255 255 255  134 197 255  44 153 255  28 145 255  28 145 255
28 145 255  28 145 255  44 153 255  119 189 255  240 248 255  255 255 255
255 255 255  195 226 255  28 145 255  134 197 255  255 255 255  255 255 255
255 255 255  255 255 255  255 255 255  255 255 255  255 255 255  89 175 255
28 145 255  255 255 255  255 255 255  255 255 255  255 255 255  255 255 255
255 255 255  255 255 255  255 255 255  255 255 255  255 255 255  210 233 255
89 175 255  28 145 255  28 145 255  28 145 255  28 145 255  28 145 255
119 189 255  225 241 255  255 255 255  255 255 255  255 255 255  255 255 255
255 255 255  255 255 255  255 255 255  59 160 255  28 145 255  150 204 255
255 255 255  255 255 255  255 255 255  255 255 255  255 255 255  255 255 255
255 255 255  134 197 255  44 153 255  28 145 255  28 145 255  28 145 255
28 145 255  59 160 255  165 211 255  255 255 255  255 255 255  255 255 255
255 255 255  28 145 255  28 145 255  255 255 255  255 255 255  255 255 255
255 255 255  255 255 255  255 255 255  255 255 255  255 255 255  255 255 255
255 255 255  165 211 255  28 145 255  89 175 255  255 255 255  255 255 255
255 255 255  255 255 255  255 255 255  255 255 255  255 255 255  255 255 255
255 255 255  255 255 255  255 255 255  255 255 255  134 197 255  28 145 255
195 226 255  210 233 255  59 160 255  28 145 255  28 145 255  28 145 255
28 145 255  44 153 255  150 204 255  255 255 255  255 255 255  255 255 255
255 255 255  255 255 255  255 255 255  225 241 255  104 182 255  28 145 255
28 145 255  28 145 255  28 145 255  28 145 255  89 175 255  210 233 255
255 255 255  255 255 255  255 255 255  255 255 255  255 255 255  240 248 255
104 182 255  28 145 255  28 145 255  28 145 255  28 145 255  44 153 255
165 211 255  255 255 255  28 145 255  89 175 255  255 255 255  255 255 255
195 226 255  28 145 255  134 197 255  255 255 255  255 255 255  255 255 255
255 255 255  255 255 255  255 255 255  255 255 255  28 145 255  28 145 255
255 255 255  255 255 255  255 255 255  255 255 255  180 219 255  44 153 255
28 145 255  28 145 255  28 145 255  28 145 255  74 167 255  210 233 255
195 226 255  28 145 255  134 197 255  255 255 255  255 255 255  255 255 255
119 189 255  28 145 255  28 145 255  28 145 255  28 145 255  28 145 255
89 175 255  240 248 255  225 241 255  59 160 255  28 145 255  89 175 255
255 255 255  89 175 255  28 145 255  195 226 255  255 255 255  255 255 255
255 255 255  255 255 255  255 255 255  255 255 255  255 255 255  255 255 255
255 255 255  240 248 255  28 145 255  28 145 255  240 248 255  255 255 255
255 255 255  255 255 255  255 255 255  28 145 255  28 145 255  134 197 255
255 255 255  255 255 255  255 255 255  255 255 255
255 255 255  255 255 255  255 255 255  255 255 255  255 255 255  255 255 255
255 255 255  255 255 255  255 255 255  255 255 255  255 255 255  255 255 255
255 255 255  255 255 255  255 255 255  255 255 255  255 255 255  255 255 255
255 255 255  255 255 255  255 255 255  255 255 255  255 255 255  255 255 255
255 255 255  255 255 255  255 255 255  255 255 255  255 255 255  255 255 255
255 255 255  255 255 255  195 226 255  165 211 255  195 226 255  225 241 255
255 255 255  255 255 255  255 255 255  255 255 255  255 255 255  255 255 255
255 255 255  255 255 255  255 255 255  240 248 255  195 226 255  180 219 255
165 211 255  195 226 255  240 248 255  255 255 255  255 255 255  255 255 255
255 255 255  255 255 255  255 255 255  255 255 255  255 255 255  255 255 255
255 255 255  255 255 255  255 255 255  255 255 255  255 255 255  255 255 255
255 255 255  255 255 255  255 255 255  255 255 255  255 255 255  255 255 255
255 255 255  255 255 255  255 255 255  255 255 255  255 255 255  255 255 255
255 255 255  225 241 255  195 226 255  150 204 255  195 226 255  225 241 255
255 255 255  255 255 255  255 255 255  255 255 255  255 255 255  255 255 255
255 255 255  255 255 255  255 255 255  255 255 255  255 255 255  255 255 255
255 255 255  255 255 255  255 255 255  255 255 255  255 255 255  255 255 255
255 255 255  255 255 255  255 255 255  195 226 255  165 211 255  180 219 255
195 226 255  255 255 255  255 255 255  255 255 255  255 255 255  255 255 255
255 255 255  255 255 255  255 255 255  255 255 255  255 255 255  255 255 255
255 255 255  255 255 255  255 255 255  255 255 255  255 255 255  255 255 255
255 255 255  165 211 255  28 145 255  165 211 255  255 255 255  255 255 255
255 255 255  255 255 255  255 255 255  255 255 255  255 255 255  255 255 255
255 255 255  255 255 255  255 255 255  255 255 255  255 255 255  255 255 255
255 255 255  255 255 255  255 255 255  210 233 255  180 219 255  165 211 255
195 226 255  255 255 255  255 255 255  255 255 255  255 255 255  255 255 255
255 255 255  255 255 255  255 255 255  255 255 255  255 255 255  225 241 255
195 226 255  150 204 255  195 226 255  225 241 255  255 255 255  255 255 255
255 255 255  255 255 255  255 255 255  255 255 255  255 255 255  255 255 255
255 255 255  225 241 255  195 226 255  150 204 255  195 226 255  255 255 255
255 255 255  255 255 255  255 255 255  255 255 255  255 255 255  255 255 255
255 255 255  255 255 255  255 255 255  255 255 255  255 255 255  255 255 255
255 255 255  255 255 255  255 255 255  255 255 255  255 255 255  255 255 255
255 255 255  255 255 255  255 255 255  255 255 255  255 255 255  255 255 255
195 226 255  165 211 255  180 219 255  210 233 255  255 255 255  255 255 255
255 255 255  255 255 255  255 255 255  255 255 255  255 255 255  255 255 255
255 255 255  225 241 255  195 226 255  150 204 255  195 226 255  225 241 255
255 255 255  255 255 255  255 255 255  255 255 255  255 255 255  255 255 255
255 255 255  255 255 255  255 255 255  255 255 255  255 255 255  255 255 255
255 255 255  255 255 255  255 255 255  255 255 255  255 255 255  255 255 255
255 255 255  225 241 255  28 145 255  119 189 255  255 255 255  255 255 255
255 255 255  255 255 255  255 255 255  255 255 255  255 255 255  255 255 255
255 255 255  255 255 255  255 255 255  255 255 255
255 255 255  255 255 255  255 255 255  255 255 255  255 255 255  255 255 255
255 255 255  255 255 255  255 255 255  255 255 255  255 255 255  255 255 255
255 255 255  255 255 255  255 255 255  255 255 255  255 255 255  255 255 255
255 255 255  255 255 255  255 255 255  255 255 255  255 255 255  255 255 255
255 255 255  255 255 255  255 255 255  255 255 255  255 255 255  255 255 255
255 255 255  255 255 255  255 255 255  255 255 255  255 255 255  255 255 255
255 255 255  255 255 255  255 255 255  255 255 255  255 255 255  255 255 255
255 255 255  255 255 255  255 255 255  255 255 255  255 255 255  255 255 255
255 255 255  255 255 255  255 255 255  255 255 255  255 255 255  255 255 255
255 255 255  255 255 255  255 255 255  255 255 255  255 255 255  255 255 255
255 255 255  255 255 255  255 255 255  255 255 255  255 255 255  255 255 255
255 255 255  255 255 255  255 255 255  255 255 255  255 255 255  255 255 255
255 255 255  255 255 255  255 255 255  255 255 255  255 255 255  255 255 255
255 255 255  255 255 255  255 255 255  255 255 255  255 255 255  255 255 255
255 255 255  255 255 255  255 255 255  255 255 255  255 255 255  255 255 255
255 255 255  255 255 255  255 255 255  255 255 255  255 255 255  255 255 255
255 255 255  255 255 255  255 255 255  255 255 255  255 255 255  255 255 255
255 255 255  255 255 255  255 255 255  255 255 255  255 255 255  255 255 255
255 255 255  255 255 255  255 255 255  255 255 255  255 255 255  255 255 255
255 255 255  255 255 255  255 255 255  255 255 255  255 255 255  255 255 255
255 255 255  255 255 255  255 255 255  255 255 255  255 255 255  255 255 255
255 255 255  74 167 255  44 153 255  240 248 255  255 255 255  255 255 255
255 255 255  255 255 255  255 255 255  255 255 255  255 255 255  255 255 255
255 255 255  255 255 255  255 255 255  255 255 255  255 255 255  255 255 255
255 255 255  255 255 255  255 255 255  255 255 255  255 255 255  255 255 255
255 255 255  255 255 255  255 255 255  255 255 255  255 255 255  255 255 255
255 255 255  255 255 255  255 255 255  255 255 255  255 255 255  255 255 255
255 255 255  255 255 255  255 255 255  255 255 255  255 255 255  255 255 255
255 255 255  255 255 255  255 255 255  255 255 255  255 255 255  255 255 255
255 255 255  255 255 255  255 255 255  255 255 255  255 255 255  255 255 255
255 255 255  255 255 255  255 255 255  255 255 255  255 255 255  255 255 255
255 255 255  255 255 255  255 255 255  255 255 255  255 255 255  255 255 255
255 255 255  255 255 255  255 255 255  255 255 255  255 255 255  255 255 255
255 255 255  255 255 255  255 255 255  255 255 255  255 255 255  255 255 255
255 255 255  255 255 255  255 255 255  255 255 255  255 255 255  255 255 255
255 255 255  255 255 255  255 255 255  255 255 255  255 255 255  255 255 255
255 255 255  255 255 255  255 255 255  255 255 255  255 255 255  255 255 255
255 255 255  255 255 255  255 255 255  255 255 255  255 255 255  255 255 255
255 255 255  255 255 255  255 255 255  255 255 255  255 255 255  255 255 255
255 255 255  255 255 255  255 255 255  255 255 255  255 255 255  255 255 255
255 255 255  134 197 255  28 145 255  195 226 255  255 255 255  255 255 255
255 255 255  255 255 255  255 255 255  255 255 255  255 255 255  255 255 255
255 255 255  255 255 255  255 255 255  255 255 255
255 255 255  255 255 255  255 255 255  255 255 255  255 255 255  255 255 255
255 255 255  255 255 255  255 255 255  255 255 255  255 255 255  255 255 255
255 255 255  255 255 255  255 255 255  255 255 255  255 255 255  255 255 255
255 255 255  255 255 255  255 255 255  255 255 255  255 255 255  255 255 255
255 255 255  255 255 255  255 255 255  255 255 255  255 255 255  255 255 255
255 255 255  255 255 255  255 255 255  255 255 255  255 255 255  255 255 255
255 255 255  255 255 255  255 255 255  255 255 255  255 255 255  255 255 255
255 255 255  255 255 255  255 255 255  255 255 255  255 255 255  255 255 255
255 255 255  255 255 255  255 255 255  255 255 255  255 255 255  255 255 255
255 255 255  255 255 255  255 255 255  255 255 255  255 255 255  255 255 255
255 255 255  255 255 255  255 255 255  255 255 255  255 255 255  255 255 255
255 255 255  255 255 255  255 255 255  255 255 255  255 255 255  255 255 255
255 255 255  255 255 255  255 255 255  255 255 255  255 255 255  255 255 255
255 255 255  255 255 255  255 255 255  255 255 255  255 255 255  255 255 255
255 255 255  255 255 255  255 255 255  255 255 255  255 255 255  255 255 255
255 255 255  255 255 255  255 255 255  255 255 255  255 255 255  255 255 255
255 255 255  255 255 255  255 255 255  255 255 255  255 255 255  255 255 255
255 255 255  255 255 255  255 255 255  255 255 255  255 255 255  255 255 255
255 255 255  255 255 255  255 255 255  255 255 255  255 255 255  255 255 255
255 255 255  255 255 255  255 255 255  255 255 255  255 255 255  255 255 255
255 255 255  255 255 255  255 255 255  255 255 255  255 255 255  255 255 255
195 226 255  28 145 255  119 189 255  255 255 255  255 255 255  255 255 255
255 255 255  255 255 255  255 255 255  255 255 255  255 255 255  255 255 255
255 255 255  255 255 255  255 255 255  255 255 255  255 255 255  255 255 255
255 255 255  255 255 255  255 255 255  255 255 255  255 255 255  255 255 255
255 255 255  255 255 255  255 255 255  255 255 255  255 255 255  255 255 255
255 255 255  255 255 255  255 255 255  255 255 255  255 255 255  255 255 255
255 255 255  255 255 255  255 255 255  255 255 255  255 255 255  255 255 255
255 255 255  255 255 255  255 255 255  255 255 255  255 255 255  255 255 255
255 255 255  255 255 255  255 255 255  255 255 255  255 255 255  255 255 255
255 255 255  255 255 255  255 255 255  255 255 255  255 255 255  255 255 255
255 255 255  255 255 255  255 255 255  255 255 255  255 255 255  255 255 255
255 255 255  255 255 255  255 255 255  255 255 255  255 255 255  255 255 255
255 255 255  255 255 255  255 255 255  255 255 255  255 255 255  255 255 255
255 255 255  255 255 255  255 255 255  255 255 255  255 255 255  255 255 255
255 255 255  255 255 255  255 255 255  255 255 255  255 255 255  255 255 255
255 255 255  255 255 255  255 255 255  255 255 255  255 255 255  255 255 255
255 255 255  255 255 255  255 255 255  255 255 255  255 255 255  255 255 255
255 255 255  255 255 255  255 255 255  255 255 255  255 255 255  255 255 255
255 255 255  255 255 255  255 255 255  255 255 255  255 255 255  255 255 255
240 248 255  44 153 255  59 160 255  255 255 255  255 255 255  255 255 255
255 255 255  255 255 255  255 255 255  255 255 255  255 255 255  255 255 255
255 255 255  255 255 255  255 255 255  255 255 255
255 255 255  255 255 255  255 255 255  255 255 255  255 255 255  255 255 255
255 255 255  255 255 255  255 255 255  255 255 255  255 255 255  255 255 255
255 255 255  255 255 255  255 255 255  255 255 255  255 255 255  255 255 255
255 255 255  255 255 255  255 255 255  255 255 255  255 255 255  255 255 255
255 255 255  255 255 255  255 255 255  255 255 255  255 255 255  255 255 255
255 255 255  255 255 255  255 255 255  255 255 255  255 255 255  255 255 255
255 255 255  255 255 255  255 255 255  255 255 255  255 255 255  255 255 255
255 255 255  255 255 255  255 255 255  255 255 255  255 255 255  255 255 255
255 255 255  255 255 255  255 255 255  255 255 255  255 255 255  255 255 255
255 255 255  255 255 255  255 255 255  255 255 255  255 255 255  255 255 255
255 255 255  255 255 255  255 255 255  255 255 255  255 255 255  255 255 255
255 255 255  255 255 255  255 255 255  255 255 255  255 255 255  255 255 255
255 255 255  255 255 255  255 255 255  255 255 255  255 255 255  255 255 255
255 255 255  255 255 255  255 255 255  255 255 255  255 255 255  255 255 255
255 255 255  255 255 255  255 255 255  255 255 255  255 255 255  255 255 255
255 255 255  255 255 255  255 255 255  255 255 255  255 255 255  255 255 255
255 255 255  255 255 255  255 255 255  255 255 255  255 255 255  255 255 255
255 255 255  255 255 255  255 255 255  255 255 255  255 255 255  255 255 255
255 255 255  255 255 255  255 255 255  255 255 255  255 255 255  255 255 255
255 255 255  255 255 255  255 255 255  255 255 255  255 255 255  255 255 255
255 255 255  255 255 255  255 255 255  225 241 255  134 197 255  134 197 255
44 153 255  28 145 255  225 241 255  255 255 255  255 255 255  255 255 255
255 255 255  255 255 255  255 255 255  255 255 255  255 255 255  255 255 255
255 255 255  255 255 255  255 255 255  255 255 255  255 255 255  255 255 255
255 255 255  255 255 255  255 255 255  255 255 255  255 255 255  255 255 255
255 255 255  255 255 255  255 255 255  255 255 255  255 255 255  255 255 255
255 255 255  255 255 255  255 255 255  255 255 255  255 255 255  255 255 255
255 255 255  255 255 255  255 255 255  255 255 255  255 255 255  255 255 255
255 255 255  255 255 255  255 255 255  255 255 255  255 255 255  255 255 255
255 255 255  255 255 255  255 255 255  255 255 255  255 255 255  255 255 255
255 255 255  255 255 255  255 255 255  255 255 255  255 255 255  255 255 255
255 255 255  255 255 255  255 255 255  255 255 255  255 255 255  255 255 255
255 255 255  255 255 255  255 255 255  255 255 255  255 255 255  255 255 255
255 255 255  255 255 255  255 255 255  255 255 255  255 255 255  255 255 255
255 255 255  255 255 255  255 255 255  255 255 255  255 255 255  255 255 255
255 255 255  255 255 255  255 255 255  255 255 255  255 255 255  255 255 255
255 255 255  255 255 255  255 255 255  255 255 255  255 255 255  255 255 255
255 255 255  255 255 255  255 255 255  255 255 255  255 255 255  255 255 255
255 255 255  255 255 255  255 255 255  255 255 255  255 255 255  255 255 255
255 255 255  255 255 255  255 255 255  255 255 255  134 197 255  134 197 255
59 160 255  28 145 255  165 211 255  255 255 255  255 255 255  255 255 255
255 255 255  255 255 255  255 255 255  255 255 255  255 255 255  255 255 255
255 255 255  255 255 255  255 255 255  255 255 255
255 255 255  255 255 255  255 255 255  255 255 255  255 255 255  255 255 255
255 255 255  255 255 255  255 255 255  255 255 255  255 255 255  255 255 255
255 255 255  255 255 255  255 255 255  255 255 255  255 255 255  255 255 255
255 255 255  255 255 255  255 255 255  255 255 255  255 255 255  255 255 255
255 255 255  255 255 255  255 255 255  255 255 255  255 255 255  255 255 255
255 255 255  255 255 255  255 255 255  255 255 255  255 255 255  255 255 255
255 255 255  255 255 255  255 255 255  255 255 255  255 255 255  255 255 255
255 255 255  255 255 255  255 255 255  255 255 255  255 255 255  255 255 255
255 255 255  255 255 255  255 255 255  255 255 255  255 255 255  255 255 255
255 255 255  255 255 255  255 255 255  255 255 255  255 255 255  255 255 255
255 255 255  255 255 255  255 255 255  255 255 255  255 255 255  255 255 255
255 255 255  255 255 255  255 255 255  255 255 255  255 255 255  255 255 255
255 255 255  255 255 255  255 255 255  255 255 255  255 255 255  255 255 255
255 255 255  255 255 255  255 255 255  255 255 255  255 255 255  255 255 255
255 255 255  255 255 255  255 255 255  255 255 255  255 255 255  255 255 255
255 255 255  255 255 255  255 255 255  255 255 255  255 255 255  255 255 255
255 255 255  255 255 255  255 255 255  255 255 255  255 255 255  255 255 255
255 255 255  255 255 255  255 255 255  255 255 255  255 255 255  255 255 255
255 255 255  255 255 255  255 255 255  255 255 255  255 255 255  255 255 255
255 255 255  255 255 255  255 255 255  255 255 255  255 255 255  255 255 255
255 255 255  255 255 255  255 255 255  195 226 255  28 145 255  28 145 255
44 153 255  165 211 255  255 255 255  255 255 255  255 255 255  255 255 255
255 255 255  255 255 255  255 255 255  255 255 255  255 255 255  255 255 255
255 255 255  255 255 255  255 255 255  255 255 255  255 255 255  255 255 255
255 255 255  255 255 255  255 255 255  255 255 255  255 255 255  255 255 255
255 255 255  255 255 255  255 255 255  255 255 255  255 255 255  255 255 255
255 255 255  255 255 255  255 255 255  255 255 255  255 255 255  255 255 255
255 255 255  255 255 255  255 255 255  255 255 255  255 255 255  255 255 255
255 255 255  255 255 255  255 255 255  255 255 255  255 255 255  255 255 255
255 255 255  255 255 255  255 255 255  255 255 255  255 255 255  255 255 255
255 255 255  255 255 255  255 255 255  255 255 255  255 255 255  255 255 255
255 255 255  255 255 255  255 255 255  255 255 255  255 255 255  255 255 255
255 255 255  255 255 255  255 255 255  255 255 255  255 255 255  255 255 255
255 255 255  255 255 255  255 255 255  255 255 255  255 255 255  255 255 255
255 255 255  255 255 255  255 255 255  255 255 255  255 255 255  255 255 255
255 255 255  255 255 255  255 255 255  255 255 255  255 255 255  255 255 255
255 255 255  255 255 255  255 255 255  255 255 255  255 255 255  255 255 255
255 255 255  255 255 255  255 255 255  255 255 255  255 255 255  255 255 255
255 255 255  255 255 255  255 255 255  255 255 255  255 255 255  255 255 255
255 255 255  255 255 255  255 255 255  255 255 255  28 145 255  28 145 255
28 145 255  134 197 255  255 255 255  255 255 255  255 255 255  255 255 255
255 255 255  255 255 255  255 255 255  255 255 255  255 255 255  255 255 255
255 255 255  255 255 255  255 255 255  255 255 255
